;FLAVOR:RepRap
;TIME:895
;Generated with Cura_SteamEngine 2.3.1
M190 S60
M104 S200
M109 S200
G21 ;metric values
G90 ;absolute positioning
M82 ;set extruder to absolute mode
M107 ;start with the fan off
G28 ;Home all axes (max endstops)
G1 Z15.0 F9000 ;move the platform down 15mm
G92 E0 ;zero the extruded length
G1 F200 E3 ;extrude 3mm of feed stock
G92 E0 ;zero the extruded length again
G1 F9000
;Put printing message on LCD screen
M117 Printing...
;LAYER_COUNT:119
;LAYER:0
M107
G1 F1500 E-6.5
G0 F3600 X15.053 Y7.233 Z.3
;TYPE:SKIRT
G1 F1500 E0
G1 F1800 X-15.717 Y7.174 E1.53512
G1 X-16.252 Y7.133 E1.56189
G1 X-17.024 Y6.926 E1.60177
G1 X-20.052 Y5.739 E1.76403
G1 X-25.25 Y3.924 E2.03871
G1 X-29.012 Y2.811 E2.23444
G1 X-29.513 Y2.621 E2.26117
G1 X-29.981 Y2.359 E2.28793
G1 X-30.404 Y2.03 E2.31467
G1 X-30.774 Y1.641 E2.34145
G1 X-31.082 Y1.202 E2.36821
G1 X-31.322 Y.723 E2.39494
G1 X-31.487 Y.212 E2.42173
G1 X-31.575 Y-.317 E2.44848
G1 X-31.59 Y-.642 E2.46471
G1 X-31.589 Y-3.625 E2.61353
G1 X-31.549 Y-4.16 E2.6403
G1 X-31.43 Y-4.683 E2.66706
G1 X-31.234 Y-5.182 E2.69381
G1 X-30.967 Y-5.647 E2.72056
G1 X-30.633 Y-6.067 E2.74733
G1 X-30.241 Y-6.433 E2.77409
G1 X-29.799 Y-6.736 E2.80082
G1 X-29.316 Y-6.97 E2.8276
G1 X-28.804 Y-7.13 E2.85436
G1 X-28.275 Y-7.213 E2.88107
G1 X-27.989 Y-7.224 E2.89535
G1 X27.99 Y-7.223 E5.68816
G1 X28.525 Y-7.183 E5.71492
G1 X29.048 Y-7.064 E5.74168
G1 X29.547 Y-6.869 E5.76841
G1 X30.012 Y-6.601 E5.79519
G1 X30.432 Y-6.268 E5.82193
G1 X30.798 Y-5.876 E5.84868
G1 X31.101 Y-5.434 E5.87542
G1 X31.336 Y-4.951 E5.90222
G1 X31.496 Y-4.44 E5.92893
G1 X31.579 Y-3.91 E5.9557
G1 X31.59 Y-3.622 E5.97007
G1 X31.589 Y-.64 E6.11885
G1 X31.549 Y-.105 E6.14561
G1 X31.43 Y.418 E6.17237
G1 X31.234 Y.917 E6.19912
G1 X30.967 Y1.382 E6.22587
G1 X30.633 Y1.802 E6.25264
G1 X30.241 Y2.168 E6.2794
G1 X29.799 Y2.471 E6.30613
G1 X29.316 Y2.705 E6.33291
G1 X29.019 Y2.808 E6.34859
G1 X24.847 Y4.054 E6.56582
G1 X19.635 Y5.894 E6.84158
G1 X17.08 Y6.911 E6.97877
G1 X16.568 Y7.072 E7.00555
G1 X16.097 Y7.149 E7.02936
G1 X15.408 Y7.216 E7.0639
G1 X15.053 Y7.233 E7.08163
G0 F3600 X15.054 Y6.833
G1 F1800 X-15.716 Y6.774 E8.61675
G1 X-16.22 Y6.733 E8.64198
G1 X-16.878 Y6.553 E8.67601
G1 X-19.909 Y5.365 E8.83843
G1 X-25.13 Y3.542 E9.11433
G1 X-28.898 Y2.427 E9.31037
G1 X-29.37 Y2.246 E9.33559
G1 X-29.807 Y1.993 E9.36079
G1 X-30.2 Y1.674 E9.38604
G1 X-30.537 Y1.297 E9.41127
G1 X-30.81 Y.872 E9.43647
G1 X-31.013 Y.409 E9.46169
G1 X-31.141 Y-.081 E9.48696
G1 X-31.19 Y-.642 E9.51505
G1 X-31.189 Y-3.625 E9.66387
G1 X-31.149 Y-4.129 E9.6891
G1 X-31.03 Y-4.62 E9.7143
G1 X-30.835 Y-5.087 E9.73955
G1 X-30.569 Y-5.517 E9.76478
G1 X-30.239 Y-5.9 E9.79
G1 X-29.852 Y-6.226 E9.81524
G1 X-29.419 Y-6.487 E9.84047
G1 X-28.951 Y-6.676 E9.86565
G1 X-28.458 Y-6.789 E9.89088
G1 X-27.989 Y-6.824 E9.91434
G1 X27.99 Y-6.823 E12.70715
G1 X28.494 Y-6.783 E12.73237
G1 X28.985 Y-6.664 E12.75758
G1 X29.452 Y-6.469 E12.78283
G1 X29.882 Y-6.204 E12.80803
G1 X30.265 Y-5.874 E12.83325
G1 X30.591 Y-5.487 E12.85849
G1 X30.852 Y-5.054 E12.88372
G1 X31.042 Y-4.586 E12.90892
G1 X31.155 Y-4.093 E12.93415
G1 X31.19 Y-3.622 E12.95771
G1 X31.189 Y-.64 E13.10648
G1 X31.149 Y-.136 E13.13171
G1 X31.03 Y.355 E13.15691
G1 X30.835 Y.822 E13.18216
G1 X30.569 Y1.252 E13.20739
G1 X30.239 Y1.635 E13.23261
G1 X29.852 Y1.961 E13.25785
G1 X29.419 Y2.222 E13.28308
G1 X28.905 Y2.425 E13.31065
G1 X24.695 Y3.682 E13.52985
G1 X19.511 Y5.513 E13.80414
G1 X16.932 Y6.539 E13.94261
G1 X16.449 Y6.688 E13.96783
G1 X16.059 Y6.751 E13.98754
G1 X15.37 Y6.818 E14.02208
G1 X15.054 Y6.833 E14.03786
G1 F1500 E7.53786
G0 F3600 X15.054 Y4.298
G0 X15.054 Y2.993
G0 X15.639 Y2.876
G0 X15.671 Y2.97
;TYPE:WALL-INNER
G1 F1500 E14.03786
G1 F1800 X15.448 Y3.033 E14.04942
G1 X-15.45 Y3.033 E15.59093
G1 X-15.689 Y2.964 E15.60334
G1 X-15.927 Y2.87 E15.61611
G1 X-16.214 Y2.718 E15.63231
G1 X-16.425 Y2.577 E15.64497
G1 X-16.635 Y2.405 E15.65851
G1 X-16.869 Y2.164 E15.67527
G1 X-17.017 Y1.978 E15.68713
G1 X-17.19 Y1.707 E15.70317
G1 X-17.301 Y1.486 E15.71551
G1 X-17.413 Y1.19 E15.7313
G1 X-17.476 Y.955 E15.74344
G1 X-17.518 Y.703 E15.75618
G1 X-17.537 Y.351 E15.77377
G1 X-17.526 Y.092 E15.7867
G1 X-17.478 Y-.209 E15.80191
G1 X-17.278 Y-.984 E15.84184
G1 X-17.214 Y-1.233 E15.85467
G1 X-17.471 Y-1.233 E15.86242
G1 X-17.472 Y-1.233 E15.86247
G1 X-27.399 Y-1.233 E16.35773
G1 X-27.399 Y-3.033 E16.44754
G1 X27.399 Y-3.033 E19.18142
G1 X27.399 Y-1.233 E19.27122
G1 X17.238 Y-1.233 E19.77816
G1 X17.237 Y-1.233 E19.77821
G1 X17.214 Y-1.233 E19.77935
G1 X17.22 Y-1.21 E19.78006
G1 X17.276 Y-.992 E19.79129
G1 X17.304 Y-.882 E19.79695
G1 X17.309 Y-.859 E19.79813
G1 X17.387 Y-.559 E19.81359
G1 X17.483 Y-.188 E19.83271
G1 X17.501 Y-.07 E19.83867
G1 X17.521 Y.055 E19.84498
G1 X17.535 Y.317 E19.85807
G1 X17.538 Y.373 E19.86087
G1 X17.526 Y.633 E19.87386
G1 X17.516 Y.7 E19.87724
G1 X17.489 Y.863 E19.88548
G1 X17.47 Y.981 E19.89144
G1 X17.411 Y1.196 E19.90256
G1 X17.405 Y1.216 E19.90361
G1 X17.287 Y1.515 E19.91964
G1 X17.28 Y1.53 E19.92047
G1 X17.21 Y1.667 E19.92814
G1 X17.177 Y1.732 E19.93178
G1 X17.023 Y1.968 E19.94584
G1 X17.002 Y2 E19.94775
G1 X16.851 Y2.187 E19.95974
G1 X16.768 Y2.27 E19.9656
G1 X16.65 Y2.388 E19.97392
G1 X16.627 Y2.411 E19.97555
G1 X16.426 Y2.576 E19.98852
G1 X16.191 Y2.732 E20.00259
G1 X15.905 Y2.877 E20.01859
G1 X15.671 Y2.97 E20.03115
G0 F3600 X15.61 Y2.429
G1 F1800 X16.069 Y2.286 E20.05514
G1 X16.374 Y2.112 E20.07264
G1 X16.398 Y2.095 E20.07406
G1 X16.51 Y2.014 E20.08015
G1 X16.61 Y1.923 E20.08547
G1 X16.754 Y1.793 E20.09276
G1 X16.942 Y1.55 E20.10425
G0 X16.952 Y1.537
G1 X17.033 Y1.406 E20.10662
G0 X17.038 Y1.395
G1 X17.168 Y1.129 E20.11451
G1 X17.232 Y.911 E20.11726
G0 X17.257 Y.826
G0 X17.288 Y.664
G0 X17.291 Y.617
G1 X17.309 Y.356 E20.12034
G0 X17.311 Y.329
G0 X17.286 Y.079
G1 X17.274 Y-.035 E20.12124
G1 X17.25 Y-.113 E20.12212
G1 X17.129 Y-.492 E20.1349
G1 X16.977 Y-.761 E20.14775
G1 X16.97 Y-.774 E20.14849
G1 X16.959 Y-.794 E20.14956
G1 X16.892 Y-.886 E20.15493
G1 X16.857 Y-.934 E20.1579
G1 X16.634 Y-1.179 E20.17442
G1 X16.316 Y-1.421 E20.19436
G1 X15.976 Y-1.591 E20.21332
G1 X15.667 Y-1.682 E20.2294
G1 X15.506 Y-1.711 E20.23756
G1 X15.173 Y-1.736 E20.25422
G1 X14.809 Y-1.697 E20.27248
G1 X14.35 Y-1.553 E20.29648
G1 X14.045 Y-1.38 E20.31398
G1 X13.91 Y-1.28 E20.32236
G1 X13.665 Y-1.061 E20.33875
G1 X13.468 Y-.805 E20.35487
G1 X13.385 Y-.673 E20.36265
G1 X13.252 Y-.396 E20.37798
G1 X13.161 Y-.095 E20.39366
G1 X13.132 Y.07 E20.40202
G1 X13.107 Y.403 E20.41868
G1 X13.146 Y.767 E20.43695
G1 X13.289 Y1.225 E20.46088
G1 X13.463 Y1.53 E20.4784
G1 X13.563 Y1.666 E20.48682
G1 X13.783 Y1.91 E20.50322
G1 X14.038 Y2.106 E20.51926
G1 X14.169 Y2.189 E20.527
G1 X14.446 Y2.324 E20.54237
G1 X14.749 Y2.413 E20.55813
G1 X14.911 Y2.444 E20.56636
G1 X15.248 Y2.469 E20.58322
G1 X15.61 Y2.429 E20.60139
G0 F3600 X15.63 Y2.526
G0 X14.74 Y2.451
G0 X7.291 Y1.083
G0 X7.197 Y1.051
G1 F1800 X7.272 Y.746 E20.61706
G1 X7.298 Y.584 E20.62524
G1 X7.308 Y.247 E20.64206
G1 X7.256 Y-.112 E20.66016
G1 X7.095 Y-.566 E20.68419
G1 X6.911 Y-.864 E20.70166
G1 X6.805 Y-.996 E20.71011
G1 X6.576 Y-1.232 E20.72652
G1 X6.312 Y-1.42 E20.74269
G1 X6.177 Y-1.496 E20.75041
G1 X5.896 Y-1.62 E20.76574
G1 X5.591 Y-1.695 E20.78141
G1 X5.429 Y-1.721 E20.78959
G1 X5.091 Y-1.732 E20.80647
G1 X4.729 Y-1.68 E20.82471
G1 X4.277 Y-1.517 E20.84868
G1 X3.98 Y-1.335 E20.86606
G1 X3.846 Y-1.228 E20.87462
G1 X3.612 Y-.999 E20.89095
G1 X3.425 Y-.738 E20.90697
G1 X3.347 Y-.603 E20.91475
G1 X3.222 Y-.32 E20.93018
G1 X3.147 Y-.015 E20.94585
G1 X3.121 Y.148 E20.95409
G1 X3.111 Y.485 E20.97091
G1 X3.163 Y.845 E20.98905
G1 X3.326 Y1.303 E21.01331
G1 X3.555 Y1.662 E21.03455
G1 X3.785 Y1.908 E21.05135
G1 X3.909 Y2.014 E21.05949
G1 X4.177 Y2.197 E21.07568
G1 X4.519 Y2.352 E21.09442
G1 X4.832 Y2.431 E21.11052
G1 X4.996 Y2.454 E21.11878
G1 X5.329 Y2.464 E21.1354
G1 X5.688 Y2.412 E21.1535
G1 X6.143 Y2.251 E21.17758
G1 X6.442 Y2.066 E21.19512
G1 X6.574 Y1.96 E21.20357
G1 X6.807 Y1.732 E21.21983
G1 X6.994 Y1.471 E21.23585
G1 X7.072 Y1.335 E21.24367
G1 X7.197 Y1.051 E21.25915
G0 F3600 X7.291 Y1.083
G0 X6.837 Y1.758
G0 X6.465 Y2.098
G0 X6.16 Y2.287
G0 X5.697 Y2.45
G0 X4.993 Y2.493
G0 X-2.592 Y.507
G0 X-2.691 Y.502
G1 F1800 X-2.706 Y.078 E21.28032
G1 X-2.807 Y-.332 E21.30139
G1 X-2.95 Y-.645 E21.31856
G1 X-3.039 Y-.79 E21.32704
G1 X-3.237 Y-1.05 E21.34335
G1 X-3.475 Y-1.269 E21.35948
G1 X-3.597 Y-1.361 E21.36711
G1 X-3.863 Y-1.52 E21.38257
G1 X-4.157 Y-1.634 E21.3983
G1 X-4.316 Y-1.678 E21.40653
G1 X-4.65 Y-1.731 E21.4234
G1 X-5.013 Y-1.722 E21.44152
G1 X-5.483 Y-1.619 E21.46552
G1 X-5.799 Y-1.473 E21.48289
G1 X-5.944 Y-1.386 E21.49133
G1 X-6.206 Y-1.185 E21.5078
G1 X-6.425 Y-.949 E21.52386
G1 X-6.519 Y-.823 E21.53171
G1 X-6.677 Y-.56 E21.54701
G1 X-6.818 Y-.188 E21.56686
G1 X-6.877 Y.143 E21.58363
G1 X-6.888 Y.312 E21.59208
G1 X-6.872 Y.656 E21.60926
G1 X-6.773 Y1.064 E21.63021
G1 X-6.629 Y1.378 E21.64744
G1 X-6.54 Y1.523 E21.65593
G1 X-6.342 Y1.783 E21.67224
G1 X-6.106 Y2 E21.68823
G1 X-5.982 Y2.094 E21.69599
G1 X-5.716 Y2.253 E21.71146
G1 X-5.421 Y2.367 E21.72723
G1 X-5.261 Y2.412 E21.73553
G1 X-4.93 Y2.463 E21.75223
G1 X-4.567 Y2.456 E21.77035
G1 X-4.096 Y2.352 E21.79441
G1 X-3.777 Y2.205 E21.81194
G1 X-3.632 Y2.116 E21.82042
G1 X-3.373 Y1.918 E21.83669
G1 X-3.153 Y1.68 E21.85286
G1 X-3.06 Y1.556 E21.86059
G1 X-2.904 Y1.294 E21.8758
G1 X-2.787 Y.996 E21.89178
G1 X-2.743 Y.837 E21.90001
G1 X-2.691 Y.502 E21.91692
G0 F3600 X-2.592 Y.507
G0 X-2.869 Y1.311
G0 X-3.347 Y1.947
G0 X-3.759 Y2.24
G0 X-4.084 Y2.389
G0 X-4.563 Y2.495
G0 X-5.269 Y2.451
G0 X-12.59 Y.375
G0 X-12.69 Y.375
G1 F1800 X-12.713 Y.036 E21.93387
G1 X-12.82 Y-.373 E21.95496
G1 X-13.009 Y-.753 E21.97614
G1 X-13.217 Y-1.024 E21.99318
G1 X-13.334 Y-1.146 E22.00161
G1 X-13.589 Y-1.36 E22.01822
G1 X-13.866 Y-1.517 E22.03411
G1 X-14.007 Y-1.582 E22.04185
G1 X-14.303 Y-1.678 E22.05738
G1 X-14.614 Y-1.723 E22.07306
G1 X-14.778 Y-1.733 E22.08125
G1 X-15.12 Y-1.709 E22.09836
G1 X-15.53 Y-1.601 E22.11951
G1 X-15.913 Y-1.411 E22.14084
G1 X-16.243 Y-1.152 E22.16177
G1 X-16.463 Y-.901 E22.17842
G1 X-16.558 Y-.766 E22.18666
G1 X-16.714 Y-.478 E22.203
G1 X-16.833 Y-.125 E22.22158
G1 X-16.882 Y.195 E22.23773
G1 X-16.889 Y.359 E22.24592
G1 X-16.865 Y.697 E22.26283
G1 X-16.757 Y1.107 E22.28398
G1 X-16.569 Y1.486 E22.30509
G1 X-16.361 Y1.757 E22.32213
G1 X-16.245 Y1.878 E22.33049
G1 X-15.991 Y2.092 E22.34706
G1 X-15.713 Y2.25 E22.36302
G1 X-15.57 Y2.315 E22.37085
G1 X-15.275 Y2.411 E22.38633
G1 X-14.963 Y2.457 E22.40207
G1 X-14.8 Y2.465 E22.41021
G1 X-14.459 Y2.443 E22.42726
G1 X-14.05 Y2.334 E22.44837
G1 X-13.67 Y2.146 E22.46952
G1 X-13.396 Y1.937 E22.48672
G1 X-13.274 Y1.818 E22.49522
G1 X-13.064 Y1.567 E22.51155
G1 X-12.902 Y1.287 E22.52769
G1 X-12.84 Y1.143 E22.53551
G1 X-12.745 Y.853 E22.55073
G1 X-12.698 Y.541 E22.56647
G1 X-12.69 Y.375 E22.57476
G0 F3600 X-13.11 Y.101
;TYPE:WALL-OUTER
G1 F1800 X-13.197 Y-.232 E22.59194
G1 X-13.35 Y-.54 E22.60909
G1 X-13.521 Y-.763 E22.62311
G1 X-13.608 Y-.854 E22.62939
G1 X-13.818 Y-1.03 E22.64306
G1 X-14.049 Y-1.161 E22.65631
G1 X-14.153 Y-1.209 E22.66203
G1 X-14.394 Y-1.287 E22.67467
G1 X-14.654 Y-1.325 E22.68777
G1 X-14.776 Y-1.332 E22.69387
G1 X-15.055 Y-1.313 E22.70782
G1 X-15.388 Y-1.225 E22.72501
G1 X-15.698 Y-1.071 E22.74228
G1 X-15.967 Y-.86 E22.75933
G1 X-16.148 Y-.653 E22.77305
G1 X-16.218 Y-.554 E22.7791
G1 X-16.346 Y-.318 E22.79249
G1 X-16.443 Y-.03 E22.80766
G1 X-16.483 Y.233 E22.82093
G1 X-16.488 Y.354 E22.82697
G1 X-16.469 Y.632 E22.84087
G1 X-16.381 Y.965 E22.85806
G1 X-16.228 Y1.273 E22.87521
G1 X-16.057 Y1.496 E22.88923
G1 X-15.971 Y1.586 E22.89544
G1 X-15.761 Y1.762 E22.90911
G1 X-15.53 Y1.894 E22.92239
G1 X-15.425 Y1.942 E22.92815
G1 X-15.184 Y2.02 E22.94078
G1 X-14.924 Y2.058 E22.95389
G1 X-14.803 Y2.064 E22.95994
G1 X-14.524 Y2.046 E22.97389
G1 X-14.191 Y1.958 E22.99107
G1 X-13.882 Y1.805 E23.00827
G1 X-13.658 Y1.634 E23.02233
G1 X-13.568 Y1.546 E23.02861
G1 X-13.393 Y1.337 E23.04221
G1 X-13.26 Y1.106 E23.05551
G1 X-13.214 Y1.001 E23.06123
G1 X-13.136 Y.761 E23.07382
G1 X-13.097 Y.501 E23.08694
G1 X-13.091 Y.379 E23.09303
G1 X-13.11 Y.101 E23.10693
G0 F3600 X-12.626 Y-.024
G0 X-12.976 Y-.774
G0 X-13.567 Y-1.392
G0 X-14.294 Y-1.716
G0 X-15.126 Y-1.748
G0 X-15.544 Y-1.638
G0 X-17.247 Y-.709
G0 X-17.73 Y-.833
G1 F1800 X-17.987 Y-.833 E23.11975
G1 X-27.799 Y-.833 E23.60928
G1 X-27.799 Y-3.433 E23.73899
G1 X27.799 Y-3.433 E26.51279
G1 X27.799 Y-.833 E26.6425
G1 X17.987 Y-.833 E27.13202
G1 X17.73 Y-.833 E27.14484
G1 X17.794 Y-.584 E27.15261
G1 X17.876 Y-.265 E27.16904
G1 X17.919 Y.014 E27.18312
G1 X17.939 Y.38 E27.20141
G1 X17.925 Y.672 E27.21599
G1 X17.862 Y1.062 E27.2357
G1 X17.783 Y1.347 E27.25046
G1 X17.651 Y1.682 E27.26842
G1 X17.519 Y1.941 E27.28292
G1 X17.329 Y2.231 E27.30022
G1 X17.145 Y2.459 E27.31484
G1 X16.897 Y2.707 E27.33234
G1 X16.667 Y2.896 E27.34719
G1 X16.388 Y3.081 E27.36389
G1 X16.069 Y3.243 E27.38174
G1 X15.802 Y3.349 E27.39607
G1 X15.504 Y3.433 E27.41152
G1 X-15.506 Y3.433 E28.95861
G1 X-15.825 Y3.341 E28.97518
G1 X-16.092 Y3.235 E28.98951
G1 X-16.416 Y3.063 E29.00781
G1 X-16.666 Y2.897 E29.02278
G1 X-16.908 Y2.698 E29.03841
G1 X-17.168 Y2.431 E29.057
G1 X-17.344 Y2.21 E29.0711
G1 X-17.539 Y1.903 E29.08924
G1 X-17.664 Y1.656 E29.10306
G1 X-17.794 Y1.312 E29.1214
G1 X-17.868 Y1.037 E29.13561
G1 X-17.915 Y.753 E29.14997
G1 X-17.938 Y.346 E29.17031
G1 X-17.925 Y.055 E29.18484
G1 X-17.87 Y-.288 E29.20217
G1 X-17.794 Y-.584 E29.21742
G1 X-17.73 Y-.833 E29.22518
G0 F3600 X-17.247 Y-.709
G0 X-15.544 Y-1.638
G0 X-14.778 Y-1.773
G0 X-13.993 Y-1.619
G0 X-6.922 Y-.169
G0 X-6.431 Y-.081
G1 F1800 X-6.479 Y.191 E29.23896
G1 X-6.487 Y.316 E29.24521
G1 X-6.474 Y.599 E29.25934
G1 X-6.393 Y.933 E29.27649
G1 X-6.276 Y1.189 E29.29053
G1 X-6.21 Y1.296 E29.2968
G1 X-6.045 Y1.513 E29.3104
G1 X-5.849 Y1.693 E29.32368
G1 X-5.758 Y1.762 E29.32938
G1 X-5.54 Y1.892 E29.34204
G1 X-5.295 Y1.987 E29.35515
G1 X-5.177 Y2.02 E29.36126
G1 X-4.903 Y2.062 E29.37509
G1 X-4.614 Y2.057 E29.38951
G1 X-4.224 Y1.971 E29.40944
G1 X-3.966 Y1.852 E29.42361
G1 X-3.859 Y1.786 E29.42989
G1 X-3.643 Y1.621 E29.44345
G1 X-3.461 Y1.424 E29.45683
G1 X-3.393 Y1.333 E29.46249
G1 X-3.264 Y1.117 E29.47505
G1 X-3.167 Y.87 E29.48829
G1 X-3.135 Y.753 E29.49434
G1 X-3.092 Y.478 E29.50822
G1 X-3.104 Y.133 E29.52545
G1 X-3.186 Y-.2 E29.54256
G1 X-3.303 Y-.456 E29.5566
G1 X-3.369 Y-.563 E29.56287
G1 X-3.534 Y-.78 E29.57647
G1 X-3.731 Y-.961 E29.58982
G1 X-3.821 Y-1.029 E29.59545
G1 X-4.039 Y-1.159 E29.60811
G1 X-4.284 Y-1.254 E29.62122
G1 X-4.401 Y-1.287 E29.62728
G1 X-4.676 Y-1.33 E29.64117
G1 X-4.965 Y-1.323 E29.65559
G1 X-5.355 Y-1.238 E29.67551
G1 X-5.612 Y-1.119 E29.68964
G1 X-5.719 Y-1.055 E29.69586
G1 X-5.936 Y-.888 E29.70952
G1 X-6.117 Y-.693 E29.72279
G1 X-6.186 Y-.6 E29.72857
G1 X-6.316 Y-.384 E29.74115
G1 X-6.431 Y-.081 E29.75731
G0 F3600 X-6.922 Y-.169
G0 X-6.455 Y-.974
G0 X-5.966 Y-1.419
G0 X-5.495 Y-1.656
G0 X-5.017 Y-1.761
G0 X-4.308 Y-1.717
G0 X3.013 Y.448
G0 X3.512 Y.462
G1 F1800 X3.553 Y.748 E29.77173
G1 X3.688 Y1.126 E29.79175
G1 X3.872 Y1.416 E29.80889
G1 X4.062 Y1.618 E29.82272
G1 X4.153 Y1.696 E29.8287
G1 X4.374 Y1.847 E29.84206
G1 X4.652 Y1.973 E29.85728
G1 X4.909 Y2.038 E29.87051
G1 X5.03 Y2.055 E29.87661
G1 X5.306 Y2.063 E29.89038
G1 X5.592 Y2.022 E29.9048
G1 X5.969 Y1.888 E29.92476
G1 X6.211 Y1.739 E29.93894
G1 X6.308 Y1.661 E29.94515
G1 X6.502 Y1.471 E29.95869
G1 X6.657 Y1.254 E29.972
G1 X6.715 Y1.154 E29.97777
G1 X6.817 Y.922 E29.99041
G1 X6.88 Y.667 E30.00351
G1 X6.899 Y.547 E30.00957
G1 X6.907 Y.27 E30.0234
G1 X6.866 Y-.016 E30.03781
G1 X6.732 Y-.392 E30.05773
G1 X6.583 Y-.633 E30.07186
G1 X6.505 Y-.731 E30.07811
G1 X6.314 Y-.927 E30.09177
G1 X6.097 Y-1.082 E30.10507
G1 X5.998 Y-1.138 E30.11075
G1 X5.766 Y-1.24 E30.12339
G1 X5.512 Y-1.303 E30.13645
G1 X5.391 Y-1.322 E30.14256
G1 X5.113 Y-1.331 E30.15643
G1 X4.826 Y-1.29 E30.1709
G1 X4.451 Y-1.155 E30.19078
G1 X4.21 Y-1.007 E30.20489
G1 X4.111 Y-.928 E30.21121
G1 X3.917 Y-.738 E30.22476
G1 X3.762 Y-.521 E30.23806
