;FLAVOR:RepRap
;TIME:3148
;Generated with Cura_SteamEngine 2.3.1
M190 S60
M104 S200
M109 S200
G21 ;metric values
G90 ;absolute positioning
M82 ;set extruder to absolute mode
M107 ;start with the fan off
G28 ;Home all axes (max endstops)
G1 Z15.0 F9000 ;move the platform down 15mm
G92 E0 ;zero the extruded length
G1 F200 E3 ;extrude 3mm of feed stock
G92 E0 ;zero the extruded length again
G1 F9000
;Put printing message on LCD screen
M117 Printing...
;LAYER_COUNT:117
;LAYER:0
M107
G1 F1500 E-6.5
G0 F3600 X.334 Y16.587 Z.3
;TYPE:SKIRT
G1 F1500 E0
G1 F1800 X-7.619 Y15.836 E0.39854
G1 X-10.302 Y15.685 E0.53261
G1 X-14.39 Y15.599 E0.73661
G1 X-27.167 Y15.589 E1.37405
G1 X-27.702 Y15.549 E1.40082
G1 X-28.224 Y15.429 E1.42754
G1 X-28.724 Y15.234 E1.45432
G1 X-29.188 Y14.966 E1.48105
G1 X-29.608 Y14.632 E1.50782
G1 X-29.974 Y14.24 E1.53458
G1 X-30.277 Y13.797 E1.56135
G1 X-30.511 Y13.315 E1.58808
G1 X-30.643 Y12.916 E1.60905
G1 X-31.591 Y9.358 E1.79275
G1 X-31.646 Y9.115 E1.80518
G1 X-31.959 Y7.497 E1.8874
G1 X-31.984 Y7.355 E1.8946
G1 X-32.207 Y5.891 E1.96848
G1 X-32.232 Y5.687 E1.97873
G1 X-32.529 Y2.535 E2.13668
G1 X-32.544 Y2.265 E2.15017
G1 X-32.6 Y-.695 E2.29787
G1 X-32.595 Y-.964 E2.3113
G1 X-32.429 Y-3.936 E2.4598
G1 X-32.404 Y-4.208 E2.47343
G1 X-32.001 Y-7.249 E2.62647
G1 X-31.967 Y-7.455 E2.63689
G1 X-31.675 Y-8.976 E2.71416
G1 X-31.621 Y-9.215 E2.72638
G1 X-30.649 Y-12.901 E2.91656
G1 X-30.474 Y-13.408 E2.94332
G1 X-30.226 Y-13.883 E2.97005
G1 X-29.909 Y-14.316 E2.99683
G1 X-29.532 Y-14.698 E3.0236
G1 X-29.103 Y-15.019 E3.05034
G1 X-28.63 Y-15.273 E3.07712
G1 X-28.126 Y-15.453 E3.10382
G1 X-27.599 Y-15.557 E3.13062
G1 X-27.173 Y-15.583 E3.15191
G1 X-14.358 Y-15.6 E3.79126
G1 X-8.794 Y-15.757 E4.06896
G1 X-4.782 Y-16.05 E4.26965
G1 X.717 Y-16.637 E4.54555
G1 X6.103 Y-17.524 E4.81788
G1 X10.509 Y-18.462 E5.04262
G1 X10.819 Y-18.514 E5.05831
G1 X12.393 Y-18.708 E5.13743
G1 X12.77 Y-18.734 E5.15628
G1 X14.542 Y-18.765 E5.2447
G1 X14.865 Y-18.757 E5.26082
G1 X15.861 Y-18.685 E5.31064
G1 X16.165 Y-18.65 E5.32591
G1 X17.975 Y-18.363 E5.41734
G1 X18.459 Y-18.251 E5.44212
G1 X20.424 Y-17.653 E5.54459
G1 X20.734 Y-17.543 E5.561
G1 X21.696 Y-17.151 E5.61283
G1 X22.062 Y-16.978 E5.63303
G1 X23.982 Y-15.931 E5.74213
G1 X24.386 Y-15.674 E5.76602
G1 X25.824 Y-14.62 E5.85497
G1 X26.144 Y-14.355 E5.8757
G1 X27.376 Y-13.212 E5.95954
G1 X27.619 Y-12.965 E5.97683
G1 X28.547 Y-11.921 E6.04652
G1 X28.856 Y-11.519 E6.07181
G1 X30.343 Y-9.277 E6.20603
G1 X30.603 Y-8.815 E6.23248
G1 X31.431 Y-7.048 E6.32984
G1 X31.594 Y-6.636 E6.35194
G1 X32.117 Y-5.032 E6.43611
G1 X32.209 Y-4.693 E6.45364
G1 X32.489 Y-3.427 E6.51832
G1 X32.563 Y-2.936 E6.5431
G1 X32.778 Y-.235 E6.67828
G1 X32.78 Y.301 E6.70502
G1 X32.621 Y2.582 E6.81909
G1 X32.528 Y3.183 E6.84943
G1 X31.922 Y5.673 E6.97729
G1 X31.764 Y6.165 E7.00307
G1 X31.134 Y7.732 E7.08733
G1 X30.986 Y8.053 E7.10496
G1 X30.261 Y9.444 E7.18322
G1 X30.016 Y9.848 E7.20679
G1 X28.713 Y11.705 E7.31997
G1 X28.389 Y12.102 E7.34554
G1 X27.034 Y13.544 E7.44425
G1 X26.724 Y13.838 E7.46557
G1 X25.351 Y14.989 E7.55495
G1 X25.061 Y15.208 E7.57308
G1 X24.266 Y15.748 E7.62103
G1 X23.97 Y15.929 E7.63834
G1 X22.068 Y16.969 E7.74649
G1 X21.601 Y17.182 E7.7721
G1 X19.585 Y17.935 E7.87946
G1 X19.195 Y18.056 E7.89984
G1 X17.878 Y18.384 E7.96755
G1 X17.605 Y18.441 E7.98146
G1 X16.577 Y18.614 E8.03347
G1 X16.235 Y18.655 E8.05066
G1 X14.519 Y18.777 E8.13648
G1 X14.139 Y18.784 E8.15545
G1 X12.527 Y18.728 E8.23592
G1 X12.159 Y18.696 E8.25435
G1 X10.663 Y18.489 E8.32969
G1 X10.414 Y18.446 E8.3423
G1 X5.715 Y17.456 E8.58188
G1 X.334 Y16.587 E8.85382
G0 F3600 X.391 Y16.19
G1 F1800 X-7.587 Y15.437 E9.25361
G1 X-10.301 Y15.285 E9.38922
G1 X-14.381 Y15.199 E9.59282
G1 X-27.166 Y15.189 E10.23067
G1 X-27.67 Y15.149 E10.25589
G1 X-28.162 Y15.029 E10.28116
G1 X-28.628 Y14.834 E10.30636
G1 X-29.058 Y14.568 E10.33159
G1 X-29.441 Y14.238 E10.35681
G1 X-29.766 Y13.851 E10.38202
G1 X-30.027 Y13.418 E10.40724
G1 X-30.256 Y12.813 E10.43952
G1 X-31.204 Y9.255 E10.62322
G1 X-31.254 Y9.039 E10.63428
G1 X-31.567 Y7.421 E10.7165
G1 X-31.589 Y7.295 E10.72288
G1 X-31.812 Y5.831 E10.79676
G1 X-31.834 Y5.649 E10.80591
G1 X-32.131 Y2.497 E10.96386
G1 X-32.144 Y2.258 E10.9758
G1 X-32.2 Y-.702 E11.1235
G1 X-32.196 Y-.941 E11.13543
G1 X-32.03 Y-3.913 E11.28393
G1 X-32.007 Y-4.155 E11.29606
G1 X-31.604 Y-7.196 E11.4491
G1 X-31.575 Y-7.379 E11.45835
G1 X-31.283 Y-8.9 E11.53562
G1 X-31.234 Y-9.113 E11.54652
G1 X-30.262 Y-12.799 E11.7367
G1 X-30.095 Y-13.276 E11.76191
G1 X-29.855 Y-13.721 E11.78714
G1 X-29.548 Y-14.122 E11.81233
G1 X-29.181 Y-14.471 E11.8376
G1 X-28.764 Y-14.757 E11.86283
G1 X-28.307 Y-14.973 E11.88805
G1 X-27.822 Y-15.115 E11.91326
G1 X-27.172 Y-15.183 E11.94587
G1 X-14.346 Y-15.2 E12.58576
G1 X-8.798 Y-15.357 E12.86266
G1 X-4.709 Y-15.655 E13.0672
G1 X.753 Y-16.239 E13.34125
G1 X6.19 Y-17.133 E13.61615
G1 X10.593 Y-18.071 E13.84075
G1 X10.868 Y-18.117 E13.85466
G1 X12.442 Y-18.311 E13.93378
G1 X12.777 Y-18.335 E13.95053
G1 X14.549 Y-18.366 E14.03895
G1 X14.836 Y-18.358 E14.05328
G1 X15.832 Y-18.286 E14.1031
G1 X16.102 Y-18.255 E14.11666
G1 X17.912 Y-17.968 E14.20809
G1 X18.343 Y-17.868 E14.23016
G1 X20.308 Y-17.27 E14.33263
G1 X20.584 Y-17.172 E14.34724
G1 X21.546 Y-16.78 E14.39907
G1 X21.87 Y-16.626 E14.41697
G1 X23.79 Y-15.579 E14.52607
G1 X24.15 Y-15.351 E14.54733
G1 X25.588 Y-14.297 E14.63628
G1 X25.872 Y-14.062 E14.65467
G1 X27.104 Y-12.919 E14.73852
G1 X27.32 Y-12.699 E14.7539
G1 X28.248 Y-11.655 E14.82359
G1 X28.523 Y-11.298 E14.84607
G1 X30.01 Y-9.056 E14.98029
G1 X30.241 Y-8.645 E15.00381
G1 X31.069 Y-6.878 E15.10117
G1 X31.213 Y-6.512 E15.12079
G1 X31.736 Y-4.908 E15.20496
G1 X31.818 Y-4.607 E15.22052
G1 X32.098 Y-3.341 E15.28521
G1 X32.164 Y-2.904 E15.30726
G1 X32.379 Y-.203 E15.44244
G1 X32.381 Y.274 E15.46624
G1 X32.222 Y2.555 E15.58031
G1 X32.139 Y3.089 E15.60727
G1 X31.533 Y5.579 E15.73513
G1 X31.393 Y6.016 E15.75802
G1 X30.763 Y7.583 E15.84228
G1 X30.632 Y7.868 E15.85793
G1 X29.907 Y9.259 E15.93619
G1 X29.688 Y9.618 E15.95717
G1 X28.385 Y11.475 E16.07034
G1 X28.098 Y11.828 E16.09304
G1 X26.743 Y13.27 E16.19176
G1 X26.467 Y13.531 E16.21071
G1 X25.094 Y14.682 E16.3001
G1 X24.836 Y14.877 E16.31623
G1 X24.041 Y15.417 E16.36418
G1 X23.778 Y15.578 E16.37956
G1 X21.876 Y16.618 E16.48771
G1 X21.461 Y16.808 E16.51048
G1 X19.445 Y17.561 E16.61785
G1 X19.098 Y17.668 E16.63597
G1 X17.781 Y17.996 E16.70368
G1 X17.539 Y18.047 E16.71602
G1 X16.511 Y18.22 E16.76803
G1 X16.207 Y18.256 E16.7833
G1 X14.491 Y18.378 E16.86913
G1 X14.153 Y18.384 E16.88599
G1 X12.541 Y18.328 E16.96646
G1 X12.213 Y18.3 E16.98289
G1 X10.717 Y18.093 E17.05823
G1 X10.496 Y18.054 E17.06943
G1 X5.795 Y17.063 E17.30912
G1 X.391 Y16.19 E17.58222
G0 F3600 X4.992 Y11.999
;TYPE:SUPPORT
G1 F1800 X-4.625 Y11.999 E18.06201
G1 X-4.983 Y12.176 E18.08194
G1 X-5.026 Y12.176 E18.08408
G1 X-5.888 Y10.673 E18.17053
G1 X-6.464 Y9.52 E18.23483
G1 X-6.989 Y8.297 E18.30123
G1 X-7.42 Y7.111 E18.36418
G1 X-7.801 Y5.836 E18.43057
G1 X-8.1 Y4.572 E18.49537
G1 X-8.322 Y3.322 E18.55871
G1 X-8.483 Y1.963 E18.62699
G1 X-8.484 Y1.963 E18.62704
G1 X-8.546 Y1.106 E18.66991
G1 X-8.575 Y-.016 E18.7259
G1 X-8.479 Y-1.997 E18.82485
G1 X-8.323 Y-3.32 E18.89131
G1 X-8.102 Y-4.562 E18.95425
G1 X-7.804 Y-5.825 E19.01899
G1 X-7.423 Y-7.101 E19.08543
G1 X-6.993 Y-8.287 E19.14837
G1 X-6.468 Y-9.511 E19.21481
G1 X-5.902 Y-10.645 E19.27804
G1 X-5.026 Y-12.176 E19.36604
G1 X-4.986 Y-12.176 E19.36804
G1 X-4.628 Y-11.999 E19.38796
G1 X5.012 Y-11.999 E19.86891
G1 X5.611 Y-12.423 E19.90552
G1 X6.365 Y-12.894 E19.94987
G1 X6.995 Y-13.249 E19.98595
G1 X7.507 Y-13.509 E20.0146
G1 X8.463 Y-13.934 E20.06679
G1 X9.064 Y-14.159 E20.09881
G1 X9.651 Y-14.348 E20.12958
G1 X10.569 Y-14.598 E20.17704
G1 X11.197 Y-14.735 E20.20911
G1 X11.561 Y-14.795 E20.22752
G1 X11.561 Y-14.794 E20.22757
G1 X12.907 Y-14.951 E20.29517
G1 X13.265 Y-14.976 E20.31308
G1 X13.521 Y-14.984 E20.32586
G1 X14.918 Y-14.961 E20.39556
G1 X15.014 Y-14.958 E20.40035
G1 X16.435 Y-14.801 E20.47168
G1 X16.647 Y-14.77 E20.48237
G1 X17.432 Y-14.608 E20.52236
G1 X18.138 Y-14.418 E20.55883
G1 X18.705 Y-14.241 E20.58847
G1 X19.564 Y-13.937 E20.63393
G1 X20.208 Y-13.668 E20.66875
G1 X20.744 Y-13.408 E20.69847
G1 X21.564 Y-12.968 E20.7449
G1 X22.116 Y-12.634 E20.77708
G1 X22.682 Y-12.247 E20.81129
G1 X23.382 Y-11.726 E20.85483
G1 X23.975 Y-11.21 E20.89404
G1 X24.554 Y-10.68 E20.9332
G1 X24.989 Y-10.232 E20.96436
G1 X25.59 Y-9.548 E21.00978
G1 X25.995 Y-9.037 E21.04231
G1 X26.503 Y-8.306 E21.08673
G1 X26.858 Y-7.761 E21.11918
G1 X27.303 Y-6.962 E21.1648
G1 X27.527 Y-6.513 E21.18984
G1 X27.9 Y-5.677 E21.23551
G1 X28.163 Y-4.997 E21.27188
G1 X28.394 Y-4.277 E21.30961
G1 X28.393 Y-4.277 E21.30966
G1 X28.538 Y-3.761 E21.3364
G1 X28.756 Y-2.766 E21.38722
G1 X28.847 Y-2.23 E21.41434
G1 X28.965 Y-1.211 E21.46552
G1 X28.966 Y-1.211 E21.46557
G1 X29 Y-.776 E21.48734
G1 X29.003 Y-.642 E21.49402
G1 X28.983 Y.728 E21.56238
G1 X28.955 Y1.313 E21.5916
G1 X28.884 Y1.958 E21.62397
G1 X28.787 Y2.664 E21.65952
G1 X28.612 Y3.458 E21.70009
G1 X28.472 Y4.009 E21.72845
G1 X28.224 Y4.825 E21.771
G1 X28.057 Y5.278 E21.79509
G1 X27.689 Y6.171 E21.84327
G1 X27.405 Y6.756 E21.87572
G1 X26.972 Y7.563 E21.92141
G1 X26.689 Y8.033 E21.94878
G1 X26.18 Y8.775 E21.99367
G1 X25.727 Y9.376 E22.03122
G1 X25.225 Y9.979 E22.07036
G1 X24.757 Y10.475 E22.10438
G1 X24.179 Y11.037 E22.14461
G1 X23.653 Y11.495 E22.1794
G1 X22.915 Y12.085 E22.22654
G1 X22.446 Y12.407 E22.25492
G1 X21.848 Y12.794 E22.29046
G1 X21.051 Y13.243 E22.3361
G1 X20.425 Y13.558 E22.37106
G1 X19.648 Y13.902 E22.41345
G1 X19.105 Y14.106 E22.44239
G1 X18.239 Y14.392 E22.48789
G1 X17.6 Y14.562 E22.52088
G1 X16.829 Y14.734 E22.56029
G1 X16.115 Y14.851 E22.59639
G1 X15.169 Y14.959 E22.64389
G1 X14.85 Y14.981 E22.65984
G1 X14.519 Y14.992 E22.67637
G1 X13.23 Y14.974 E22.74068
G1 X12.755 Y14.946 E22.76442
G1 X12.071 Y14.87 E22.79876
G1 X11.246 Y14.745 E22.84039
G1 X10.634 Y14.619 E22.87156
G1 X9.914 Y14.434 E22.90865
G1 X9.342 Y14.249 E22.93864
G1 X8.391 Y13.9 E22.98918
G1 X8.003 Y13.741 E23.0101
G1 X7.098 Y13.31 E23.06011
G1 X6.512 Y12.996 E23.09328
G1 X6.043 Y12.705 E23.12081
G1 X4.992 Y11.999 E23.18398
G0 F3600 X8.766 Y7.307
G1 F1800 X9.13 Y7.557 E23.20601
G1 X9.591 Y7.834 E23.23284
G1 X10.08 Y8.088 E23.26033
G1 X10.571 Y8.319 E23.2874
G1 X10.985 Y8.469 E23.30937
G1 X11.414 Y8.623 E23.33211
G1 X12.038 Y8.789 E23.36433
G1 X12.453 Y8.864 E23.38537
G1 X12.824 Y8.915 E23.40405
G1 X13.654 Y9.004 E23.4457
G1 X13.96 Y9.006 E23.46096
G1 X14.522 Y8.988 E23.48902
G1 X15.16 Y8.924 E23.52101
G1 X15.529 Y8.869 E23.53962
G1 X16.036 Y8.774 E23.56535
G1 X16.51 Y8.653 E23.58976
G1 X16.958 Y8.503 E23.61333
G1 X17.57 Y8.266 E23.64607
G1 X17.938 Y8.101 E23.66619
G1 X18.412 Y7.85 E23.69295
G1 X18.823 Y7.617 E23.71652
G1 X20.101 Y6.719 E23.79445
G1 X21.2 Y5.44 E23.87858
G1 X21.613 Y4.831 E23.91529
G1 X21.654 Y4.756 E23.91955
G1 X21.971 Y4.218 E23.95071
G1 X22.121 Y3.936 E23.96664
G1 X22.325 Y3.474 E23.99184
G1 X22.577 Y2.778 E24.02877
G1 X22.706 Y2.353 E24.05093
G1 X22.802 Y1.997 E24.06932
G1 X22.885 Y1.522 E24.09338
G1 X22.972 Y.921 E24.12368
G1 X23.019 Y.324 E24.15355
G1 X23.024 Y-.165 E24.17795
G1 X22.993 Y-.655 E24.20245
G1 X22.952 Y-1.068 E24.22315
G1 X22.871 Y-1.631 E24.25153
G1 X22.772 Y-2.086 E24.27476
G1 X22.668 Y-2.495 E24.29581
G1 X22.098 Y-4.196 E24.38532
G1 X21.81 Y-4.502 E24.40628
G1 X21.647 Y-4.781 E24.4224
G1 X21.305 Y-5.282 E24.45266
G1 X21.08 Y-5.58 E24.47129
G1 X20.647 Y-6.093 E24.50479
G1 X20.383 Y-6.361 E24.52355
G1 X20.015 Y-6.701 E24.54855
G1 X19.616 Y-7.038 E24.57461
G1 X19.237 Y-7.325 E24.59832
G1 X18.865 Y-7.583 E24.62091
G1 X18.381 Y-7.873 E24.64906
G1 X17.958 Y-8.091 E24.6728
G1 X17.498 Y-8.304 E24.69809
G1 X16.956 Y-8.506 E24.72695
G1 X16.601 Y-8.627 E24.74566
G1 X15.932 Y-8.796 E24.78009
G1 X15.64 Y-8.849 E24.79489
G1 X14.976 Y-8.951 E24.82841
G1 X14.543 Y-9 E24.85015
G1 X13.963 Y-9.01 E24.87909
G1 X13.539 Y-8.992 E24.90026
G1 X12.958 Y-8.938 E24.92937
G1 X12.403 Y-8.851 E24.9574
G1 X12.071 Y-8.792 E24.97422
G1 X11.451 Y-8.623 E25.00628
G1 X11.051 Y-8.499 E25.02718
G1 X10.56 Y-8.31 E25.05342
G1 X10.104 Y-8.101 E25.07845
G1 X9.679 Y-7.884 E25.10226
G1 X9.102 Y-7.541 E25.13575
G1 X8.448 Y-7.067 E25.17604
G1 X8.064 Y-6.743 E25.20111
G1 X7.668 Y-6.371 E25.22821
G1 X7.377 Y-6.069 E25.24914
G1 X6.963 Y-5.574 E25.28133
G1 X6.745 Y-5.291 E25.29915
G1 X6.449 Y-4.882 E25.32434
G1 X6.147 Y-4.36 E25.35443
G1 X6.102 Y-4.275 E25.35923
G1 X5.867 Y-3.925 E25.38026
G1 X5.418 Y-2.678 E25.44638
G1 X5.269 Y-2.123 E25.47505
G1 X5.167 Y-1.623 E25.50051
G1 X5.082 Y-1.05 E25.52941
G1 X5.025 Y-.472 E25.55839
G1 X5.013 Y-.217 E25.57112
G1 X5.014 Y.151 E25.58948
G1 X5.076 Y1.067 E25.63529
G1 X5.136 Y1.479 E25.65606
G1 X5.234 Y1.957 E25.6804
G1 X5.337 Y2.361 E25.7012
G1 X5.481 Y2.86 E25.72711
G1 X5.712 Y3.463 E25.75933
G1 X5.874 Y3.832 E25.77944
G1 X6.096 Y4.284 E25.80456
G1 X6.363 Y4.723 E25.83019
G1 X6.591 Y5.088 E25.85166
G1 X6.932 Y5.547 E25.88019
G1 X7.261 Y5.943 E25.90588
G1 X7.645 Y6.347 E25.93369
G1 X8.036 Y6.724 E25.96078
G1 X8.373 Y7.007 E25.98274
G1 X8.766 Y7.307 E26.0074
G1 F1500 E19.5074
G0 F3600 X7.998 Y6.9
G1 F1500 E26.0074
G1 F1800 X7.998 Y13.562 E26.33977
G0 F3600 X7.509 Y13.33
G1 F1800 X20.521 Y13.33 E26.98894
G1 F1500 E20.48894
G0 F3600 X21.328 Y12.904
G1 F1500 E26.98894
G1 F1800 X21.328 Y5.536 E27.35654
G0 F3600 X21.466 Y5.332
G1 F1800 X27.86 Y5.332 E27.67553
G1 F1500 E21.17553
G0 F3600 X26.66 Y7.771
G1 F1500 E27.67553
G1 F1800 X26.66 Y-7.773 E28.45103
G0 F3600 X26.514 Y-7.997
G1 F1800 X18.483 Y-7.997 E28.8517
G0 F3600 X18.662 Y-7.892
G1 F1800 X18.662 Y-14.087 E29.16076
G1 F1500 E22.66076
G0 F3600 X20.538 Y-13.329
G1 F1500 E29.16076
G1 F1800 X7.508 Y-13.33 E29.81083
G0 F3600 X7.998 Y-13.553
G1 F1800 X7.998 Y-6.896 E30.14295
G1 F1500 E23.64295
G0 F3600 X9.557 Y-7.997
G1 F1500 E30.14295
G1 F1800 X-6.926 Y-7.998 E30.96529
G1 F1500 E24.46529
G0 F3600 X-7.756 Y-5.332
G1 F1500 E30.96529
G1 F1800 X6.576 Y-5.332 E31.68032
G1 F1500 E25.18032
G0 F3600 X5.332 Y-2.91
G1 F1500 E31.68032
G1 F1800 X5.332 Y-12.03 E32.13532
G1 F1500 E25.63532
G0 F3600 X2.666 Y-11.839
G1 F1500 E32.13532
G1 F1800 X2.666 Y11.839 E33.31662
G1 F1500 E26.81662
G0 F3600 X.00 Y11.839
G1 F1500 E33.31662
G1 F1800 X.00 Y-11.839 E34.49792
G1 F1500 E27.99792
G0 F3600 X-2.666 Y-11.839
G1 F1500 E34.49792
G1 F1800 X-2.666 Y11.839 E35.67922
G1 F1500 E29.17922
G0 F3600 X-5.332 Y11.32
G1 F1500 E35.67922
G1 F1800 X-5.332 Y-11.32 E36.80873
G0 F3600 X-5.706 Y-10.664
G1 F1800 X24.335 Y-10.663 E38.30748
G0 F3600 X23.994 Y-10.974
G1 F1800 X23.994 Y10.986 E39.40307
G0 F3600 X24.331 Y10.664
G1 F1800 X-5.708 Y10.664 E40.90173
G1 F1500 E34.40173
G0 F3600 X-5.657 Y10.544
G0 X-6.742 Y8.204
G0 X-6.927 Y7.998
G1 F1500 E40.90173
G1 F1800 X9.563 Y7.998 E41.72442
G1 F1500 E35.22442
G0 F3600 X10.664 Y8.523
G1 F1500 E41.72442
G1 F1800 X10.664 Y14.462 E42.02071
G1 F1500 E35.52071
G0 F3600 X13.33 Y14.815
G1 F1500 E42.02071
G1 F1800 X13.33 Y9.13 E42.30434
G1 F1500 E35.80434
G0 F3600 X15.996 Y8.945
G1 F1500 E42.30434
G1 F1800 X15.996 Y14.705 E42.59171
G1 F1500 E36.09171
G0 F3600 X18.662 Y14.084
G1 F1500 E42.59171
G1 F1800 X18.662 Y7.892 E42.90063
G0 F3600 X18.473 Y7.998
G1 F1800 X26.518 Y7.998 E43.30199
G0 F3600 X28.621 Y2.666
G1 F1800 X22.779 Y2.666 E43.59345
G1 F1500 E37.09345
G0 F3600 X23.183 Y.00
G1 F1500 E43.59345
G1 F1800 X28.833 Y.00 E43.87533
G1 F1500 E37.37533
G0 F3600 X28.611 Y-2.665
G1 F1500 E43.87533
G1 F1800 X22.779 Y-2.665 E44.16629
G0 F3600 X21.463 Y-5.331
G1 F1800 X27.863 Y-5.331 E44.48559
G0 F3600 X21.328 Y-5.516
G1 F1800 X21.328 Y-12.913 E44.85463
G0 F3600 X15.996 Y-14.688
G1 F1800 X15.996 Y-8.944 E45.1412
G1 F1500 E38.6412
G0 F3600 X13.33 Y-9.132
G1 F1500 E45.1412
G1 F1800 X13.33 Y-14.819 E45.42492
G1 F1500 E38.92492
G0 F3600 X10.664 Y-14.456
G1 F1500 E45.42492
G1 F1800 X10.664 Y-8.521 E45.72102
G0 F3600 X5.249 Y-2.665
G1 F1800 X-8.24 Y-2.666 E46.39399
G1 F1500 E39.89399
G0 F3600 X-7.998 Y-4.233
G1 F1500 E46.39399
G1 F1800 X-7.998 Y4.231 E46.81626
G1 F1500 E40.31626
