;FLAVOR:Marlin
;TIME:8535
;Filament used: 3.48594m
;Layer height: 0.1
;Generated with Cura_SteamEngine 3.2.1
M82 ;absolute extrusion mode
; info: M303 E0 S200 C8 ; Pid auto-tune

M140 S60; Start heating up the base
G28 ; Home to top 3 endstops
; Autolevel and adjust first layer
; Adjust this value to fit your own printer!  (positive is thicker)
; This default value is intentionally very high to accommodate the
; variety of print heads used with this printer.  Many of you will
; need tiny values like Z0 or Z0.1.  Use feeler gauges to dial this
; in as accurately as possible.
;G29 Z10

; Squirt and wipe ;
;M109 S220 ; Wait for the temp to hit 220
;G00 X125 Y-60 Z0.1 ;
;G92 E0 ;
;G01 E25 F100 ; Extrude a little bit to replace oozage from auto levelling
;G01 X90 Y-50 F6000 ;
;G01 Z5 ;

; Set the extruder to the requested print temperature
M109 S200
;LAYER_COUNT:185
;LAYER:0
M107
G0 F1500 X13.986 Y-15.187 Z0.3
;TYPE:SKIRT
G1 X25.438 Y-15.187 E0.49992
G1 X26.23 Y-15.147 E0.53454
G1 X27.015 Y-15.028 E0.5692
G1 X27.783 Y-14.83 E0.60383
G1 X28.528 Y-14.555 E0.63849
G1 X29.241 Y-14.208 E0.67311
G1 X29.916 Y-13.79 E0.70777
G1 X30.545 Y-13.307 E0.74239
G1 X31.122 Y-12.762 E0.77703
G1 X31.642 Y-12.163 E0.81166
G1 X32.098 Y-11.514 E0.84629
G1 X32.487 Y-10.822 E0.88094
G1 X32.805 Y-10.095 E0.91558
G1 X33.048 Y-9.339 E0.95025
G1 X33.213 Y-8.563 E0.98488
G1 X33.299 Y-7.775 E1.01948
G1 X33.313 Y-7.312 E1.0397
G1 X33.313 Y7.312 E1.6781
G1 X33.273 Y8.104 E1.71272
G1 X33.154 Y8.889 E1.74738
G1 X32.956 Y9.657 E1.782
G1 X32.681 Y10.402 E1.81667
G1 X32.334 Y11.115 E1.85128
G1 X31.916 Y11.79 E1.88594
G1 X31.433 Y12.419 E1.92056
G1 X30.888 Y12.996 E1.95521
G1 X30.289 Y13.516 E1.98984
G1 X29.64 Y13.972 E2.02446
G1 X28.948 Y14.361 E2.05912
G1 X28.221 Y14.679 E2.09376
G1 X27.465 Y14.922 E2.12842
G1 X26.689 Y15.087 E2.16305
G1 X25.901 Y15.173 E2.19766
G1 X25.438 Y15.187 E2.21788
G1 X13.986 Y15.187 E2.7178
G1 X13.986 Y22.754 E3.04813
G1 X13.946 Y23.546 E3.08275
G1 X13.827 Y24.331 E3.11741
G1 X13.629 Y25.099 E3.15203
G1 X13.354 Y25.844 E3.1867
G1 X13.007 Y26.557 E3.22131
G1 X12.589 Y27.232 E3.25597
G1 X12.106 Y27.861 E3.29059
G1 X11.561 Y28.438 E3.32524
G1 X10.962 Y28.958 E3.35987
G1 X10.313 Y29.414 E3.39449
G1 X9.621 Y29.803 E3.42915
G1 X8.894 Y30.121 E3.46379
G1 X8.138 Y30.364 E3.49845
G1 X7.362 Y30.529 E3.53309
G1 X6.574 Y30.615 E3.56769
G1 X6.111 Y30.629 E3.58791
G1 X-4.266 Y30.629 E4.04091
G1 X-5.058 Y30.589 E4.07553
G1 X-5.843 Y30.47 E4.11019
G1 X-6.611 Y30.272 E4.14481
G1 X-6.732 Y30.228 E4.15043
G1 X-6.936 Y30.405 E4.16222
G1 X-7.585 Y30.861 E4.19684
G1 X-8.277 Y31.25 E4.2315
G1 X-9.004 Y31.568 E4.26614
G1 X-9.76 Y31.811 E4.3008
G1 X-10.536 Y31.976 E4.33544
G1 X-11.324 Y32.062 E4.37004
G1 X-11.787 Y32.076 E4.39026
G1 X-24.213 Y32.076 E4.9327
G1 X-25.005 Y32.036 E4.96732
G1 X-25.79 Y31.917 E5.00198
G1 X-26.558 Y31.719 E5.0366
G1 X-27.303 Y31.444 E5.07127
G1 X-28.016 Y31.097 E5.10589
G1 X-28.691 Y30.679 E5.14055
G1 X-29.32 Y30.196 E5.17517
G1 X-29.897 Y29.651 E5.20981
G1 X-30.417 Y29.052 E5.24444
G1 X-30.873 Y28.403 E5.27907
G1 X-31.262 Y27.711 E5.31372
G1 X-31.58 Y26.984 E5.34836
G1 X-31.823 Y26.228 E5.38303
G1 X-31.988 Y25.452 E5.41766
G1 X-32.074 Y24.664 E5.45226
G1 X-32.088 Y24.201 E5.47248
G1 X-32.088 Y-24.201 E7.58542
G1 X-32.048 Y-24.993 E7.62004
G1 X-31.929 Y-25.778 E7.6547
G1 X-31.731 Y-26.546 E7.68932
G1 X-31.456 Y-27.291 E7.72399
G1 X-31.109 Y-28.004 E7.7586
G1 X-30.691 Y-28.679 E7.79326
G1 X-30.208 Y-29.308 E7.82788
G1 X-29.663 Y-29.885 E7.86253
G1 X-29.064 Y-30.405 E7.89716
G1 X-28.415 Y-30.861 E7.93178
G1 X-27.723 Y-31.25 E7.96644
G1 X-26.996 Y-31.568 E8.00108
G1 X-26.24 Y-31.811 E8.03574
G1 X-25.464 Y-31.976 E8.07038
G1 X-24.676 Y-32.062 E8.10498
G1 X-24.213 Y-32.076 E8.1252
G1 X-11.787 Y-32.076 E8.66764
G1 X-10.995 Y-32.036 E8.70226
G1 X-10.21 Y-31.917 E8.73692
G1 X-9.442 Y-31.719 E8.77154
G1 X-8.697 Y-31.444 E8.80621
G1 X-7.984 Y-31.097 E8.84083
G1 X-7.309 Y-30.679 E8.87549
G1 X-6.721 Y-30.227 E8.90786
G1 X-6.293 Y-30.365 E8.92749
G1 X-5.517 Y-30.53 E8.96213
G1 X-4.729 Y-30.616 E8.99673
G1 X-4.265 Y-30.63 E9.01699
G1 X6.112 Y-30.629 E9.46999
G1 X6.904 Y-30.589 E9.50461
G1 X7.689 Y-30.469 E9.53927
G1 X8.457 Y-30.271 E9.5739
G1 X9.202 Y-29.997 E9.60855
G1 X9.915 Y-29.649 E9.64318
G1 X10.589 Y-29.232 E9.67778
G1 X11.218 Y-28.748 E9.71243
G1 X11.796 Y-28.204 E9.74708
G1 X12.315 Y-27.604 E9.78171
G1 X12.772 Y-26.955 E9.81636
G1 X13.161 Y-26.263 E9.85102
G1 X13.478 Y-25.536 E9.88564
G1 X13.721 Y-24.781 E9.92026
G1 X13.886 Y-24.005 E9.95489
G1 X13.972 Y-23.216 E9.98954
G1 X13.986 Y-22.754 E10.00972
G1 X13.986 Y-15.187 E10.34005
G0 X13.636 Y-14.837
G1 X25.438 Y-14.837 E10.85525
G1 X26.213 Y-14.797 E10.88913
G1 X26.979 Y-14.678 E10.92297
G1 X27.729 Y-14.48 E10.95683
G1 X28.455 Y-14.206 E10.99071
G1 X29.148 Y-13.859 E11.02454
G1 X29.802 Y-13.442 E11.0584
G1 X30.41 Y-12.96 E11.09227
G1 X30.965 Y-12.418 E11.12613
G1 X31.462 Y-11.822 E11.16001
G1 X31.894 Y-11.178 E11.19386
G1 X32.257 Y-10.493 E11.2277
G1 X32.549 Y-9.774 E11.26158
G1 X32.764 Y-9.029 E11.29543
G1 X32.902 Y-8.266 E11.32928
G1 X32.963 Y-7.312 E11.37101
G1 X32.963 Y7.312 E12.0094
G1 X32.923 Y8.087 E12.04328
G1 X32.804 Y8.853 E12.07712
G1 X32.606 Y9.603 E12.11098
G1 X32.332 Y10.329 E12.14486
G1 X31.985 Y11.022 E12.17869
G1 X31.568 Y11.676 E12.21255
G1 X31.086 Y12.284 E12.24642
G1 X30.544 Y12.839 E12.28028
G1 X29.948 Y13.336 E12.31416
G1 X29.304 Y13.768 E12.34801
G1 X28.619 Y14.131 E12.38186
G1 X27.9 Y14.423 E12.41573
G1 X27.155 Y14.638 E12.44958
G1 X26.392 Y14.776 E12.48343
G1 X25.438 Y14.837 E12.52516
G1 X13.636 Y14.837 E13.04037
G1 X13.636 Y22.754 E13.38597
G1 X13.596 Y23.529 E13.41985
G1 X13.477 Y24.295 E13.45369
G1 X13.279 Y25.045 E13.48755
G1 X13.005 Y25.771 E13.52143
G1 X12.658 Y26.464 E13.55526
G1 X12.241 Y27.118 E13.58912
G1 X11.759 Y27.726 E13.62299
G1 X11.217 Y28.281 E13.65685
G1 X10.621 Y28.778 E13.69073
G1 X9.977 Y29.21 E13.72458
G1 X9.292 Y29.573 E13.75843
G1 X8.573 Y29.865 E13.7923
G1 X7.828 Y30.08 E13.82615
G1 X7.065 Y30.218 E13.86
G1 X6.111 Y30.279 E13.90173
G1 X-4.266 Y30.279 E14.35473
G1 X-5.041 Y30.239 E14.3886
G1 X-5.807 Y30.12 E14.42244
G1 X-6.557 Y29.922 E14.45631
G1 X-6.803 Y29.829 E14.46779
G1 X-7.277 Y30.225 E14.49475
G1 X-7.921 Y30.657 E14.5286
G1 X-8.606 Y31.02 E14.56244
G1 X-9.325 Y31.312 E14.59632
G1 X-10.07 Y31.527 E14.63017
G1 X-10.833 Y31.665 E14.66402
G1 X-11.787 Y31.726 E14.70575
G1 X-24.213 Y31.726 E15.24819
G1 X-24.988 Y31.686 E15.28207
G1 X-25.754 Y31.567 E15.31591
G1 X-26.504 Y31.369 E15.34977
G1 X-27.23 Y31.095 E15.38365
G1 X-27.923 Y30.748 E15.41748
G1 X-28.577 Y30.331 E15.45134
G1 X-29.185 Y29.849 E15.48521
G1 X-29.74 Y29.307 E15.51907
G1 X-30.237 Y28.711 E15.55295
G1 X-30.669 Y28.067 E15.5868
G1 X-31.032 Y27.382 E15.62065
G1 X-31.324 Y26.663 E15.65452
G1 X-31.539 Y25.918 E15.68837
G1 X-31.677 Y25.155 E15.72222
G1 X-31.738 Y24.201 E15.76395
G1 X-31.738 Y-24.201 E17.87689
G1 X-31.698 Y-24.976 E17.91077
G1 X-31.579 Y-25.742 E17.94461
G1 X-31.381 Y-26.492 E17.97847
G1 X-31.107 Y-27.218 E18.01234
G1 X-30.76 Y-27.911 E18.04618
G1 X-30.343 Y-28.565 E18.08003
G1 X-29.861 Y-29.173 E18.1139
G1 X-29.319 Y-29.728 E18.14777
G1 X-28.723 Y-30.225 E18.18165
G1 X-28.079 Y-30.657 E18.2155
G1 X-27.394 Y-31.02 E18.24934
G1 X-26.675 Y-31.312 E18.28322
G1 X-25.93 Y-31.527 E18.31707
G1 X-25.167 Y-31.665 E18.35092
G1 X-24.213 Y-31.726 E18.39265
G1 X-11.787 Y-31.726 E18.93509
G1 X-11.012 Y-31.686 E18.96897
G1 X-10.246 Y-31.567 E19.00281
G1 X-9.496 Y-31.369 E19.03667
G1 X-8.77 Y-31.095 E19.07054
G1 X-8.077 Y-30.748 E19.10438
G1 X-7.423 Y-30.331 E19.13824
G1 X-6.815 Y-29.849 E19.17211
G1 X-6.802 Y-29.836 E19.17291
G1 X-6.728 Y-29.866 E19.17639
G1 X-5.983 Y-30.081 E19.21024
G1 X-5.22 Y-30.219 E19.24409
G1 X-4.265 Y-30.28 E19.28587
G1 X6.112 Y-30.279 E19.73886
G1 X6.886 Y-30.239 E19.7727
G1 X7.653 Y-30.119 E19.80659
G1 X8.403 Y-29.922 E19.84044
G1 X9.128 Y-29.648 E19.87427
G1 X9.822 Y-29.3 E19.90816
G1 X10.476 Y-28.884 E19.942
G1 X11.084 Y-28.402 E19.97587
G1 X11.639 Y-27.86 E20.00973
G1 X12.135 Y-27.264 E20.04358
G1 X12.567 Y-26.62 E20.07743
G1 X12.931 Y-25.935 E20.1113
G1 X13.222 Y-25.216 E20.14516
G1 X13.438 Y-24.471 E20.17902
G1 X13.575 Y-23.707 E20.2129
G1 X13.636 Y-22.754 E20.25459
G1 X13.636 Y-14.837 E20.6002
G0 X13.286 Y-14.487
G1 X25.438 Y-14.487 E21.13068
G1 X26.194 Y-14.447 E21.16373
G1 X26.942 Y-14.328 E21.19679
G1 X27.673 Y-14.13 E21.22985
G1 X28.38 Y-13.856 E21.26295
G1 X29.053 Y-13.51 E21.29599
G1 X29.686 Y-13.094 E21.32905
G1 X30.272 Y-12.614 E21.36212
G1 X30.804 Y-12.075 E21.39518
G1 X31.276 Y-11.483 E21.42823
G1 X31.683 Y-10.844 E21.46131
G1 X32.021 Y-10.166 E21.49438
G1 X32.285 Y-9.457 E21.52741
G1 X32.473 Y-8.723 E21.56048
G1 X32.582 Y-7.974 E21.59352
G1 X32.613 Y-7.312 E21.62245
G1 X32.613 Y7.312 E22.26085
G1 X32.573 Y8.068 E22.2939
G1 X32.454 Y8.816 E22.32696
G1 X32.256 Y9.547 E22.36002
G1 X31.982 Y10.254 E22.39312
G1 X31.636 Y10.927 E22.42616
G1 X31.22 Y11.56 E22.45922
G1 X30.74 Y12.146 E22.49229
G1 X30.201 Y12.678 E22.52535
G1 X29.609 Y13.15 E22.5584
G1 X28.97 Y13.557 E22.59147
G1 X28.292 Y13.895 E22.62455
G1 X27.583 Y14.159 E22.65757
G1 X26.849 Y14.347 E22.69065
G1 X26.1 Y14.456 E22.72369
G1 X25.438 Y14.487 E22.75262
G1 X13.286 Y14.487 E23.2831
G1 X13.286 Y22.754 E23.64399
G1 X13.246 Y23.51 E23.67704
G1 X13.127 Y24.258 E23.7101
G1 X12.929 Y24.989 E23.74316
G1 X12.655 Y25.696 E23.77626
G1 X12.309 Y26.369 E23.8093
G1 X11.893 Y27.002 E23.84236
G1 X11.413 Y27.588 E23.87543
G1 X10.874 Y28.12 E23.90849
G1 X10.282 Y28.592 E23.94154
G1 X9.643 Y28.999 E23.97462
G1 X8.965 Y29.337 E24.00769
G1 X8.256 Y29.601 E24.04071
G1 X7.522 Y29.789 E24.07379
G1 X6.773 Y29.898 E24.10683
G1 X6.111 Y29.929 E24.13576
G1 X-4.266 Y29.929 E24.58876
G1 X-5.022 Y29.889 E24.62181
G1 X-5.77 Y29.77 E24.65487
G1 X-6.501 Y29.572 E24.68793
G1 X-6.88 Y29.425 E24.70568
G1 X-7.024 Y29.567 E24.71451
G1 X-7.616 Y30.039 E24.74756
G1 X-8.255 Y30.446 E24.78063
G1 X-8.933 Y30.784 E24.8137
G1 X-9.642 Y31.048 E24.84673
G1 X-10.376 Y31.236 E24.8798
G1 X-11.125 Y31.345 E24.91285
G1 X-11.787 Y31.376 E24.94178
G1 X-24.213 Y31.376 E25.48422
G1 X-24.969 Y31.336 E25.51727
G1 X-25.717 Y31.217 E25.55033
G1 X-26.448 Y31.019 E25.58339
G1 X-27.155 Y30.745 E25.61649
G1 X-27.828 Y30.399 E25.64953
G1 X-28.461 Y29.983 E25.68259
G1 X-29.047 Y29.503 E25.71566
G1 X-29.579 Y28.964 E25.74872
G1 X-30.051 Y28.372 E25.78177
G1 X-30.458 Y27.733 E25.81485
G1 X-30.796 Y27.055 E25.84792
G1 X-31.06 Y26.346 E25.88094
G1 X-31.248 Y25.612 E25.91402
G1 X-31.357 Y24.863 E25.94706
G1 X-31.388 Y24.201 E25.97599
G1 X-31.388 Y-24.201 E28.08893
G1 X-31.348 Y-24.957 E28.12198
G1 X-31.229 Y-25.705 E28.15504
G1 X-31.031 Y-26.436 E28.1881
G1 X-30.757 Y-27.143 E28.2212
G1 X-30.411 Y-27.816 E28.25424
G1 X-29.995 Y-28.449 E28.2873
G1 X-29.515 Y-29.035 E28.32037
G1 X-28.976 Y-29.567 E28.35343
G1 X-28.384 Y-30.039 E28.38648
G1 X-27.745 Y-30.446 E28.41956
G1 X-27.067 Y-30.784 E28.45263
G1 X-26.358 Y-31.048 E28.48565
G1 X-25.624 Y-31.236 E28.51873
G1 X-24.875 Y-31.345 E28.55177
G1 X-24.213 Y-31.376 E28.5807
G1 X-11.787 Y-31.376 E29.12315
G1 X-11.031 Y-31.336 E29.15619
G1 X-10.283 Y-31.217 E29.18926
G1 X-9.552 Y-31.019 E29.22232
G1 X-8.845 Y-30.745 E29.25542
G1 X-8.172 Y-30.399 E29.28845
G1 X-7.539 Y-29.983 E29.32152
G1 X-6.953 Y-29.503 E29.35459
G1 X-6.879 Y-29.428 E29.35919
G1 X-6.411 Y-29.602 E29.38098
G1 X-5.677 Y-29.79 E29.41406
G1 X-4.928 Y-29.899 E29.4471
G1 X-4.265 Y-29.93 E29.47607
G1 X6.112 Y-29.929 E29.92907
G1 X6.868 Y-29.889 E29.96212
G1 X7.616 Y-29.769 E29.99519
G1 X8.347 Y-29.572 E30.02824
G1 X9.053 Y-29.298 E30.0613
G1 X9.727 Y-28.951 E30.09439
G1 X10.36 Y-28.536 E30.12743
G1 X10.945 Y-28.056 E30.16047
G1 X11.477 Y-27.517 E30.19353
G1 X11.95 Y-26.924 E30.22664
G1 X12.357 Y-26.286 E30.25968
G1 X12.694 Y-25.608 E30.29273
G1 X12.958 Y-24.898 E30.3258
G1 X13.146 Y-24.164 E30.35887
G1 X13.256 Y-23.415 E30.39192
G1 X13.286 Y-22.754 E30.42081
G1 X13.286 Y-14.487 E30.78169
G0 X12.936 Y-14.137
G1 X25.438 Y-14.137 E31.32745
G1 X26.176 Y-14.097 E31.35972
G1 X26.904 Y-13.978 E31.39192
G1 X27.616 Y-13.78 E31.42418
G1 X28.302 Y-13.507 E31.45641
G1 X28.955 Y-13.161 E31.48867
G1 X29.567 Y-12.747 E31.52093
G1 X30.13 Y-12.269 E31.55317
G1 X30.638 Y-11.733 E31.58541
G1 X31.085 Y-11.145 E31.61765
G1 X31.466 Y-10.512 E31.6499
G1 X31.777 Y-9.842 E31.68215
G1 X32.013 Y-9.142 E31.71439
G1 X32.172 Y-8.421 E31.74662
G1 X32.253 Y-7.686 E31.7789
G1 X32.263 Y-7.312 E31.79524
G1 X32.263 Y7.312 E32.43363
G1 X32.223 Y8.05 E32.4659
G1 X32.104 Y8.778 E32.4981
G1 X31.906 Y9.49 E32.53036
G1 X31.633 Y10.176 E32.56259
G1 X31.287 Y10.829 E32.59485
G1 X30.873 Y11.441 E32.6271
G1 X30.395 Y12.004 E32.65935
G1 X29.859 Y12.512 E32.69158
G1 X29.271 Y12.959 E32.72383
G1 X28.638 Y13.34 E32.75608
G1 X27.968 Y13.651 E32.78832
G1 X27.268 Y13.887 E32.82057
G1 X26.547 Y14.046 E32.8528
G1 X25.812 Y14.127 E32.88508
G1 X25.438 Y14.137 E32.90142
G1 X12.936 Y14.137 E33.44718
G1 X12.936 Y22.754 E33.82334
G1 X12.896 Y23.492 E33.85561
G1 X12.777 Y24.22 E33.88781
G1 X12.579 Y24.932 E33.92007
G1 X12.306 Y25.618 E33.9523
G1 X11.96 Y26.271 E33.98456
G1 X11.546 Y26.883 E34.01682
G1 X11.068 Y27.446 E34.04906
G1 X10.532 Y27.954 E34.08129
G1 X9.944 Y28.401 E34.11354
G1 X9.311 Y28.782 E34.14579
G1 X8.641 Y29.093 E34.17803
G1 X7.941 Y29.329 E34.21028
G1 X7.22 Y29.488 E34.24251
G1 X6.485 Y29.569 E34.27479
G1 X6.111 Y29.579 E34.29113
G1 X-4.266 Y29.579 E34.74412
G1 X-5.004 Y29.539 E34.77639
G1 X-5.732 Y29.42 E34.80859
G1 X-6.444 Y29.222 E34.84085
G1 X-6.96 Y29.017 E34.86509
G1 X-7.366 Y29.401 E34.88948
G1 X-7.954 Y29.848 E34.92173
G1 X-8.587 Y30.229 E34.95398
G1 X-9.257 Y30.54 E34.98622
G1 X-9.957 Y30.776 E35.01847
G1 X-10.678 Y30.935 E35.0507
G1 X-11.413 Y31.016 E35.08298
G1 X-11.787 Y31.026 E35.09931
G1 X-24.213 Y31.026 E35.64176
G1 X-24.951 Y30.986 E35.67402
G1 X-25.679 Y30.867 E35.70622
G1 X-26.391 Y30.669 E35.73848
G1 X-27.077 Y30.396 E35.77072
G1 X-27.73 Y30.05 E35.80298
G1 X-28.342 Y29.636 E35.83523
G1 X-28.905 Y29.158 E35.86747
G1 X-29.413 Y28.622 E35.89971
G1 X-29.86 Y28.034 E35.93195
G1 X-30.241 Y27.401 E35.9642
G1 X-30.552 Y26.731 E35.99645
G1 X-30.788 Y26.031 E36.0287
G1 X-30.947 Y25.31 E36.06093
G1 X-31.028 Y24.575 E36.09321
G1 X-31.038 Y24.201 E36.10954
G1 X-31.038 Y-24.201 E38.22248
G1 X-30.998 Y-24.939 E38.25474
G1 X-30.879 Y-25.667 E38.28694
G1 X-30.681 Y-26.379 E38.31921
G1 X-30.408 Y-27.065 E38.35144
G1 X-30.062 Y-27.718 E38.3837
G1 X-29.648 Y-28.33 E38.41595
G1 X-29.17 Y-28.893 E38.44819
G1 X-28.634 Y-29.401 E38.48043
G1 X-28.046 Y-29.848 E38.51267
G1 X-27.413 Y-30.229 E38.54493
G1 X-26.743 Y-30.54 E38.57717
G1 X-26.043 Y-30.776 E38.60942
G1 X-25.322 Y-30.935 E38.64165
G1 X-24.587 Y-31.016 E38.67393
G1 X-24.213 Y-31.026 E38.69026
G1 X-11.787 Y-31.026 E39.23271
G1 X-11.049 Y-30.986 E39.26497
G1 X-10.321 Y-30.867 E39.29717
G1 X-9.609 Y-30.669 E39.32943
G1 X-8.923 Y-30.396 E39.36166
G1 X-8.27 Y-30.05 E39.39392
G1 X-7.658 Y-29.636 E39.42618
G1 X-7.095 Y-29.158 E39.45842
G1 X-6.962 Y-29.017 E39.46688
G1 X-6.796 Y-29.094 E39.47487
G1 X-6.096 Y-29.33 E39.50712
G1 X-5.375 Y-29.489 E39.53935
G1 X-4.64 Y-29.57 E39.57163
G1 X-4.265 Y-29.58 E39.588
G1 X6.112 Y-29.579 E40.041
G1 X6.849 Y-29.539 E40.07322
G1 X7.578 Y-29.419 E40.10547
G1 X8.29 Y-29.222 E40.13772
G1 X8.976 Y-28.949 E40.16995
G1 X9.629 Y-28.603 E40.20221
G1 X10.24 Y-28.188 E40.23446
G1 X10.803 Y-27.71 E40.2667
G1 X11.311 Y-27.174 E40.29893
G1 X11.759 Y-26.586 E40.3312
G1 X12.14 Y-25.953 E40.36346
G1 X12.45 Y-25.283 E40.39568
G1 X12.686 Y-24.583 E40.42793
G1 X12.845 Y-23.862 E40.46016
G1 X12.926 Y-23.128 E40.4924
G1 X12.936 Y-22.754 E40.50873
G1 X12.936 Y-14.137 E40.8849
G0 X12.586 Y-13.787
G1 X25.438 Y-13.787 E41.44594
G1 X26.156 Y-13.747 E41.47733
G1 X26.866 Y-13.628 E41.50876
G1 X27.558 Y-13.43 E41.54018
G1 X28.223 Y-13.157 E41.57156
G1 X28.855 Y-12.812 E41.60299
G1 X29.444 Y-12.399 E41.63439
G1 X29.983 Y-11.923 E41.66578
G1 X30.467 Y-11.391 E41.69718
G1 X30.888 Y-10.808 E41.72857
G1 X31.242 Y-10.181 E41.76
G1 X31.525 Y-9.52 E41.79139
G1 X31.732 Y-8.831 E41.8228
G1 X31.862 Y-8.123 E41.85422
