;FLAVOR:Marlin
;TIME:1289
;Filament used: 0.5544m
;Layer height: 0.1
;Generated with Cura_SteamEngine 3.2.1
M82 ;absolute extrusion mode
; info: M303 E0 S200 C8 ; Pid auto-tune

M140 S60; Start heating up the base
G28 ; Home to top 3 endstops
; Autolevel and adjust first layer
; Adjust this value to fit your own printer!  (positive is thicker)
; This default value is intentionally very high to accommodate the
; variety of print heads used with this printer.  Many of you will
; need tiny values like Z0 or Z0.1.  Use feeler gauges to dial this
; in as accurately as possible.
;G29 Z10

; Squirt and wipe ;
;M109 S220 ; Wait for the temp to hit 220
;G00 X125 Y-60 Z0.1 ;
;G92 E0 ;
;G01 E25 F100 ; Extrude a little bit to replace oozage from auto levelling
;G01 X90 Y-50 F6000 ;
;G01 Z5 ;

; Set the extruder to the requested print temperature
M109 S200
;LAYER_COUNT:77
;LAYER:0
M107
G0 F1500 X11.986 Y0.537 Z0.3
;TYPE:SKIRT
G1 X12.299 Y0.776 E0.01719
G1 X12.878 Y1.318 E0.05181
G1 X13.4 Y1.916 E0.08647
G1 X13.859 Y2.563 E0.12109
G1 X14.249 Y3.251 E0.15562
G1 X14.535 Y3.82 E0.18342
G1 X14.855 Y4.546 E0.21805
G1 X15.101 Y5.301 E0.25272
G1 X15.269 Y6.076 E0.28734
G1 X15.359 Y6.865 E0.322
G1 X15.374 Y7.321 E0.34192
G1 X15.386 Y9.964 E0.4573
G1 X15.35 Y10.757 E0.49195
G1 X15.234 Y11.542 E0.52659
G1 X15.006 Y12.417 E0.56606
G1 X14.818 Y13 E0.5928
G1 X14.537 Y13.742 E0.62744
G1 X14.182 Y14.452 E0.66209
G1 X13.758 Y15.122 E0.69671
G1 X13.269 Y15.747 E0.73135
G1 X12.663 Y16.371 E0.76932
G1 X12.366 Y16.645 E0.78696
G1 X11.756 Y17.153 E0.82161
G1 X11.099 Y17.597 E0.85623
G1 X10.4 Y17.973 E0.89088
G1 X9.667 Y18.276 E0.9255
G1 X9.143 Y18.442 E0.9495
G1 X8.627 Y18.586 E0.97288
G1 X7.853 Y18.761 E1.00752
G1 X7.065 Y18.856 E1.04217
G1 X6.51 Y18.876 E1.06642
G1 X-7.511 Y18.876 E1.67849
G1 X-8.303 Y18.836 E1.71311
G1 X-9.088 Y18.717 E1.74777
G1 X-9.856 Y18.519 E1.78239
G1 X-10.601 Y18.244 E1.81706
G1 X-11.314 Y17.897 E1.85167
G1 X-11.989 Y17.479 E1.88633
G1 X-12.618 Y16.996 E1.92095
G1 X-13.195 Y16.451 E1.9556
G1 X-13.715 Y15.852 E1.99022
G1 X-14.171 Y15.203 E2.02485
G1 X-14.56 Y14.511 E2.0595
G1 X-14.878 Y13.784 E2.09414
G1 X-15.121 Y13.028 E2.12881
G1 X-15.286 Y12.252 E2.16344
G1 X-15.372 Y11.464 E2.19805
G1 X-15.386 Y11.001 E2.21827
G1 X-15.386 Y-11 E3.1787
G1 X-15.346 Y-11.792 E3.21332
G1 X-15.227 Y-12.577 E3.24797
G1 X-15.029 Y-13.345 E3.2826
G1 X-14.754 Y-14.09 E3.31726
G1 X-14.407 Y-14.803 E3.35188
G1 X-13.989 Y-15.478 E3.38654
G1 X-13.506 Y-16.107 E3.42116
G1 X-12.961 Y-16.684 E3.45581
G1 X-12.362 Y-17.204 E3.49043
G1 X-11.713 Y-17.66 E3.52506
G1 X-11.021 Y-18.049 E3.55971
G1 X-10.294 Y-18.367 E3.59435
G1 X-9.538 Y-18.61 E3.62902
G1 X-8.762 Y-18.775 E3.66365
G1 X-7.974 Y-18.861 E3.69826
G1 X-7.497 Y-18.875 E3.71909
G1 X6.748 Y-18.849 E4.34094
G1 X7.541 Y-18.808 E4.3756
G1 X8.325 Y-18.687 E4.41023
G1 X9.093 Y-18.487 E4.44488
G1 X9.837 Y-18.212 E4.4795
G1 X10.513 Y-17.883 E4.51232
G1 X10.992 Y-17.621 E4.53616
G1 X11.668 Y-17.206 E4.57078
G1 X12.299 Y-16.724 E4.60545
G1 X12.878 Y-16.182 E4.64007
G1 X13.4 Y-15.584 E4.67472
G1 X13.859 Y-14.937 E4.70935
G1 X14.247 Y-14.254 E4.74364
G1 X14.533 Y-13.686 E4.7714
G1 X14.853 Y-12.96 E4.80604
G1 X15.099 Y-12.205 E4.8407
G1 X15.268 Y-11.43 E4.87533
G1 X15.358 Y-10.642 E4.90995
G1 X15.374 Y-10.18 E4.93013
G1 X15.386 Y-7.537 E5.04551
G1 X15.35 Y-6.744 E5.08016
G1 X15.234 Y-5.959 E5.1148
G1 X15.006 Y-5.084 E5.15427
G1 X14.818 Y-4.501 E5.18102
G1 X14.537 Y-3.759 E5.21565
G1 X14.182 Y-3.049 E5.2503
G1 X13.758 Y-2.379 E5.28492
G1 X13.269 Y-1.754 E5.31956
G1 X12.663 Y-1.13 E5.35753
G1 X12.366 Y-.856 E5.37517
G1 X11.986 Y-.54 E5.39675
G1 X11.986 Y0.537 E5.44376
G0 X11.636 Y0.709
G1 X12.1 Y1.065 E5.46929
G1 X12.663 Y1.599 E5.50317
G1 X13.168 Y2.187 E5.537
G1 X13.61 Y2.825 E5.57088
G1 X13.936 Y3.409 E5.60008
G1 X14.222 Y3.978 E5.62788
G1 X14.535 Y4.688 E5.66175
G1 X14.772 Y5.426 E5.69559
G1 X14.932 Y6.185 E5.72945
G1 X15.024 Y7.323 E5.77929
G1 X15.036 Y9.966 E5.89467
G1 X14.999 Y10.741 E5.92854
G1 X14.883 Y11.508 E5.9624
G1 X14.673 Y12.309 E5.99855
G1 X14.485 Y12.892 E6.02529
G1 X14.209 Y13.617 E6.05916
G1 X13.86 Y14.31 E6.09303
G1 X13.442 Y14.963 E6.12688
G1 X12.958 Y15.57 E6.16077
G1 X12.426 Y16.114 E6.19398
G1 X12.129 Y16.388 E6.21162
G1 X11.532 Y16.884 E6.2455
G1 X10.888 Y17.316 E6.27936
G1 X10.202 Y17.679 E6.31324
G1 X9.483 Y17.969 E6.34708
G1 X9.049 Y18.105 E6.36694
G1 X8.533 Y18.249 E6.39032
G1 X7.776 Y18.419 E6.42419
G1 X7.006 Y18.51 E6.45804
G1 X6.51 Y18.526 E6.4797
G1 X-7.511 Y18.526 E7.09177
G1 X-8.286 Y18.486 E7.12565
G1 X-9.052 Y18.367 E7.15949
G1 X-9.802 Y18.169 E7.19335
G1 X-10.528 Y17.895 E7.22723
G1 X-11.221 Y17.548 E7.26106
G1 X-11.875 Y17.131 E7.29492
G1 X-12.483 Y16.649 E7.32879
G1 X-13.038 Y16.107 E7.36265
G1 X-13.535 Y15.511 E7.39653
G1 X-13.967 Y14.867 E7.43038
G1 X-14.33 Y14.182 E7.46423
G1 X-14.622 Y13.463 E7.4981
G1 X-14.837 Y12.718 E7.53195
G1 X-14.975 Y11.955 E7.5658
G1 X-15.036 Y11.001 E7.60753
G1 X-15.036 Y-11 E8.56796
G1 X-14.996 Y-11.775 E8.60184
G1 X-14.877 Y-12.541 E8.63568
G1 X-14.679 Y-13.291 E8.66954
G1 X-14.405 Y-14.017 E8.70342
G1 X-14.058 Y-14.71 E8.73725
G1 X-13.641 Y-15.364 E8.77111
G1 X-13.159 Y-15.972 E8.80498
G1 X-12.617 Y-16.527 E8.83884
G1 X-12.021 Y-17.024 E8.87272
G1 X-11.377 Y-17.456 E8.90657
G1 X-10.692 Y-17.819 E8.94041
G1 X-9.973 Y-18.111 E8.97429
G1 X-9.228 Y-18.326 E9.00814
G1 X-8.465 Y-18.464 E9.04199
G1 X-7.497 Y-18.525 E9.08433
G1 X6.748 Y-18.499 E9.70618
G1 X7.522 Y-18.458 E9.74002
G1 X8.288 Y-18.337 E9.77387
G1 X9.038 Y-18.138 E9.80774
G1 X9.763 Y-17.862 E9.84161
G1 X10.345 Y-17.576 E9.86992
G1 X10.824 Y-17.314 E9.89375
G1 X11.484 Y-16.907 E9.9276
G1 X12.1 Y-16.435 E9.96148
G1 X12.663 Y-15.901 E9.99535
G1 X13.168 Y-15.313 E10.02919
G1 X13.61 Y-14.675 E10.06307
G1 X13.934 Y-14.096 E10.09203
G1 X14.22 Y-13.528 E10.11979
G1 X14.533 Y-12.818 E10.15367
G1 X14.771 Y-12.08 E10.18752
G1 X14.931 Y-11.321 E10.22138
G1 X15.024 Y-10.178 E10.27144
G1 X15.036 Y-7.535 E10.38682
G1 X14.999 Y-6.76 E10.42069
G1 X14.883 Y-5.993 E10.45455
G1 X14.673 Y-5.192 E10.4907
G1 X14.485 Y-4.609 E10.51744
G1 X14.209 Y-3.884 E10.55131
G1 X13.86 Y-3.191 E10.58518
G1 X13.442 Y-2.538 E10.61902
G1 X12.958 Y-1.931 E10.65291
G1 X12.426 Y-1.387 E10.68613
G1 X12.129 Y-1.113 E10.70377
G1 X11.636 Y-.703 E10.73176
G1 X11.636 Y0.709 E10.7934
G0 X11.3 Y0.891
G1 X11.899 Y1.355 E10.82648
G1 X12.446 Y1.879 E10.85954
G1 X12.934 Y2.458 E10.8926
G1 X13.359 Y3.085 E10.92567
G1 X13.624 Y3.566 E10.94964
G1 X13.91 Y4.135 E10.97744
G1 X14.214 Y4.828 E11.01047
G1 X14.443 Y5.55 E11.04354
G1 X14.595 Y6.292 E11.0766
G1 X14.674 Y7.324 E11.12179
G1 X14.686 Y9.967 E11.23717
G1 X14.649 Y10.724 E11.27025
G1 X14.533 Y11.472 E11.30329
G1 X14.34 Y12.202 E11.33626
G1 X14.152 Y12.785 E11.363
G1 X13.882 Y13.493 E11.39608
G1 X13.538 Y14.168 E11.42915
G1 X13.126 Y14.803 E11.46219
G1 X12.649 Y15.391 E11.49524
G1 X12.188 Y15.857 E11.52386
G1 X11.891 Y16.131 E11.5415
G1 X11.308 Y16.614 E11.57455
G1 X10.678 Y17.033 E11.60758
G1 X10.006 Y17.384 E11.64067
G1 X8.955 Y17.768 E11.68952
G1 X8.439 Y17.912 E11.71291
G1 X7.699 Y18.077 E11.746
G1 X6.947 Y18.163 E11.77905
G1 X6.51 Y18.176 E11.79813
G1 X-7.511 Y18.176 E12.4102
G1 X-8.267 Y18.136 E12.44325
G1 X-9.015 Y18.017 E12.47631
G1 X-9.746 Y17.819 E12.50938
G1 X-10.453 Y17.545 E12.54248
G1 X-11.126 Y17.199 E12.57551
G1 X-11.759 Y16.783 E12.60858
G1 X-12.345 Y16.303 E12.64164
G1 X-12.877 Y15.764 E12.6747
G1 X-13.349 Y15.172 E12.70776
G1 X-13.756 Y14.533 E12.74083
G1 X-14.094 Y13.855 E12.7739
G1 X-14.358 Y13.146 E12.80693
G1 X-14.546 Y12.412 E12.84
G1 X-14.655 Y11.663 E12.87304
G1 X-14.686 Y11.001 E12.90197
G1 X-14.686 Y-11 E13.8624
G1 X-14.646 Y-11.756 E13.89545
G1 X-14.527 Y-12.504 E13.92852
G1 X-14.329 Y-13.235 E13.96158
G1 X-14.055 Y-13.942 E13.99468
G1 X-13.709 Y-14.615 E14.02771
G1 X-13.293 Y-15.248 E14.06078
G1 X-12.813 Y-15.834 E14.09385
G1 X-12.274 Y-16.366 E14.12691
G1 X-11.682 Y-16.838 E14.15996
G1 X-11.043 Y-17.245 E14.19303
G1 X-10.365 Y-17.583 E14.2261
G1 X-9.656 Y-17.847 E14.25913
G1 X-8.922 Y-18.035 E14.2922
G1 X-8.173 Y-18.144 E14.32525
G1 X-7.498 Y-18.175 E14.35474
G1 X6.747 Y-18.149 E14.97659
G1 X7.503 Y-18.108 E15.00965
G1 X8.251 Y-17.987 E15.04272
G1 X8.982 Y-17.788 E15.0758
G1 X9.687 Y-17.513 E15.10883
G1 X10.177 Y-17.269 E15.13273
G1 X10.656 Y-17.007 E15.15656
G1 X11.3 Y-16.609 E15.18961
G1 X11.899 Y-16.145 E15.22268
G1 X12.446 Y-15.621 E15.25575
G1 X12.934 Y-15.042 E15.28881
G1 X13.359 Y-14.415 E15.32187
G1 X13.621 Y-13.939 E15.34559
G1 X13.907 Y-13.371 E15.37335
G1 X14.212 Y-12.677 E15.40645
G1 X14.442 Y-11.956 E15.43948
G1 X14.594 Y-11.214 E15.47255
G1 X14.674 Y-10.177 E15.51795
G1 X14.686 Y-7.534 E15.63333
G1 X14.649 Y-6.777 E15.66642
G1 X14.533 Y-6.029 E15.69946
G1 X14.34 Y-5.299 E15.73242
G1 X14.152 Y-4.716 E15.75916
G1 X13.882 Y-4.008 E15.79224
G1 X13.538 Y-3.333 E15.82531
G1 X13.126 Y-2.698 E15.85836
G1 X12.649 Y-2.11 E15.89141
G1 X12.188 Y-1.644 E15.92002
G1 X11.891 Y-1.37 E15.93766
G1 X11.308 Y-.887 E15.97071
G1 X11.286 Y-.872 E15.97188
G1 X11.286 Y0.882 E16.04844
G1 X11.3 Y0.891 E16.04917
G0 X11.116 Y1.189
G1 X11.698 Y1.644 E16.08142
G1 X12.228 Y2.159 E16.11368
G1 X12.699 Y2.728 E16.14593
G1 X13.106 Y3.344 E16.17816
G1 X13.311 Y3.723 E16.19697
G1 X13.597 Y4.292 E16.22477
G1 X13.893 Y4.969 E16.25702
G1 X14.113 Y5.674 E16.28926
G1 X14.256 Y6.398 E16.32148
G1 X14.324 Y7.326 E16.3621
G1 X14.336 Y9.969 E16.47747
G1 X14.299 Y10.707 E16.50973
G1 X14.183 Y11.436 E16.54196
G1 X14.007 Y12.095 E16.57173
G1 X13.819 Y12.678 E16.59847
G1 X13.554 Y13.367 E16.6307
G1 X13.217 Y14.024 E16.66293
G1 X12.81 Y14.641 E16.6952
G1 X12.34 Y15.21 E16.72742
G1 X11.951 Y15.599 E16.75143
G1 X11.654 Y15.873 E16.76907
G1 X11.085 Y16.344 E16.80132
G1 X10.468 Y16.751 E16.83358
G1 X9.811 Y17.088 E16.86582
G1 X8.861 Y17.431 E16.90991
G1 X8.345 Y17.575 E16.93329
G1 X7.623 Y17.735 E16.96558
G1 X6.889 Y17.815 E16.99781
G1 X6.51 Y17.826 E17.01436
G1 X-7.511 Y17.826 E17.62643
G1 X-8.249 Y17.786 E17.6587
G1 X-8.977 Y17.667 E17.6909
G1 X-9.689 Y17.469 E17.72316
G1 X-10.375 Y17.196 E17.75539
G1 X-11.028 Y16.85 E17.78765
G1 X-11.64 Y16.436 E17.8199
G1 X-12.203 Y15.958 E17.85215
G1 X-12.711 Y15.422 E17.88438
G1 X-13.158 Y14.834 E17.91663
G1 X-13.539 Y14.201 E17.94888
G1 X-13.85 Y13.531 E17.98112
G1 X-14.086 Y12.831 E18.01337
G1 X-14.245 Y12.11 E18.0456
G1 X-14.326 Y11.375 E18.07788
G1 X-14.336 Y11.001 E18.09421
G1 X-14.336 Y-11 E19.05464
G1 X-14.296 Y-11.738 E19.08691
G1 X-14.177 Y-12.466 E19.11911
G1 X-13.979 Y-13.178 E19.15137
G1 X-13.706 Y-13.864 E19.1836
G1 X-13.36 Y-14.517 E19.21586
G1 X-12.946 Y-15.129 E19.24812
G1 X-12.468 Y-15.692 E19.28036
G1 X-11.932 Y-16.2 E19.3126
G1 X-11.344 Y-16.647 E19.34484
G1 X-10.711 Y-17.028 E19.37709
G1 X-10.041 Y-17.339 E19.40934
G1 X-9.341 Y-17.575 E19.44159
G1 X-8.62 Y-17.734 E19.47382
G1 X-7.885 Y-17.815 E19.5061
G1 X-7.499 Y-17.825 E19.52295
G1 X6.746 Y-17.799 E20.1448
G1 X7.484 Y-17.758 E20.17707
G1 X8.213 Y-17.637 E20.20933
G1 X8.924 Y-17.438 E20.24156
G1 X9.61 Y-17.164 E20.27381
G1 X10.009 Y-16.962 E20.29333
G1 X10.488 Y-16.7 E20.31716
G1 X11.116 Y-16.311 E20.34941
G1 X11.698 Y-15.856 E20.38166
G1 X12.228 Y-15.341 E20.41392
G1 X12.699 Y-14.772 E20.44617
G1 X13.106 Y-14.156 E20.4784
G1 X13.309 Y-13.781 E20.49701
G1 X13.595 Y-13.213 E20.52477
G1 X13.891 Y-12.537 E20.55699
G1 X14.112 Y-11.832 E20.58924
G1 X14.256 Y-11.107 E20.62151
G1 X14.324 Y-10.175 E20.6623
G1 X14.336 Y-7.532 E20.77768
G1 X14.299 Y-6.794 E20.80994
G1 X14.183 Y-6.065 E20.84216
G1 X14.007 Y-5.406 E20.87194
G1 X13.819 Y-4.823 E20.89868
G1 X13.554 Y-4.134 E20.9309
G1 X13.217 Y-3.477 E20.96314
G1 X12.81 Y-2.86 E20.9954
G1 X12.34 Y-2.291 E21.02762
G1 X11.951 Y-1.902 E21.05164
G1 X11.654 Y-1.628 E21.06928
G1 X11.085 Y-1.157 E21.10152
G1 X10.936 Y-1.059 E21.10931
G1 X10.936 Y1.078 E21.20259
G1 X11.116 Y1.189 E21.21183
G0 X10.931 Y1.487
G1 X11.496 Y1.932 E21.24322
G1 X12.009 Y2.437 E21.27465
G1 X12.462 Y2.996 E21.30606
G1 X12.998 Y3.88 E21.35118
G1 X13.284 Y4.449 E21.37899
G1 X13.571 Y5.109 E21.4104
G1 X13.783 Y5.796 E21.44179
G1 X13.917 Y6.503 E21.4732
G1 X13.974 Y7.328 E21.5093
G1 X13.986 Y9.971 E21.62468
G1 X13.949 Y10.689 E21.65607
G1 X13.833 Y11.399 E21.68747
G1 X13.674 Y11.987 E21.71406
G1 X13.486 Y12.57 E21.7408
G1 X13.227 Y13.242 E21.77224
G1 X12.896 Y13.88 E21.80362
G1 X12.495 Y14.478 E21.83505
G1 X12.031 Y15.028 E21.86646
G1 X11.714 Y15.342 E21.88594
G1 X11.417 Y15.616 E21.90358
G1 X10.861 Y16.074 E21.93502
G1 X10.259 Y16.467 E21.96641
G1 X9.617 Y16.791 E21.9978
G1 X8.766 Y17.094 E22.03723
G1 X8.25 Y17.238 E22.06062
G1 X7.548 Y17.392 E22.09199
G1 X6.51 Y17.476 E22.13746
G1 X-7.511 Y17.476 E22.74953
G1 X-8.229 Y17.436 E22.78092
G1 X-8.939 Y17.317 E22.81235
G1 X-9.631 Y17.119 E22.84377
G1 X-10.296 Y16.846 E22.87515
G1 X-10.928 Y16.501 E22.90658
G1 X-11.517 Y16.088 E22.93798
G1 X-12.056 Y15.612 E22.96937
G1 X-12.54 Y15.08 E23.00077
G1 X-12.961 Y14.497 E23.03216
G1 X-13.315 Y13.87 E23.0636
G1 X-13.598 Y13.209 E23.09498
G1 X-13.805 Y12.52 E23.12639
G1 X-13.935 Y11.812 E23.15781
G1 X-13.986 Y11.001 E23.19329
G1 X-13.986 Y-11 E24.15372
G1 X-13.946 Y-11.718 E24.18511
G1 X-13.827 Y-12.428 E24.21654
G1 X-13.629 Y-13.12 E24.24796
G1 X-13.356 Y-13.785 E24.27934
G1 X-13.011 Y-14.417 E24.31077
G1 X-12.598 Y-15.006 E24.34217
G1 X-12.122 Y-15.545 E24.37356
G1 X-11.59 Y-16.029 E24.40496
G1 X-11.007 Y-16.45 E24.43635
G1 X-10.38 Y-16.804 E24.46779
G1 X-9.719 Y-17.087 E24.49917
G1 X-9.03 Y-17.294 E24.53058
G1 X-8.322 Y-17.424 E24.562
G1 X-7.499 Y-17.475 E24.598
G1 X6.746 Y-17.449 E25.21985
G1 X7.464 Y-17.408 E25.25125
G1 X8.173 Y-17.287 E25.28264
G1 X8.865 Y-17.088 E25.31408
G1 X9.841 Y-16.655 E25.36069
G1 X10.32 Y-16.393 E25.38452
G1 X10.931 Y-16.013 E25.41593
G1 X11.496 Y-15.568 E25.44733
G1 X12.009 Y-15.063 E25.47875
G1 X12.462 Y-14.504 E25.51016
G1 X12.996 Y-13.624 E25.5551
G1 X13.282 Y-13.056 E25.58286
G1 X13.57 Y-12.396 E25.61429
G1 X13.782 Y-11.709 E25.64568
G1 X13.917 Y-11.002 E25.6771
G1 X13.974 Y-10.173 E25.71337
G1 X13.986 Y-7.53 E25.82875
G1 X13.949 Y-6.812 E25.86014
G1 X13.833 Y-6.102 E25.89154
G1 X13.674 Y-5.514 E25.91813
G1 X13.486 Y-4.931 E25.94487
G1 X13.227 Y-4.259 E25.97631
G1 X12.896 Y-3.621 E26.00769
G1 X12.495 Y-3.023 E26.03912
G1 X12.031 Y-2.473 E26.07053
G1 X11.714 Y-2.159 E26.09001
G1 X11.417 Y-1.885 E26.10765
G1 X10.861 Y-1.427 E26.1391
G1 X10.586 Y-1.247 E26.15344
G1 X10.586 Y1.272 E26.26341
G1 X10.931 Y1.487 E26.28115
G0 X10.746 Y1.785
G1 X11.294 Y2.22 E26.3117
G1 X11.788 Y2.715 E26.34223
G1 X12.223 Y3.264 E26.3728
G1 X12.686 Y4.037 E26.41214
G1 X12.972 Y4.606 E26.43994
G1 X13.25 Y5.248 E26.47048
G1 X13.453 Y5.918 E26.50104
G1 X13.578 Y6.606 E26.53157
G1 X13.624 Y7.329 E26.56319
G1 X13.636 Y9.972 E26.67857
G1 X13.599 Y10.671 E26.70913
G1 X13.483 Y11.361 E26.73967
G1 X13.34 Y11.88 E26.76317
G1 X13.152 Y12.463 E26.78991
G1 X12.9 Y13.115 E26.82043
G1 X12.575 Y13.735 E26.85098
G1 X12.181 Y14.313 E26.88152
G1 X11.476 Y15.085 E26.92716
G1 X11.179 Y15.359 E26.9448
G1 X10.639 Y15.803 E26.97532
G1 X10.051 Y16.183 E27.00588
G1 X9.424 Y16.493 E27.03641
G1 X8.672 Y16.757 E27.07121
G1 X8.156 Y16.901 E27.09459
G1 X7.473 Y17.05 E27.12511
G1 X6.51 Y17.126 E27.16728
G1 X-7.511 Y17.126 E27.77935
G1 X-8.21 Y17.086 E27.80991
G1 X-8.899 Y16.967 E27.84044
G1 X-9.57 Y16.769 E27.87098
G1 X-10.215 Y16.497 E27.90154
G1 X-10.824 Y16.153 E27.93207
G1 X-11.39 Y15.741 E27.96263
G1 X-11.905 Y15.268 E27.99315
G1 X-12.363 Y14.739 E28.0237
G1 X-12.758 Y14.161 E28.05426
G1 X-13.084 Y13.542 E28.0848
G1 X-13.338 Y12.89 E28.11535
G1 X-13.515 Y12.213 E28.14589
G1 X-13.614 Y11.52 E28.17645
G1 X-13.636 Y11.001 E28.19913
G1 X-13.636 Y-11 E29.15956
G1 X-13.596 Y-11.699 E29.19012
G1 X-13.477 Y-12.388 E29.22065
G1 X-13.279 Y-13.059 E29.25119
G1 X-13.007 Y-13.704 E29.28175
G1 X-12.663 Y-14.313 E29.31228
G1 X-12.251 Y-14.879 E29.34284
G1 X-11.778 Y-15.394 E29.37337
G1 X-11.249 Y-15.852 E29.40391
G1 X-10.671 Y-16.247 E29.43447
G1 X-10.052 Y-16.573 E29.46501
G1 X-9.4 Y-16.827 E29.49556
G1 X-8.723 Y-17.004 E29.52611
G1 X-8.03 Y-17.103 E29.55666
G1 X-7.5 Y-17.125 E29.57982
G1 X6.745 Y-17.099 E30.20167
