;FLAVOR:Marlin
;TIME:8465
;Filament used: 3.86204m
;Layer height: 0.1
;Generated with Cura_SteamEngine 3.2.1
M82 ;absolute extrusion mode
; info: M303 E0 S200 C8 ; Pid auto-tune

M140 S60; Start heating up the base
G28 ; Home to top 3 endstops
; Autolevel and adjust first layer
; Adjust this value to fit your own printer!  (positive is thicker)
; This default value is intentionally very high to accommodate the
; variety of print heads used with this printer.  Many of you will
; need tiny values like Z0 or Z0.1.  Use feeler gauges to dial this
; in as accurately as possible.
;G29 Z10

; Squirt and wipe ;
;M109 S220 ; Wait for the temp to hit 220
;G00 X125 Y-60 Z0.1 ;
;G92 E0 ;
;G01 E25 F100 ; Extrude a little bit to replace oozage from auto levelling
;G01 X90 Y-50 F6000 ;
;G01 Z5 ;

; Set the extruder to the requested print temperature
M109 S200
;LAYER_COUNT:398
;LAYER:0
M107
G0 F1500 X32.01 Y15.707 Z0.3
;TYPE:SKIRT
G1 X-48.724 Y15.697 E3.52436
G1 X-49.897 Y15.609 E3.57571
G1 X-51.442 Y15.376 E3.64391
G1 X-52.22 Y15.218 E3.67857
G1 X-52.959 Y14.99 E3.71233
G1 X-54.422 Y14.458 E3.78029
G1 X-55.504 Y13.969 E3.83212
G1 X-56.191 Y13.594 E3.86629
G1 X-57.169 Y12.963 E3.9171
G1 X-58.413 Y12.022 E3.98519
G1 X-59.021 Y11.512 E4.01983
G1 X-59.568 Y10.95 E4.05407
G1 X-60.599 Y9.781 E4.12211
G1 X-61.093 Y9.16 E4.15675
G1 X-61.514 Y8.507 E4.19067
G1 X-62.294 Y7.155 E4.25881
G1 X-62.801 Y6.103 E4.30978
G1 X-63.087 Y5.376 E4.34389
G1 X-63.438 Y4.241 E4.39575
G1 X-63.784 Y2.721 E4.4638
G1 X-63.92 Y1.939 E4.49845
G1 X-63.978 Y1.17 E4.53212
G1 X-64.017 Y-.387 E4.60011
G1 X-63.958 Y-1.56 E4.65138
G1 X-63.861 Y-2.337 E4.68556
G1 X-63.723 Y-3.121 E4.72031
G1 X-63.549 Y-3.88 E4.7543
G1 X-63.205 Y-4.993 E4.80516
G1 X-62.636 Y-6.445 E4.87324
G1 X-62.31 Y-7.169 E4.9079
G1 X-61.919 Y-7.844 E4.94195
G1 X-61.073 Y-9.154 E5.01003
G1 X-60.61 Y-9.798 E5.04465
G1 X-60.094 Y-10.382 E5.07867
G1 X-59.003 Y-11.5 E5.14686
G1 X-58.421 Y-12.039 E5.18149
G1 X-57.807 Y-12.504 E5.21512
G1 X-56.521 Y-13.382 E5.28309
G1 X-55.844 Y-13.796 E5.31773
G1 X-55.137 Y-14.136 E5.35198
G1 X-53.698 Y-14.742 E5.42014
G1 X-52.953 Y-15.012 E5.45473
G1 X-52.202 Y-15.203 E5.48856
G1 X-50.673 Y-15.512 E5.55666
G1 X-49.888 Y-15.63 E5.59131
G1 X-49.117 Y-15.668 E5.62501
G1 X32.042 Y-15.706 E9.16792
G1 X33.233 Y-16.578 E9.23235
G1 X33.896 Y-17.014 E9.26699
G1 X34.32 Y-17.246 E9.28809
G1 X36.062 Y-18.131 E9.37339
G1 X36.787 Y-18.454 E9.40804
G1 X37.256 Y-18.619 E9.42974
G1 X39.123 Y-19.209 E9.51522
G1 X40.065 Y-19.444 E9.5576
G1 X41.028 Y-19.622 E9.60035
G1 X41.98 Y-19.738 E9.64222
G1 X43.931 Y-19.857 E9.72754
G1 X44.724 Y-19.866 E9.76216
G1 X45.21 Y-19.831 E9.78343
G1 X47.158 Y-19.632 E9.86891
G1 X47.943 Y-19.512 E9.90358
G1 X48.421 Y-19.398 E9.92503
G1 X50.307 Y-18.886 E10.01034
G1 X51.061 Y-18.64 E10.04497
G1 X51.518 Y-18.448 E10.0666
G1 X53.299 Y-17.634 E10.15209
G1 X54.003 Y-17.269 E10.1867
G1 X54.415 Y-17.01 E10.20795
G1 X56.037 Y-15.921 E10.29323
G1 X56.672 Y-15.446 E10.32785
G1 X57.042 Y-15.12 E10.34938
G1 X58.468 Y-13.779 E10.43483
G1 X59.018 Y-13.207 E10.46947
G1 X59.328 Y-12.827 E10.49088
G1 X60.516 Y-11.274 E10.57624
G1 X60.966 Y-10.62 E10.61089
G1 X61.213 Y-10.188 E10.63261
G1 X62.132 Y-8.461 E10.71801
G1 X62.469 Y-7.743 E10.75264
G1 X62.64 Y-7.286 E10.77394
G1 X63.267 Y-5.433 E10.85933
G1 X63.483 Y-4.67 E10.89395
G1 X63.577 Y-4.193 E10.91518
G1 X63.896 Y-2.263 E11.00057
G1 X63.985 Y-1.475 E11.03519
G1 X64.001 Y-.979 E11.05685
G1 X64.001 Y0.978 E11.14228
G1 X63.961 Y1.77 E11.1769
G1 X63.896 Y2.262 E11.19857
G1 X63.577 Y4.193 E11.284
G1 X63.408 Y4.968 E11.31863
G1 X63.267 Y5.432 E11.3398
G1 X62.641 Y7.283 E11.4251
G1 X62.349 Y8.021 E11.45975
G1 X62.134 Y8.458 E11.48101
G1 X61.215 Y10.186 E11.56645
G1 X60.807 Y10.867 E11.6011
G1 X60.517 Y11.273 E11.62288
G1 X59.329 Y12.826 E11.70824
G1 X58.816 Y13.431 E11.74286
G1 X58.469 Y13.778 E11.76429
G1 X57.043 Y15.119 E11.84974
G1 X56.438 Y15.633 E11.88439
G1 X56.039 Y15.919 E11.90582
G1 X54.416 Y17.009 E11.99117
G1 X53.735 Y17.418 E12.02585
G1 X53.299 Y17.634 E12.04709
G1 X51.518 Y18.448 E12.13257
G1 X50.78 Y18.741 E12.16723
G1 X50.311 Y18.885 E12.18865
G1 X48.425 Y19.398 E12.27397
G1 X47.474 Y19.595 E12.31637
G1 X46.503 Y19.734 E12.35919
G1 X45.548 Y19.811 E12.40102
G1 X43.594 Y19.851 E12.48633
G1 X42.801 Y19.828 E12.52097
G1 X42.31 Y19.773 E12.54253
G1 X40.373 Y19.494 E12.62796
G1 X39.435 Y19.299 E12.66979
G1 X38.491 Y19.043 E12.71248
G1 X37.576 Y18.734 E12.75464
G1 X35.763 Y17.994 E12.84013
G1 X35.044 Y17.658 E12.87477
G1 X34.614 Y17.411 E12.89642
G1 X32.947 Y16.386 E12.98185
G1 X32.293 Y15.937 E13.01648
G1 X32.01 Y15.707 E13.0324
G0 X32.142 Y15.363
G1 X32.135 Y15.357 E13.0328
G1 X-48.724 Y15.347 E16.56261
G1 X-49.845 Y15.263 E16.61169
G1 X-51.39 Y15.03 E16.67989
G1 X-52.15 Y14.875 E16.71375
G1 X-52.84 Y14.661 E16.74529
G1 X-54.303 Y14.129 E16.81325
G1 X-55.336 Y13.662 E16.86274
G1 X-56.023 Y13.287 E16.8969
G1 X-56.958 Y12.683 E16.9455
G1 X-58.202 Y11.742 E17.01359
G1 X-58.795 Y11.243 E17.04742
G1 X-59.306 Y10.718 E17.0794
G1 X-60.337 Y9.549 E17.14745
G1 X-60.819 Y8.942 E17.18128
G1 X-61.211 Y8.332 E17.21293
G1 X-61.991 Y6.98 E17.28107
G1 X-62.476 Y5.975 E17.32979
G1 X-62.762 Y5.248 E17.36389
G1 X-63.096 Y4.163 E17.41345
G1 X-63.442 Y2.643 E17.4815
G1 X-63.575 Y1.879 E17.51535
G1 X-63.628 Y1.161 E17.54678
G1 X-63.667 Y-.396 E17.61477
G1 X-63.611 Y-1.516 E17.66373
G1 X-63.514 Y-2.293 E17.69791
G1 X-63.382 Y-3.042 E17.73111
G1 X-63.208 Y-3.801 E17.7651
G1 X-62.879 Y-4.866 E17.81376
G1 X-62.31 Y-6.318 E17.88184
G1 X-61.99 Y-7.024 E17.91568
G1 X-61.625 Y-7.654 E17.94746
G1 X-60.779 Y-8.964 E18.01554
G1 X-60.326 Y-9.593 E18.04937
G1 X-59.844 Y-10.138 E18.08114
G1 X-58.753 Y-11.256 E18.14933
G1 X-58.183 Y-11.782 E18.18319
G1 X-57.61 Y-12.215 E18.21454
G1 X-56.324 Y-13.093 E18.28251
G1 X-55.662 Y-13.496 E18.31635
G1 X-55.002 Y-13.813 E18.34831
G1 X-53.563 Y-14.419 E18.41647
G1 X-52.833 Y-14.683 E18.45036
G1 X-52.133 Y-14.86 E18.48188
G1 X-50.604 Y-15.169 E18.54997
G1 X-49.836 Y-15.283 E18.58387
G1 X-49.116 Y-15.318 E18.61533
G1 X32.158 Y-15.356 E22.16326
G1 X33.44 Y-16.295 E22.23263
G1 X34.088 Y-16.721 E22.26649
G1 X34.479 Y-16.934 E22.28592
G1 X36.221 Y-17.819 E22.37122
G1 X36.929 Y-18.134 E22.40505
G1 X37.362 Y-18.285 E22.42507
G1 X39.229 Y-18.875 E22.51054
G1 X40.128 Y-19.1 E22.551
G1 X41.091 Y-19.278 E22.59375
G1 X42.001 Y-19.389 E22.63377
G1 X43.952 Y-19.508 E22.7191
G1 X44.727 Y-19.515 E22.75293
G1 X45.175 Y-19.483 E22.77253
G1 X47.123 Y-19.284 E22.85802
G1 X47.889 Y-19.166 E22.89185
G1 X48.329 Y-19.06 E22.91161
G1 X50.215 Y-18.548 E22.99692
G1 X50.953 Y-18.307 E23.03081
G1 X51.372 Y-18.13 E23.05066
G1 X53.153 Y-17.316 E23.13615
G1 X53.841 Y-16.958 E23.17
G1 X54.22 Y-16.72 E23.18954
G1 X55.842 Y-15.631 E23.27483
G1 X56.462 Y-15.166 E23.30866
G1 X56.802 Y-14.865 E23.32848
G1 X58.228 Y-13.524 E23.41393
G1 X58.765 Y-12.964 E23.4478
G1 X59.05 Y-12.614 E23.46751
G1 X60.238 Y-11.061 E23.55286
G1 X60.677 Y-10.422 E23.58671
G1 X60.904 Y-10.024 E23.60671
G1 X61.823 Y-8.297 E23.69211
G1 X62.152 Y-7.594 E23.72599
G1 X62.308 Y-7.174 E23.74555
G1 X62.935 Y-5.321 E23.83094
G1 X63.145 Y-4.574 E23.86482
G1 X63.231 Y-4.136 E23.8843
G1 X63.55 Y-2.206 E23.9697
G1 X63.637 Y-1.435 E24.00357
G1 X63.651 Y-.979 E24.02349
G1 X63.651 Y0.978 E24.10892
G1 X63.611 Y1.753 E24.14279
G1 X63.55 Y2.205 E24.1627
G1 X63.231 Y4.136 E24.24814
G1 X63.066 Y4.893 E24.28196
G1 X62.935 Y5.32 E24.30146
G1 X62.309 Y7.171 E24.38676
G1 X62.023 Y7.892 E24.42062
G1 X61.825 Y8.293 E24.44014
G1 X60.906 Y10.021 E24.52558
G1 X60.507 Y10.687 E24.55947
G1 X60.239 Y11.06 E24.57952
G1 X59.051 Y12.613 E24.66488
G1 X58.548 Y13.204 E24.69876
G1 X58.229 Y13.523 E24.71845
G1 X56.803 Y14.864 E24.8039
G1 X56.211 Y15.365 E24.83776
G1 X55.843 Y15.629 E24.85753
G1 X54.22 Y16.719 E24.94288
G1 X53.555 Y17.118 E24.97673
G1 X53.153 Y17.316 E24.99629
G1 X51.372 Y18.13 E25.08178
G1 X50.651 Y18.416 E25.11564
G1 X50.219 Y18.547 E25.13534
G1 X48.333 Y19.06 E25.22067
G1 X47.424 Y19.248 E25.26119
G1 X46.453 Y19.387 E25.30401
G1 X45.541 Y19.461 E25.34395
G1 X43.587 Y19.501 E25.42927
G1 X42.812 Y19.477 E25.46312
G1 X42.36 Y19.426 E25.48297
G1 X40.423 Y19.147 E25.5684
G1 X39.526 Y18.962 E25.60838
G1 X38.582 Y18.706 E25.65108
G1 X37.708 Y18.41 E25.69136
G1 X35.895 Y17.67 E25.77685
G1 X35.193 Y17.34 E25.81071
G1 X34.798 Y17.113 E25.8306
G1 X33.131 Y16.088 E25.91602
G1 X32.492 Y15.648 E25.94989
G1 X32.142 Y15.363 E25.9696
G0 X32.371 Y15.098
G1 X32.266 Y15.007 E25.97566
G1 X-48.724 Y14.997 E29.51119
G1 X-49.793 Y14.917 E29.55799
G1 X-51.338 Y14.684 E29.6262
G1 X-52.08 Y14.531 E29.65927
G1 X-52.72 Y14.332 E29.68853
G1 X-54.183 Y13.8 E29.75649
G1 X-55.169 Y13.355 E29.80371
G1 X-55.856 Y12.98 E29.83788
G1 X-56.747 Y12.404 E29.88419
G1 X-57.991 Y11.463 E29.95228
G1 X-58.57 Y10.975 E29.98534
G1 X-59.043 Y10.487 E30.01501
G1 X-60.074 Y9.318 E30.08305
G1 X-60.544 Y8.724 E30.11612
G1 X-60.908 Y8.158 E30.14549
G1 X-61.688 Y6.806 E30.21363
G1 X-62.15 Y5.847 E30.2601
G1 X-62.436 Y5.12 E30.2942
G1 X-62.755 Y4.086 E30.34144
G1 X-63.101 Y2.566 E30.40949
G1 X-63.23 Y1.819 E30.44258
G1 X-63.278 Y1.153 E30.47173
G1 X-63.317 Y-.404 E30.53972
G1 X-63.264 Y-1.473 E30.58645
G1 X-63.167 Y-2.25 E30.62063
G1 X-63.041 Y-2.964 E30.65228
G1 X-62.867 Y-3.723 E30.68627
G1 X-62.553 Y-4.738 E30.73265
G1 X-61.984 Y-6.19 E30.80073
G1 X-61.671 Y-6.879 E30.83377
G1 X-61.331 Y-7.464 E30.86331
G1 X-60.485 Y-8.774 E30.93138
G1 X-60.041 Y-9.388 E30.96446
G1 X-59.593 Y-9.893 E30.99393
G1 X-58.502 Y-11.011 E31.06212
G1 X-57.945 Y-11.524 E31.09518
G1 X-57.413 Y-11.926 E31.12429
G1 X-56.127 Y-12.804 E31.19226
G1 X-55.48 Y-13.197 E31.22531
G1 X-54.866 Y-13.491 E31.25502
G1 X-53.427 Y-14.097 E31.32319
G1 X-52.714 Y-14.353 E31.35626
G1 X-52.063 Y-14.517 E31.38556
G1 X-50.534 Y-14.826 E31.45366
G1 X-49.785 Y-14.936 E31.48671
G1 X-49.116 Y-14.968 E31.51594
G1 X32.272 Y-15.006 E35.06885
G1 X33.647 Y-16.013 E35.14325
G1 X34.281 Y-16.428 E35.17633
G1 X34.637 Y-16.622 E35.19403
G1 X36.379 Y-17.507 E35.27932
G1 X37.072 Y-17.814 E35.31241
G1 X37.467 Y-17.952 E35.33068
G1 X39.334 Y-18.542 E35.41615
G1 X40.192 Y-18.755 E35.45474
G1 X41.155 Y-18.933 E35.49749
G1 X42.022 Y-19.04 E35.53563
G1 X43.973 Y-19.159 E35.62096
G1 X44.731 Y-19.165 E35.65405
G1 X45.139 Y-19.135 E35.67191
G1 X47.087 Y-18.936 E35.75739
G1 X47.836 Y-18.819 E35.79048
G1 X48.238 Y-18.722 E35.80853
G1 X50.124 Y-18.21 E35.89384
G1 X50.843 Y-17.974 E35.92688
G1 X51.227 Y-17.812 E35.94507
G1 X53.008 Y-16.998 E36.03056
G1 X53.679 Y-16.647 E36.06361
G1 X54.024 Y-16.429 E36.08143
G1 X55.646 Y-15.34 E36.16671
G1 X56.252 Y-14.885 E36.19979
G1 X56.562 Y-14.61 E36.21788
G1 X57.988 Y-13.269 E36.30334
G1 X58.512 Y-12.722 E36.3364
G1 X58.772 Y-12.401 E36.35444
G1 X59.96 Y-10.848 E36.43979
G1 X60.388 Y-10.223 E36.47286
G1 X60.595 Y-9.86 E36.4911
G1 X61.514 Y-8.133 E36.5765
G1 X61.834 Y-7.446 E36.60959
G1 X61.976 Y-7.062 E36.62746
G1 X62.603 Y-5.209 E36.71286
G1 X62.808 Y-4.48 E36.74591
G1 X62.886 Y-4.079 E36.76375
G1 X63.205 Y-2.149 E36.84914
G1 X63.289 Y-1.396 E36.88222
G1 X63.301 Y-.979 E36.90043
G1 X63.301 Y0.978 E36.98586
G1 X63.261 Y1.734 E37.01891
G1 X63.205 Y2.147 E37.0371
G1 X62.886 Y4.078 E37.12254
G1 X62.723 Y4.818 E37.15562
G1 X62.604 Y5.208 E37.17342
G1 X61.978 Y7.059 E37.25872
G1 X61.698 Y7.762 E37.29175
G1 X61.516 Y8.129 E37.30963
G1 X60.597 Y9.857 E37.39507
G1 X60.206 Y10.506 E37.42815
G1 X59.961 Y10.847 E37.44648
G1 X58.773 Y12.4 E37.53183
G1 X58.282 Y12.977 E37.56491
G1 X57.989 Y13.268 E37.58293
G1 X56.563 Y14.609 E37.66839
G1 X55.985 Y15.098 E37.70144
G1 X55.648 Y15.338 E37.7195
G1 X54.025 Y16.428 E37.80484
G1 X53.375 Y16.817 E37.83791
G1 X53.008 Y16.998 E37.85577
G1 X51.227 Y17.812 E37.94126
G1 X50.522 Y18.09 E37.97434
G1 X50.127 Y18.209 E37.99235
G1 X48.241 Y18.722 E38.07767
G1 X47.375 Y18.902 E38.11628
G1 X46.404 Y19.041 E38.1591
G1 X45.534 Y19.111 E38.19721
G1 X43.58 Y19.151 E38.28252
G1 X42.823 Y19.127 E38.31559
G1 X42.41 Y19.08 E38.33373
G1 X40.473 Y18.801 E38.41916
G1 X39.618 Y18.624 E38.45728
G1 X38.674 Y18.368 E38.49998
G1 X37.841 Y18.086 E38.53837
G1 X36.028 Y17.346 E38.62385
G1 X35.342 Y17.023 E38.65695
G1 X34.981 Y16.815 E38.67514
G1 X33.314 Y15.79 E38.76056
G1 X32.691 Y15.36 E38.79361
G1 X32.371 Y15.098 E38.81166
G0 X32.6 Y14.834
G1 X32.396 Y14.657 E38.82345
G1 X-48.724 Y14.647 E42.36466
G1 X-49.741 Y14.571 E42.40918
G1 X-51.286 Y14.338 E42.47739
G1 X-52.009 Y14.188 E42.50962
G1 X-52.6 Y14.003 E42.53666
G1 X-54.063 Y13.471 E42.60461
G1 X-55.001 Y13.048 E42.64953
G1 X-55.688 Y12.673 E42.6837
G1 X-56.535 Y12.125 E42.72774
G1 X-57.779 Y11.184 E42.79583
G1 X-58.343 Y10.707 E42.82808
G1 X-58.781 Y10.255 E42.85555
G1 X-59.812 Y9.086 E42.92359
G1 X-60.27 Y8.507 E42.95582
G1 X-60.605 Y7.983 E42.98297
G1 X-61.385 Y6.631 E43.05111
G1 X-61.824 Y5.719 E43.09529
G1 X-62.11 Y4.992 E43.1294
G1 X-62.414 Y4.008 E43.17436
G1 X-62.76 Y2.488 E43.24241
G1 X-62.884 Y1.76 E43.27465
G1 X-62.928 Y1.144 E43.30161
G1 X-62.967 Y-.413 E43.3696
G1 X-62.916 Y-1.429 E43.414
G1 X-62.819 Y-2.206 E43.44819
G1 X-62.699 Y-2.886 E43.47833
G1 X-62.525 Y-3.645 E43.51232
G1 X-62.228 Y-4.61 E43.5564
G1 X-61.659 Y-6.062 E43.62448
G1 X-61.352 Y-6.734 E43.65673
G1 X-61.037 Y-7.275 E43.68406
G1 X-60.191 Y-8.585 E43.75213
G1 X-59.758 Y-9.183 E43.78436
G1 X-59.343 Y-9.649 E43.8116
G1 X-58.252 Y-10.767 E43.8798
G1 X-57.708 Y-11.267 E43.91205
G1 X-57.215 Y-11.637 E43.93896
G1 X-55.929 Y-12.515 E44.00693
G1 X-55.298 Y-12.897 E44.03913
G1 X-54.73 Y-13.168 E44.06661
G1 X-53.291 Y-13.774 E44.13477
G1 X-52.596 Y-14.023 E44.167
G1 X-51.994 Y-14.174 E44.19409
G1 X-50.465 Y-14.483 E44.26219
G1 X-49.734 Y-14.59 E44.29444
G1 X-49.116 Y-14.618 E44.32144
G1 X32.386 Y-14.656 E47.87933
G1 X33.854 Y-15.731 E47.95875
G1 X34.796 Y-16.31 E48.00702
G1 X36.538 Y-17.195 E48.09232
G1 X37.213 Y-17.493 E48.12453
G1 X37.572 Y-17.618 E48.14112
G1 X39.439 Y-18.208 E48.2266
G1 X40.255 Y-18.411 E48.26331
G1 X41.218 Y-18.589 E48.30606
G1 X42.043 Y-18.69 E48.34234
G1 X43.994 Y-18.809 E48.42767
G1 X44.733 Y-18.814 E48.45993
G1 X45.104 Y-18.787 E48.47617
G1 X47.052 Y-18.588 E48.56165
G1 X47.781 Y-18.473 E48.59386
G1 X48.146 Y-18.385 E48.61025
G1 X50.032 Y-17.873 E48.69557
G1 X50.733 Y-17.641 E48.7278
G1 X51.081 Y-17.493 E48.74431
G1 X52.862 Y-16.679 E48.82979
G1 X53.516 Y-16.336 E48.86203
G1 X53.829 Y-16.138 E48.8782
G1 X55.451 Y-15.049 E48.96348
G1 X56.041 Y-14.605 E48.99572
G1 X56.323 Y-14.355 E49.01217
G1 X57.749 Y-13.014 E49.09762
G1 X58.258 Y-12.48 E49.12982
G1 X58.494 Y-12.189 E49.14618
G1 X59.682 Y-10.636 E49.23154
G1 X60.098 Y-10.026 E49.26377
G1 X60.286 Y-9.695 E49.28039
G1 X61.205 Y-7.968 E49.36579
G1 X61.516 Y-7.298 E49.39803
G1 X61.645 Y-6.95 E49.41423
G1 X62.272 Y-5.097 E49.49963
G1 X62.47 Y-4.385 E49.53189
G1 X62.541 Y-4.022 E49.54804
G1 X62.86 Y-2.092 E49.63343
G1 X62.94 Y-1.358 E49.66566
G1 X62.951 Y-.979 E49.68222
G1 X62.951 Y0.978 E49.76765
G1 X62.911 Y1.716 E49.79991
G1 X62.86 Y2.09 E49.81639
G1 X62.541 Y4.021 E49.90183
G1 X62.272 Y5.096 E49.9502
G1 X61.646 Y6.947 E50.0355
G1 X61.372 Y7.632 E50.06771
G1 X61.207 Y7.965 E50.08393
G1 X60.288 Y9.693 E50.16937
G1 X59.906 Y10.325 E50.20161
G1 X59.683 Y10.635 E50.21828
G1 X58.495 Y12.188 E50.30363
G1 X58.015 Y12.749 E50.33586
G1 X57.75 Y13.013 E50.35219
G1 X56.324 Y14.354 E50.43764
G1 X55.759 Y14.83 E50.46989
G1 X55.453 Y15.048 E50.4863
G1 X53.83 Y16.138 E50.57164
G1 X53.196 Y16.516 E50.60386
G1 X52.862 Y16.679 E50.62009
G1 X51.081 Y17.493 E50.70557
G1 X50.394 Y17.764 E50.73781
G1 X50.035 Y17.872 E50.75418
G1 X48.149 Y18.385 E50.8395
G1 X47.325 Y18.555 E50.87623
G1 X46.354 Y18.694 E50.91905
G1 X45.527 Y18.762 E50.95527
G1 X43.573 Y18.802 E51.04059
G1 X42.834 Y18.777 E51.07287
G1 X42.46 Y18.733 E51.08931
G1 X40.523 Y18.454 E51.17474
G1 X39.71 Y18.286 E51.21098
G1 X38.766 Y18.03 E51.25368
G1 X37.973 Y17.762 E51.29022
G1 X36.16 Y17.022 E51.3757
G1 X35.492 Y16.706 E51.40796
G1 X35.164 Y16.517 E51.42448
G1 X33.497 Y15.492 E51.50991
G1 X32.89 Y15.072 E51.54213
G1 X32.6 Y14.834 E51.55851
G0 X32.83 Y14.57
G1 X32.526 Y14.307 E51.57606
G1 X-48.724 Y14.297 E55.12294
