;FLAVOR:Marlin
;TIME:987
;Filament used: 0.396697m
;Layer height: 0.1
;Generated with Cura_SteamEngine 3.5.1
M82 ;absolute extrusion mode
G21 ; set units to millimeters
G90 ; use absolute positioning
M82 ; absolute extrusion mode
M104 S200 ; set extruder temp
M140 S60 ; set bed temp
M190 S60 ; wait for bed temp
M109 S200 ; wait for extruder temp
G28 W ; home all without mesh bed level
G80 ; mesh bed leveling
G92 E0.0 ; reset extruder distance position
G1 Y-3.0 F1000.0 ; go outside print area
G1 X60.0 E9.0 F1000.0 ; intro line
G1 X100.0 E21.5 F1000.0 ; intro line
G92 E0.0 ; reset extruder distance position
G92 E0
G1 F2100 E-0.8
;LAYER_COUNT:81
;LAYER:0
M107
G0 F3600 X114.134 Y94.95 Z0.15
;TYPE:SKIRT
G1 F2100 E0
G1 F1800 X114.535 Y94.513 E0.01479
G1 X114.99 Y94.133 E0.02958
G1 X115.493 Y93.819 E0.04437
G1 X116.033 Y93.574 E0.05917
G1 X116.602 Y93.405 E0.07397
G1 X117.187 Y93.314 E0.08874
G1 X117.571 Y93.297 E0.09833
G1 X132.429 Y93.298 E0.46896
G1 X133.021 Y93.338 E0.48376
G1 X133.602 Y93.457 E0.49856
G1 X134.161 Y93.653 E0.51334
G1 X134.689 Y93.923 E0.52813
G1 X135.176 Y94.261 E0.54292
G1 X135.614 Y94.662 E0.55773
G1 X135.993 Y95.118 E0.57252
G1 X136.308 Y95.62 E0.5873
G1 X136.552 Y96.161 E0.60211
G1 X136.721 Y96.729 E0.61689
G1 X136.812 Y97.315 E0.63168
G1 X136.829 Y97.698 E0.64125
G1 X136.829 Y112.303 E1.00557
G1 X136.789 Y112.895 E1.02037
G1 X136.67 Y113.475 E1.03514
G1 X136.474 Y114.035 E1.04994
G1 X136.204 Y114.563 E1.06473
G1 X135.866 Y115.05 E1.07952
G1 X135.465 Y115.487 E1.09432
G1 X135.01 Y115.867 E1.10911
G1 X134.507 Y116.181 E1.1239
G1 X133.967 Y116.426 E1.13869
G1 X133.398 Y116.595 E1.1535
G1 X132.813 Y116.686 E1.16826
G1 X132.429 Y116.703 E1.17785
G1 X117.571 Y116.703 E1.54849
G1 X116.979 Y116.663 E1.56329
G1 X116.399 Y116.544 E1.57806
G1 X115.839 Y116.348 E1.59286
G1 X115.311 Y116.078 E1.60765
G1 X114.824 Y115.74 E1.62244
G1 X114.387 Y115.339 E1.63723
G1 X114.007 Y114.884 E1.65202
G1 X113.693 Y114.381 E1.66681
G1 X113.448 Y113.841 E1.6816
G1 X113.279 Y113.272 E1.69641
G1 X113.188 Y112.687 E1.71118
G1 X113.171 Y112.303 E1.72077
G1 X113.171 Y97.697 E2.08512
G1 X113.211 Y97.105 E2.09992
G1 X113.33 Y96.525 E2.11469
G1 X113.526 Y95.965 E2.12949
G1 X113.796 Y95.437 E2.14428
G1 X114.134 Y94.95 E2.15907
G0 F3600 X114.53 Y95.098
G1 F1800 X114.927 Y94.695 E2.17318
G1 X115.377 Y94.353 E2.18728
G1 X115.87 Y94.077 E2.20137
G1 X116.398 Y93.873 E2.21549
G1 X116.948 Y93.746 E2.22957
G1 X117.571 Y93.697 E2.24516
G1 X132.429 Y93.698 E2.6158
G1 X132.993 Y93.738 E2.6299
G1 X133.546 Y93.857 E2.64401
G1 X134.076 Y94.053 E2.65811
G1 X134.574 Y94.322 E2.67223
G1 X135.028 Y94.658 E2.68631
G1 X135.431 Y95.054 E2.70041
G1 X135.774 Y95.504 E2.71452
G1 X136.05 Y95.997 E2.72862
G1 X136.253 Y96.525 E2.74273
G1 X136.38 Y97.076 E2.75683
G1 X136.429 Y97.698 E2.7724
G1 X136.429 Y112.303 E3.13672
G1 X136.389 Y112.867 E3.15082
G1 X136.27 Y113.42 E3.16493
G1 X136.074 Y113.95 E3.17903
G1 X135.806 Y114.447 E3.19312
G1 X135.47 Y114.902 E3.20723
G1 X135.073 Y115.305 E3.22134
G1 X134.623 Y115.647 E3.23544
G1 X134.13 Y115.923 E3.24953
G1 X133.602 Y116.127 E3.26365
G1 X133.052 Y116.254 E3.27773
G1 X132.429 Y116.303 E3.29332
G1 X117.571 Y116.303 E3.66395
G1 X117.007 Y116.263 E3.67806
G1 X116.454 Y116.144 E3.69217
G1 X115.924 Y115.948 E3.70626
G1 X115.427 Y115.68 E3.72035
G1 X114.972 Y115.344 E3.73446
G1 X114.569 Y114.947 E3.74857
G1 X114.227 Y114.497 E3.76267
G1 X113.951 Y114.004 E3.77676
G1 X113.747 Y113.476 E3.79088
G1 X113.62 Y112.926 E3.80496
G1 X113.571 Y112.303 E3.82055
G1 X113.571 Y97.697 E4.1849
G1 X113.611 Y97.133 E4.19901
G1 X113.73 Y96.58 E4.21312
G1 X113.926 Y96.05 E4.22721
G1 X114.194 Y95.553 E4.2413
G1 X114.53 Y95.098 E4.25541
G0 F3600 X114.926 Y95.255
G1 F1800 X115.318 Y94.889 E4.26879
G1 X115.76 Y94.586 E4.28215
G1 X116.243 Y94.351 E4.29555
G1 X116.754 Y94.191 E4.30891
G1 X117.284 Y94.108 E4.32229
G1 X117.571 Y94.097 E4.32946
G1 X132.429 Y94.098 E4.70009
G1 X132.964 Y94.138 E4.71347
G1 X133.487 Y94.257 E4.72685
G1 X133.986 Y94.452 E4.74022
G1 X134.451 Y94.72 E4.75361
G1 X134.871 Y95.053 E4.76698
G1 X135.237 Y95.445 E4.78035
G1 X135.541 Y95.887 E4.79374
G1 X135.775 Y96.37 E4.80712
G1 X135.935 Y96.882 E4.8205
G1 X136.018 Y97.411 E4.83386
G1 X136.029 Y97.698 E4.84103
G1 X136.029 Y112.303 E5.20535
G1 X135.989 Y112.838 E5.21873
G1 X135.87 Y113.361 E5.23211
G1 X135.675 Y113.86 E5.24548
G1 X135.407 Y114.325 E5.25886
G1 X135.074 Y114.745 E5.27223
G1 X134.682 Y115.111 E5.28561
G1 X134.24 Y115.414 E5.29898
G1 X133.757 Y115.649 E5.31238
G1 X133.246 Y115.809 E5.32574
G1 X132.716 Y115.892 E5.33912
G1 X132.429 Y115.903 E5.34628
G1 X117.571 Y115.903 E5.71692
G1 X117.036 Y115.863 E5.7303
G1 X116.513 Y115.744 E5.74368
G1 X116.014 Y115.549 E5.75704
G1 X115.549 Y115.281 E5.77043
G1 X115.129 Y114.948 E5.7838
G1 X114.763 Y114.556 E5.79718
G1 X114.46 Y114.114 E5.81055
G1 X114.225 Y113.631 E5.82395
G1 X114.065 Y113.12 E5.8373
G1 X113.982 Y112.59 E5.85069
G1 X113.971 Y112.303 E5.85785
G1 X113.971 Y97.697 E6.2222
G1 X114.011 Y97.162 E6.23558
G1 X114.13 Y96.639 E6.24896
G1 X114.325 Y96.14 E6.26233
G1 X114.593 Y95.675 E6.27571
G1 X114.926 Y95.255 E6.28909
G0 F3600 X114.99 Y95.805
G1 F1800 X115.32 Y95.422 E6.3017
G1 X115.707 Y95.096 E6.31432
G1 X116.14 Y94.835 E6.32693
G1 X116.608 Y94.645 E6.33953
G1 X117.101 Y94.532 E6.35215
G1 X117.571 Y94.497 E6.3639
G1 X132.429 Y94.498 E6.73454
G1 X132.933 Y94.538 E6.74715
G1 X133.425 Y94.657 E6.75978
G1 X133.891 Y94.852 E6.77238
G1 X134.321 Y95.117 E6.78498
G1 X134.704 Y95.448 E6.79761
G1 X135.03 Y95.834 E6.81021
G1 X135.291 Y96.267 E6.82282
G1 X135.481 Y96.736 E6.83544
G1 X135.594 Y97.228 E6.84804
G1 X135.629 Y97.698 E6.85979
G1 X135.629 Y112.303 E7.22412
G1 X135.589 Y112.807 E7.23673
G1 X135.47 Y113.298 E7.24933
G1 X135.276 Y113.765 E7.26194
G1 X135.01 Y114.195 E7.27456
G1 X134.68 Y114.578 E7.28717
G1 X134.293 Y114.904 E7.29979
G1 X133.86 Y115.165 E7.3124
G1 X133.392 Y115.355 E7.325
G1 X132.899 Y115.468 E7.33762
G1 X132.429 Y115.503 E7.34938
G1 X117.571 Y115.503 E7.72001
G1 X117.067 Y115.463 E7.73262
G1 X116.576 Y115.344 E7.74522
G1 X116.109 Y115.15 E7.75784
G1 X115.679 Y114.884 E7.77045
G1 X115.296 Y114.554 E7.78306
G1 X114.97 Y114.167 E7.79569
G1 X114.709 Y113.734 E7.8083
G1 X114.519 Y113.266 E7.8209
G1 X114.406 Y112.773 E7.83351
G1 X114.371 Y112.303 E7.84527
G1 X114.371 Y97.697 E8.20962
G1 X114.411 Y97.193 E8.22223
G1 X114.53 Y96.702 E8.23483
G1 X114.724 Y96.235 E8.24745
G1 X114.99 Y95.805 E8.26006
G1 F2100 E7.46006
G0 F3600 X116.897 Y98.302
G0 X118.176 Y98.302
G0 X122.982 Y103.677
G0 X123.065 Y103.731
;TYPE:WALL-INNER
G1 F2100 E8.26006
G1 F1800 X122.85 Y104.145 E8.2717
G1 X122.726 Y104.577 E8.28291
G1 X122.687 Y105 E8.29351
G1 X122.726 Y105.422 E8.30408
G1 X122.85 Y105.853 E8.31526
G1 X123.064 Y106.266 E8.32687
G1 X123.363 Y106.634 E8.3387
G1 X123.731 Y106.935 E8.35056
G1 X124.145 Y107.15 E8.36219
G1 X124.577 Y107.274 E8.3734
G1 X125 Y107.313 E8.384
G1 X125.422 Y107.274 E8.39457
G1 X125.853 Y107.15 E8.40576
G1 X126.266 Y106.936 E8.41736
G1 X126.634 Y106.637 E8.42919
G1 X126.935 Y106.269 E8.44105
G1 X127.151 Y105.854 E8.45272
G1 X127.274 Y105.422 E8.46392
G1 X127.313 Y105 E8.4745
G1 X127.274 Y104.578 E8.48507
G1 X127.15 Y104.147 E8.49626
G1 X126.936 Y103.734 E8.50786
G1 X126.637 Y103.366 E8.51969
G1 X126.269 Y103.065 E8.53155
G1 X125.855 Y102.85 E8.54318
G1 X125.423 Y102.726 E8.55439
G1 X125 Y102.687 E8.56499
G1 X124.578 Y102.726 E8.57556
G1 X124.147 Y102.85 E8.58675
G1 X123.734 Y103.064 E8.59835
G1 X123.366 Y103.363 E8.61018
G1 X123.065 Y103.731 E8.62204
G0 F3600 X122.982 Y103.677
G0 X122.687 Y104.57
G0 X122.647 Y105
G0 X122.687 Y105.429
G0 X122.813 Y105.867
G0 X123.031 Y106.287
G0 X123.335 Y106.662
G0 X123.547 Y106.834
G0 X131.768 Y111.642
G0 X131.838 Y111.712
G1 F1800 X118.162 Y111.712 E8.96319
G1 X118.162 Y98.288 E9.29805
G1 X131.838 Y98.288 E9.6392
G1 X131.838 Y111.712 E9.97407
G0 F3600 X132.238 Y112.112
;TYPE:WALL-OUTER
G1 F1800 X117.762 Y112.112 E10.33517
G1 X117.762 Y97.888 E10.68999
G1 X132.238 Y97.888 E11.05109
G1 X132.238 Y112.112 E11.40591
G0 F3600 X132.038 Y112.112
G0 X131.768 Y111.642
G0 X127.041 Y106.28
G0 X126.599 Y106.048
G1 F1800 X126.777 Y105.705 E11.41555
G1 X126.879 Y105.348 E11.42482
G1 X126.911 Y105 E11.43353
G1 X126.879 Y104.652 E11.44225
G1 X126.777 Y104.296 E11.45149
G1 X126.6 Y103.955 E11.46107
G1 X126.352 Y103.65 E11.47088
G1 X126.048 Y103.401 E11.48068
G1 X125.706 Y103.223 E11.4903
G1 X125.349 Y103.121 E11.49956
G1 X125 Y103.089 E11.5083
G1 X124.652 Y103.121 E11.51702
G1 X124.296 Y103.223 E11.52626
G1 X123.955 Y103.4 E11.53584
G1 X123.65 Y103.648 E11.54565
G1 X123.401 Y103.952 E11.55545
G1 X123.223 Y104.294 E11.56507
G1 X123.121 Y104.651 E11.57433
G1 X123.089 Y105 E11.58307
G1 X123.121 Y105.348 E11.59179
G1 X123.223 Y105.704 E11.60103
G1 X123.4 Y106.045 E11.61061
G1 X123.648 Y106.35 E11.62042
G1 X123.952 Y106.599 E11.63022
G1 X124.294 Y106.777 E11.63984
G1 X124.651 Y106.879 E11.6491
G1 X125 Y106.911 E11.65784
G1 X125.348 Y106.879 E11.66656
G1 X125.704 Y106.777 E11.6758
G1 X126.045 Y106.6 E11.68538
G1 X126.35 Y106.352 E11.69519
G1 X126.599 Y106.048 E11.70499
G0 F3600 X126.691 Y105.871
G0 X127.134 Y106.102
G0 X127.516 Y105.998
;TYPE:SKIN
G1 F1800 X127.659 Y105.494 E11.71806
G1 X127.705 Y105 E11.73043
G1 X127.659 Y104.506 E11.74281
G1 X127.514 Y104.002 E11.75589
G1 X127.264 Y103.519 E11.76946
G1 X126.914 Y103.089 E11.78329
G1 X126.485 Y102.737 E11.79713
G1 X126 Y102.486 E11.81075
G1 X125.495 Y102.341 E11.82386
G1 X125 Y102.295 E11.83626
G1 X124.506 Y102.341 E11.84864
G1 X124.002 Y102.486 E11.86172
G1 X123.519 Y102.736 E11.87529
G1 X123.089 Y103.086 E11.88912
G1 X122.737 Y103.515 E11.90296
G1 X122.486 Y104 E11.91658
G1 X122.341 Y104.505 E11.92969
G1 X122.295 Y105 E11.94209
G1 X122.341 Y105.494 E11.95447
G1 X122.486 Y105.998 E11.96755
G1 X122.736 Y106.481 E11.98111
G1 X123.086 Y106.911 E11.99495
G1 X123.515 Y107.263 E12.00879
G1 X124 Y107.514 E12.02241
G1 X124.505 Y107.659 E12.03552
G1 X125 Y107.705 E12.04792
G1 X125.494 Y107.659 E12.06029
G1 X125.998 Y107.514 E12.07338
G1 X126.481 Y107.264 E12.08694
G1 X126.911 Y106.914 E12.10077
G1 X127.262 Y106.485 E12.1146
G1 X127.516 Y105.998 E12.1283
G0 F3600 X131.448 Y111.322
G1 F1800 X118.552 Y111.322 E12.44999
G1 X118.552 Y98.678 E12.7654
G1 X131.448 Y98.678 E13.08709
G1 X131.448 Y111.322 E13.4025
G0 F3600 X131.267 Y99.023
G1 F1800 X131.101 Y98.857 E13.40835
G0 F3600 X130.536 Y98.857
G1 F1800 X131.267 Y99.588 E13.43414
G0 F3600 X131.267 Y100.154
G1 F1800 X129.97 Y98.857 E13.4799
G0 F3600 X129.404 Y98.857
G1 F1800 X131.267 Y100.72 E13.54562
G0 F3600 X131.267 Y101.285
G1 F1800 X128.839 Y98.857 E13.63127
G0 F3600 X128.273 Y98.857
G1 F1800 X131.267 Y101.851 E13.7369
G0 F3600 X131.267 Y102.417
G1 F1800 X127.707 Y98.857 E13.86248
G0 F3600 X127.142 Y98.857
G1 F1800 X131.267 Y102.983 E14.00802
G0 F3600 X131.267 Y103.548
G1 F1800 X126.576 Y98.857 E14.17351
G0 F3600 X126.01 Y98.857
G1 F1800 X131.267 Y104.114 E14.35896
G0 F3600 X131.267 Y104.68
G1 F1800 X125.444 Y98.857 E14.56439
G0 F3600 X124.879 Y98.857
G1 F1800 X131.267 Y105.245 E14.78974
G0 F3600 X131.267 Y105.811
G1 F1800 X124.313 Y98.857 E15.03506
G0 F3600 X123.747 Y98.857
G1 F1800 X131.267 Y106.377 E15.30035
G0 F3600 X131.267 Y106.942
G1 F1800 X123.182 Y98.857 E15.58557
G0 F3600 X122.616 Y98.857
G1 F1800 X126.087 Y102.328 E15.70802
G0 F3600 X125.338 Y102.145
G1 F1800 X122.05 Y98.857 E15.82401
G0 F3600 X121.485 Y98.857
G1 F1800 X124.763 Y102.135 E15.93965
G0 F3600 X124.279 Y102.217
G1 F1800 X120.919 Y98.857 E16.05819
G0 F3600 X120.353 Y98.857
G1 F1800 X123.854 Y102.358 E16.18169
G0 F3600 X123.482 Y102.551
G1 F1800 X119.788 Y98.857 E16.31201
G0 F3600 X119.222 Y98.857
G1 F1800 X123.16 Y102.795 E16.45093
G0 F3600 X122.868 Y103.07
G1 F1800 X118.731 Y98.932 E16.59689
G0 F3600 X118.731 Y99.497
G1 F1800 X122.613 Y103.38 E16.73386
G0 F3600 X122.414 Y103.746
G1 F1800 X118.731 Y100.063 E16.86379
G0 F3600 X118.731 Y100.629
G1 F1800 X122.254 Y104.152 E16.98807
G0 F3600 X122.15 Y104.614
G1 F1800 X118.731 Y101.194 E17.1087
G0 F3600 X118.731 Y101.76
G1 F1800 X122.128 Y105.158 E17.22856
G0 F3600 X122.256 Y105.851
G1 F1800 X118.731 Y102.326 E17.35291
G0 F3600 X118.731 Y102.891
G1 F1800 X126.98 Y111.141 E17.64394
G0 F3600 X126.415 Y111.141
G1 F1800 X118.731 Y103.457 E17.91501
G0 F3600 X118.731 Y104.023
G1 F1800 X125.849 Y111.141 E18.16612
G0 F3600 X125.283 Y111.141
G1 F1800 X118.731 Y104.588 E18.39727
G0 F3600 X118.731 Y105.154
G1 F1800 X124.718 Y111.141 E18.60848
G0 F3600 X124.152 Y111.141
G1 F1800 X118.731 Y105.72 E18.79972
G0 F3600 X118.731 Y106.285
G1 F1800 X123.586 Y111.141 E18.97101
G0 F3600 X123.021 Y111.141
G1 F1800 X118.731 Y106.851 E19.12235
G0 F3600 X118.731 Y107.417
G1 F1800 X122.455 Y111.141 E19.25373
G0 F3600 X121.889 Y111.141
G1 F1800 X118.731 Y107.982 E19.36515
G0 F3600 X118.731 Y108.548
G1 F1800 X121.323 Y111.141 E19.45661
G0 F3600 X120.758 Y111.141
G1 F1800 X118.731 Y109.114 E19.52812
G0 F3600 X118.731 Y109.68
G1 F1800 X120.192 Y111.141 E19.57966
G0 F3600 X119.626 Y111.141
G1 F1800 X118.731 Y110.245 E19.61125
G0 F3600 X118.731 Y110.811
G1 F1800 X119.061 Y111.141 E19.62289
G0 F3600 X124.149 Y107.744
G1 F1800 X127.546 Y111.141 E19.74273
G0 F3600 X128.112 Y111.141
G1 F1800 X124.841 Y107.871 E19.85811
G0 F3600 X125.386 Y107.85
G1 F1800 X128.677 Y111.141 E19.9742
G0 F3600 X129.243 Y111.141
G1 F1800 X125.847 Y107.745 E20.09401
G0 F3600 X126.252 Y107.584
G1 F1800 X129.809 Y111.141 E20.21949
G0 F3600 X130.374 Y111.141
G1 F1800 X126.617 Y107.384 E20.35203
G0 F3600 X126.929 Y107.13
G1 F1800 X130.94 Y111.141 E20.49353
G0 F3600 X131.267 Y110.902
G1 F1800 X127.203 Y106.838 E20.6369
G0 F3600 X127.446 Y106.516
G1 F1800 X131.267 Y110.336 E20.77167
G0 F3600 X131.267 Y109.771
G1 F1800 X127.64 Y106.144 E20.89963
G0 F3600 X127.78 Y105.718
G1 F1800 X131.267 Y109.205 E21.02264
G0 F3600 X131.267 Y108.639
G1 F1800 X127.862 Y105.235 E21.14274
G0 F3600 X127.852 Y104.659
G1 F1800 X131.267 Y108.074 E21.26322
G0 F3600 X131.267 Y107.508
G1 F1800 X127.666 Y103.907 E21.39025
M104 S200
G1 X127.596 Y103.837
G0 F3600 X125.869 Y102.813
G0 X125.43 Y102.687
G0 X125 Y102.647
G0 X124.571 Y102.687
G0 X124.133 Y102.813
G0 X123.793 Y102.989
G0 X122.99 Y103.665
G0 X123.066 Y103.728
;TIME_ELAPSED:37.945697
;LAYER:1
M140 S60
M106 S255
G0 F5400 X123.066 Y103.728 Z0.25
;TYPE:WALL-INNER
G1 F2700 X122.851 Y104.143 E21.39802
G1 X122.726 Y104.575 E21.4055
G1 X122.687 Y105 E21.4126
G1 X122.726 Y105.421 E21.41963
G1 X122.849 Y105.851 E21.42707
G1 X123.063 Y106.264 E21.4348
G1 X123.362 Y106.633 E21.4427
G1 X123.728 Y106.934 E21.45058
G1 X124.143 Y107.149 E21.45836
G1 X124.575 Y107.274 E21.46583
G1 X125 Y107.313 E21.47293
G1 X125.421 Y107.274 E21.47996
G1 X125.851 Y107.151 E21.4874
G1 X126.264 Y106.937 E21.49514
G1 X126.633 Y106.638 E21.50304
G1 X126.934 Y106.272 E21.51092
G1 X127.149 Y105.857 E21.51869
G1 X127.274 Y105.422 E21.52622
G1 X127.313 Y105 E21.53326
G1 X127.274 Y104.579 E21.54029
G1 X127.151 Y104.149 E21.54773
G1 X126.937 Y103.736 E21.55547
G1 X126.638 Y103.367 E21.56337
G1 X126.272 Y103.066 E21.57125
G1 X125.857 Y102.851 E21.57902
G1 X125.425 Y102.726 E21.5865
G1 X125 Y102.687 E21.5936
G1 X124.579 Y102.726 E21.60063
G1 X124.149 Y102.849 E21.60806
G1 X123.736 Y103.063 E21.6158
G1 X123.367 Y103.362 E21.6237
G1 X123.066 Y103.728 E21.63158
G0 F5400 X122.983 Y103.673
G0 X122.687 Y104.568
G0 X122.647 Y105
G0 X122.687 Y105.428
G0 X122.812 Y105.865
G0 X123.03 Y106.285
G0 X123.334 Y106.661
G0 X123.544 Y106.833
G0 X131.768 Y111.642
G0 X131.838 Y111.712
G1 F2700 X118.162 Y111.712 E21.85901
G1 X118.162 Y98.288 E22.08225
G1 X131.838 Y98.288 E22.30969
G1 X131.838 Y111.712 E22.53293
G0 F5400 X132.238 Y112.112
;TYPE:WALL-OUTER
G1 F1800 X117.762 Y112.112 E22.77366
G1 X117.762 Y97.888 E23.01021
G1 X132.238 Y97.888 E23.25095
G1 X132.238 Y112.112 E23.48749
G0 F5400 X132.038 Y112.112
G0 X131.768 Y111.642
G0 X123.706 Y106.967
G0 X123.334 Y106.661
G0 X123.03 Y106.285
G0 X122.812 Y105.865
G0 X122.687 Y105.428
G0 X122.647 Y105
G0 X122.679 Y104.651
G0 X123.016 Y103.633
G0 X123.402 Y103.95
G1 F1800 X123.224 Y104.292 E23.49391
