;FLAVOR:Marlin
;TIME:3999
;Filament used: 1.80488m
;Layer height: 0.1
;Generated with Cura_SteamEngine 3.5.1
M82 ;absolute extrusion mode
G21 ; set units to millimeters
G90 ; use absolute positioning
M82 ; absolute extrusion mode
M104 S200 ; set extruder temp
M140 S60 ; set bed temp
M190 S60 ; wait for bed temp
M109 S200 ; wait for extruder temp
G28 W ; home all without mesh bed level
G80 ; mesh bed leveling
G92 E0.0 ; reset extruder distance position
G1 Y-3.0 F1000.0 ; go outside print area
G1 X60.0 E9.0 F1000.0 ; intro line
G1 X100.0 E21.5 F1000.0 ; intro line
G92 E0.0 ; reset extruder distance position
G92 E0
G1 F2100 E-0.8
;LAYER_COUNT:247
;LAYER:0
M107
G0 F3600 X113.745 Y95.89 Z0.15
;TYPE:SKIRT
G1 F2100 E0
G1 F1800 X114.631 Y94.885 E0.03342
G1 X115.11 Y94.425 E0.04999
G1 X116.684 Y93.147 E0.10056
G1 X117.169 Y92.809 E0.11531
G1 X118.084 Y92.268 E0.14183
G1 X118.523 Y92.043 E0.15413
G1 X119.938 Y91.427 E0.19263
G1 X120.422 Y91.253 E0.20546
G1 X121.499 Y90.941 E0.23343
G1 X121.898 Y90.847 E0.24365
G1 X122.929 Y90.66 E0.26979
G1 X123.444 Y90.601 E0.28272
G1 X125.114 Y90.518 E0.32443
G1 X125.725 Y90.534 E0.33968
G1 X127.259 Y90.693 E0.37815
G1 X127.838 Y90.797 E0.39282
G1 X129.34 Y91.181 E0.4315
G1 X129.814 Y91.334 E0.44392
G1 X130.782 Y91.715 E0.46987
G1 X131.217 Y91.917 E0.48184
G1 X132.521 Y92.621 E0.5188
G1 X133.023 Y92.942 E0.53367
G1 X134.32 Y93.916 E0.57413
G1 X134.796 Y94.337 E0.58998
G1 X136.025 Y95.61 E0.63412
G1 X136.432 Y96.106 E0.65012
G1 X137.319 Y97.383 E0.68891
G1 X137.617 Y97.888 E0.70354
G1 X138.301 Y99.267 E0.74193
G1 X138.497 Y99.734 E0.75457
G1 X138.861 Y100.784 E0.78229
G1 X138.976 Y101.177 E0.7925
G1 X139.215 Y102.192 E0.81852
G1 X139.291 Y102.616 E0.82926
G1 X139.436 Y103.784 E0.85862
G1 X139.466 Y104.285 E0.87114
G1 X139.463 Y105.806 E0.90908
G1 X139.419 Y106.391 E0.92372
G1 X139.194 Y107.893 E0.9616
G1 X139.063 Y108.469 E0.97634
G1 X138.598 Y109.991 E1.01604
G1 X138.384 Y110.543 E1.0308
G1 X137.743 Y111.888 E1.06797
G1 X137.447 Y112.405 E1.08283
G1 X136.577 Y113.694 E1.12162
G1 X136.329 Y114.024 E1.13192
G1 X135.762 Y114.701 E1.15395
G1 X135.357 Y115.119 E1.16847
G1 X133.865 Y116.449 E1.21833
G1 X133.321 Y116.856 E1.23527
G1 X131.998 Y117.682 E1.27418
G1 X131.477 Y117.956 E1.28887
G1 X130.067 Y118.57 E1.32723
G1 X129.585 Y118.745 E1.34002
G1 X128.503 Y119.059 E1.36812
G1 X128.1 Y119.153 E1.37845
G1 X127.055 Y119.342 E1.40494
G1 X126.57 Y119.4 E1.41712
G1 X125.074 Y119.485 E1.4545
G1 X124.566 Y119.481 E1.46717
G1 X123.415 Y119.4 E1.49595
G1 X122.999 Y119.349 E1.50641
G1 X121.931 Y119.16 E1.53347
G1 X121.533 Y119.068 E1.54365
G1 X120.556 Y118.79 E1.56899
G1 X120.105 Y118.632 E1.58091
G1 X118.709 Y118.047 E1.61867
G1 X118.269 Y117.83 E1.63091
G1 X117.367 Y117.314 E1.65683
G1 X116.92 Y117.017 E1.67022
G1 X115.495 Y115.925 E1.715
G1 X115.02 Y115.497 E1.73095
G1 X113.945 Y114.359 E1.77
G1 X113.568 Y113.894 E1.78494
G1 X112.674 Y112.607 E1.82403
G1 X112.372 Y112.094 E1.83888
G1 X111.685 Y110.701 E1.87762
G1 X111.49 Y110.236 E1.8902
G1 X111.136 Y109.209 E1.9173
G1 X111.024 Y108.822 E1.92735
G1 X110.79 Y107.828 E1.95282
G1 X110.717 Y107.425 E1.96304
G1 X110.571 Y106.298 E1.99138
G1 X110.538 Y105.781 E2.00431
G1 X110.539 Y104.194 E2.04389
G1 X110.585 Y103.592 E2.05896
G1 X110.825 Y102.023 E2.09855
G1 X110.956 Y101.451 E2.11319
G1 X111.392 Y100.035 E2.15015
G1 X111.599 Y99.502 E2.16441
G1 X112.25 Y98.125 E2.2024
G1 X112.552 Y97.594 E2.21764
G1 X113.431 Y96.294 E2.25679
G1 X113.745 Y95.89 E2.26955
G0 F3600 X114.045 Y96.154
G1 F1800 X114.931 Y95.149 E2.30297
G1 X115.362 Y94.735 E2.31788
G1 X116.936 Y93.457 E2.36846
G1 X117.373 Y93.153 E2.38174
G1 X118.288 Y92.612 E2.40825
G1 X118.683 Y92.41 E2.41932
G1 X120.098 Y91.794 E2.45782
G1 X120.533 Y91.637 E2.46935
G1 X121.61 Y91.325 E2.49732
G1 X121.97 Y91.241 E2.50654
G1 X123.001 Y91.054 E2.53268
G1 X123.464 Y91 E2.54431
G1 X125.134 Y90.917 E2.58602
G1 X125.684 Y90.932 E2.59974
G1 X127.218 Y91.091 E2.63822
G1 X127.739 Y91.184 E2.65142
G1 X129.241 Y91.568 E2.69009
G1 X129.667 Y91.706 E2.70126
G1 X130.635 Y92.087 E2.72721
G1 X131.027 Y92.269 E2.73799
G1 X132.331 Y92.973 E2.77496
G1 X132.783 Y93.262 E2.78834
G1 X134.08 Y94.236 E2.8288
G1 X134.508 Y94.615 E2.84306
G1 X135.737 Y95.888 E2.8872
G1 X136.104 Y96.334 E2.90161
G1 X136.991 Y97.611 E2.94039
G1 X137.259 Y98.065 E2.95355
G1 X137.943 Y99.444 E2.99194
G1 X138.119 Y99.865 E3.00333
G1 X138.483 Y100.915 E3.03105
G1 X138.586 Y101.269 E3.04025
G1 X138.825 Y102.284 E3.06626
G1 X138.894 Y102.665 E3.07592
G1 X139.039 Y103.833 E3.10528
G1 X139.066 Y104.284 E3.11655
G1 X139.063 Y105.805 E3.15449
G1 X139.023 Y106.331 E3.16765
G1 X138.798 Y107.833 E3.20553
G1 X138.681 Y108.352 E3.2188
G1 X138.216 Y109.874 E3.2585
G1 X138.023 Y110.371 E3.2718
G1 X137.382 Y111.716 E3.30897
G1 X137.116 Y112.181 E3.32233
G1 X136.246 Y113.47 E3.36112
G1 X136.022 Y113.767 E3.3704
G1 X135.455 Y114.444 E3.39243
G1 X135.091 Y114.82 E3.40549
G1 X133.599 Y116.15 E3.45535
G1 X133.11 Y116.517 E3.4706
G1 X131.787 Y117.343 E3.5095
G1 X131.317 Y117.59 E3.52275
G1 X129.907 Y118.204 E3.56111
G1 X129.473 Y118.36 E3.57261
G1 X128.391 Y118.674 E3.60072
G1 X128.029 Y118.76 E3.61
G1 X126.984 Y118.949 E3.63649
G1 X126.547 Y119 E3.64747
G1 X125.051 Y119.085 E3.68484
G1 X124.594 Y119.082 E3.69624
G1 X123.443 Y119.001 E3.72503
G1 X123.069 Y118.955 E3.73443
G1 X122.001 Y118.766 E3.76148
G1 X121.643 Y118.684 E3.77064
G1 X120.666 Y118.406 E3.79598
G1 X120.26 Y118.263 E3.80672
G1 X118.864 Y117.678 E3.84448
G1 X118.467 Y117.483 E3.85551
G1 X117.565 Y116.967 E3.88143
G1 X117.163 Y116.699 E3.89349
G1 X115.738 Y115.607 E3.93827
G1 X115.311 Y115.222 E3.95261
G1 X114.236 Y114.084 E3.99166
G1 X113.896 Y113.666 E4.0051
G1 X113.002 Y112.379 E4.04419
G1 X112.73 Y111.917 E4.05757
G1 X112.043 Y110.524 E4.09631
G1 X111.869 Y110.105 E4.10763
G1 X111.515 Y109.078 E4.13473
G1 X111.414 Y108.73 E4.14376
G1 X111.18 Y107.736 E4.16924
G1 X111.114 Y107.374 E4.17842
G1 X110.968 Y106.247 E4.20677
G1 X110.938 Y105.782 E4.21839
G1 X110.939 Y104.195 E4.25798
G1 X110.98 Y103.653 E4.27154
G1 X111.22 Y102.084 E4.31113
G1 X111.338 Y101.569 E4.32431
G1 X111.774 Y100.153 E4.36127
G1 X111.96 Y99.673 E4.37411
G1 X112.611 Y98.296 E4.4121
G1 X112.884 Y97.819 E4.42581
G1 X113.763 Y96.519 E4.46496
G1 X114.045 Y96.154 E4.47647
G0 F3600 X114.345 Y96.419
G1 F1800 X115.231 Y95.414 E4.50989
G1 X115.614 Y95.046 E4.52314
G1 X117.188 Y93.768 E4.57371
G1 X117.576 Y93.497 E4.58552
G1 X118.491 Y92.956 E4.61203
G1 X118.843 Y92.777 E4.62188
G1 X120.258 Y92.161 E4.66038
G1 X120.645 Y92.021 E4.67065
G1 X121.722 Y91.709 E4.69862
G1 X122.041 Y91.634 E4.70679
G1 X123.072 Y91.447 E4.73293
G1 X123.484 Y91.4 E4.74327
G1 X125.154 Y91.317 E4.78498
G1 X125.643 Y91.33 E4.79719
G1 X127.177 Y91.489 E4.83566
G1 X127.64 Y91.572 E4.84739
G1 X129.142 Y91.956 E4.88606
G1 X129.521 Y92.078 E4.896
G1 X130.489 Y92.459 E4.92195
G1 X130.837 Y92.621 E4.93152
G1 X132.141 Y93.325 E4.96849
G1 X132.543 Y93.582 E4.98039
G1 X133.84 Y94.556 E5.02085
G1 X134.22 Y94.892 E5.0335
G1 X135.449 Y96.165 E5.07764
G1 X135.775 Y96.562 E5.09046
G1 X136.662 Y97.839 E5.12924
G1 X136.901 Y98.243 E5.14095
G1 X137.585 Y99.622 E5.17935
G1 X137.741 Y99.996 E5.18946
G1 X138.105 Y101.046 E5.21718
G1 X138.197 Y101.361 E5.22537
G1 X138.436 Y102.376 E5.25138
G1 X138.497 Y102.715 E5.25997
G1 X138.642 Y103.883 E5.28933
G1 X138.666 Y104.283 E5.29933
G1 X138.663 Y105.804 E5.33727
G1 X138.628 Y106.272 E5.34897
G1 X138.403 Y107.774 E5.38686
G1 X138.298 Y108.235 E5.39865
G1 X137.833 Y109.757 E5.43835
G1 X137.662 Y110.199 E5.45017
G1 X137.021 Y111.544 E5.48734
G1 X136.784 Y111.957 E5.49922
G1 X135.914 Y113.246 E5.53801
G1 X135.715 Y113.511 E5.54628
G1 X135.148 Y114.188 E5.56831
G1 X134.824 Y114.522 E5.57992
G1 X133.332 Y115.852 E5.62977
G1 X132.898 Y116.177 E5.6433
G1 X131.575 Y117.003 E5.68221
G1 X131.158 Y117.223 E5.69397
G1 X129.748 Y117.837 E5.73233
G1 X129.362 Y117.976 E5.74256
G1 X128.28 Y118.29 E5.77067
G1 X127.958 Y118.366 E5.77892
G1 X126.913 Y118.555 E5.80541
G1 X126.525 Y118.601 E5.81516
G1 X125.029 Y118.686 E5.85254
G1 X124.622 Y118.683 E5.86269
G1 X123.471 Y118.602 E5.89147
G1 X123.138 Y118.561 E5.89984
G1 X122.07 Y118.372 E5.9269
G1 X121.752 Y118.299 E5.93504
G1 X120.775 Y118.021 E5.96037
G1 X120.414 Y117.894 E5.96992
G1 X119.018 Y117.309 E6.00768
G1 X118.666 Y117.136 E6.01746
G1 X117.764 Y116.62 E6.04338
G1 X117.407 Y116.382 E6.05409
G1 X115.982 Y115.29 E6.09887
G1 X115.602 Y114.947 E6.11164
G1 X114.527 Y113.809 E6.15069
G1 X114.225 Y113.438 E6.16262
G1 X113.331 Y112.151 E6.20171
G1 X113.089 Y111.74 E6.21361
G1 X112.402 Y110.347 E6.25236
G1 X112.247 Y109.975 E6.26241
G1 X111.893 Y108.948 E6.28951
G1 X111.803 Y108.638 E6.29756
G1 X111.569 Y107.644 E6.32303
G1 X111.511 Y107.322 E6.33119
G1 X111.365 Y106.195 E6.35954
G1 X111.338 Y105.782 E6.36987
G1 X111.339 Y104.195 E6.40945
G1 X111.376 Y103.713 E6.42151
G1 X111.616 Y102.144 E6.46111
G1 X111.721 Y101.686 E6.47283
G1 X112.157 Y100.27 E6.50979
G1 X112.322 Y99.844 E6.52118
G1 X112.973 Y98.467 E6.55918
G1 X113.215 Y98.043 E6.57136
G1 X114.094 Y96.743 E6.6105
G1 X114.345 Y96.419 E6.62073
G1 F2100 E5.82073
G0 F3600 X120.128 Y94.956
G0 X120.712 Y96.099
G0 X125.605 Y95.219
G0 X125.611 Y95.12
;TYPE:WALL-INNER
G1 F2100 E6.62073
G1 F1800 X126.099 Y95.161 E6.63294
G1 X126.604 Y95.231 E6.64566
G1 X127.091 Y95.323 E6.65802
G1 X127.565 Y95.439 E6.67019
G1 X128.03 Y95.576 E6.68229
G1 X128.505 Y95.74 E6.69482
G1 X128.931 Y95.914 E6.7063
G1 X129.365 Y96.115 E6.71823
G1 X129.754 Y96.316 E6.72915
G1 X130.188 Y96.569 E6.74169
G1 X130.596 Y96.832 E6.7538
G1 X130.95 Y97.088 E6.76469
G1 X131.253 Y97.326 E6.7743
G1 X131.612 Y97.632 E6.78607
G1 X131.949 Y97.949 E6.79761
G1 X132.294 Y98.307 E6.81001
G1 X132.596 Y98.651 E6.82143
G1 X132.898 Y99.031 E6.83354
G1 X133.179 Y99.421 E6.84553
G1 X133.454 Y99.848 E6.8582
G1 X133.685 Y100.247 E6.8697
G1 X133.919 Y100.704 E6.88251
G1 X134.132 Y101.175 E6.8954
G1 X134.303 Y101.614 E6.90716
G1 X134.472 Y102.123 E6.92054
G1 X134.601 Y102.584 E6.93248
G1 X134.717 Y103.1 E6.94567
G1 X134.795 Y103.564 E6.95741
G1 X134.857 Y104.076 E6.97027
G1 X134.891 Y104.596 E6.98327
G1 X134.899 Y105.105 E6.99597
G1 X134.881 Y105.605 E7.00845
G1 X134.839 Y106.098 E7.02079
G1 X134.771 Y106.588 E7.03313
G1 X134.681 Y107.07 E7.04536
G1 X134.565 Y107.553 E7.05776
G1 X134.424 Y108.029 E7.07014
G1 X134.267 Y108.485 E7.08217
G1 X134.09 Y108.922 E7.09393
G1 X133.895 Y109.346 E7.10557
G1 X133.689 Y109.745 E7.11677
G1 X133.434 Y110.183 E7.12942
G1 X133.17 Y110.593 E7.14158
G1 X132.912 Y110.95 E7.15257
G1 X132.674 Y111.253 E7.16218
G1 X132.377 Y111.603 E7.17363
G1 X132.03 Y111.969 E7.18621
G1 X131.693 Y112.294 E7.19789
G1 X131.356 Y112.59 E7.20908
G1 X130.97 Y112.897 E7.22138
G1 X130.574 Y113.182 E7.23355
G1 X130.155 Y113.452 E7.24599
G1 X129.747 Y113.688 E7.25774
G1 X129.282 Y113.925 E7.27076
G1 X128.834 Y114.128 E7.28303
G1 X128.379 Y114.305 E7.29521
G1 X127.877 Y114.472 E7.30841
G1 X127.407 Y114.603 E7.32058
G1 X126.903 Y114.715 E7.33346
G1 X126.429 Y114.796 E7.34545
G1 X125.921 Y114.857 E7.35822
G1 X125.398 Y114.891 E7.37129
G1 X124.916 Y114.9 E7.38332
G1 X124.376 Y114.88 E7.3968
G1 X123.888 Y114.838 E7.40901
G1 X123.402 Y114.769 E7.42126
G1 X122.925 Y114.68 E7.43336
G1 X122.439 Y114.563 E7.44583
G1 X121.97 Y114.424 E7.45804
G1 X121.507 Y114.264 E7.47025
G1 X121.083 Y114.092 E7.48167
G1 X120.635 Y113.885 E7.49398
G1 X120.243 Y113.682 E7.50499
G1 X119.812 Y113.431 E7.51743
G1 X119.401 Y113.166 E7.52963
G1 X119.037 Y112.903 E7.54083
G1 X118.741 Y112.67 E7.55023
G1 X118.393 Y112.373 E7.56164
G1 X118.031 Y112.03 E7.57408
G1 X117.706 Y111.693 E7.58576
G1 X117.404 Y111.349 E7.59718
G1 X117.102 Y110.969 E7.60929
G1 X116.815 Y110.57 E7.62155
G1 X116.548 Y110.157 E7.63382
G1 X116.311 Y109.745 E7.64567
G1 X116.06 Y109.251 E7.6595
G1 X115.865 Y108.816 E7.67139
G1 X115.695 Y108.379 E7.68308
G1 X115.525 Y107.868 E7.69652
G1 X115.398 Y107.411 E7.70835
G1 X115.281 Y106.89 E7.72167
G1 X115.203 Y106.42 E7.73355
G1 X115.141 Y105.903 E7.74654
G1 X115.109 Y105.4 E7.75912
G1 X115.1 Y104.912 E7.77129
G1 X115.119 Y104.397 E7.78415
G1 X115.163 Y103.888 E7.79689
G1 X115.228 Y103.414 E7.80883
G1 X115.319 Y102.93 E7.82111
G1 X115.44 Y102.428 E7.83399
G1 X115.581 Y101.955 E7.8463
G1 X115.733 Y101.514 E7.85794
G1 X115.91 Y101.078 E7.86968
G1 X116.105 Y100.654 E7.88132
G1 X116.311 Y100.255 E7.89252
G1 X116.569 Y99.812 E7.90531
G1 X116.832 Y99.404 E7.91742
G1 X117.088 Y99.05 E7.92832
G1 X117.326 Y98.747 E7.93793
G1 X117.632 Y98.388 E7.94969
G1 X117.949 Y98.051 E7.96124
G1 X118.307 Y97.706 E7.97364
G1 X118.651 Y97.404 E7.98506
G1 X119.031 Y97.102 E7.99716
G1 X119.43 Y96.815 E8.00943
G1 X119.831 Y96.556 E8.02133
G1 X120.253 Y96.312 E8.03349
G1 X120.704 Y96.081 E8.04613
G1 X121.175 Y95.868 E8.05903
G1 X121.621 Y95.695 E8.07096
G1 X122.123 Y95.528 E8.08416
G1 X122.593 Y95.397 E8.09633
G1 X123.097 Y95.285 E8.10921
G1 X123.572 Y95.204 E8.12123
G1 X124.105 Y95.142 E8.13461
G1 X124.602 Y95.109 E8.14704
G1 X125.084 Y95.1 E8.15906
G1 X125.611 Y95.12 E8.17222
G0 F3600 X125.605 Y95.219
G0 X131.292 Y112.514
G0 X131.613 Y112.897
;TYPE:WALL-OUTER
G1 F1800 X131.204 Y113.222 E8.18525
G1 X130.807 Y113.508 E8.19746
G1 X130.369 Y113.79 E8.21045
G1 X129.935 Y114.041 E8.22296
G1 X129.459 Y114.284 E8.23629
G1 X128.979 Y114.501 E8.24943
G1 X128.512 Y114.683 E8.26193
G1 X128.003 Y114.852 E8.27531
G1 X127.504 Y114.991 E8.28823
G1 X126.979 Y115.108 E8.30165
G1 X126.484 Y115.192 E8.31417
G1 X125.956 Y115.255 E8.32744
G1 X125.41 Y115.291 E8.34109
G1 X124.908 Y115.3 E8.35361
G1 X124.361 Y115.28 E8.36727
G1 X123.835 Y115.234 E8.38044
G1 X123.338 Y115.164 E8.39296
G1 X122.836 Y115.07 E8.4057
G1 X122.334 Y114.949 E8.41858
G1 X121.853 Y114.807 E8.43109
G1 X121.364 Y114.638 E8.444
G1 X120.928 Y114.461 E8.45573
G1 X120.462 Y114.246 E8.46854
G1 X120.045 Y114.03 E8.48025
G1 X119.611 Y113.777 E8.49278
G1 X119.184 Y113.502 E8.50545
G1 X118.803 Y113.227 E8.51717
G1 X118.494 Y112.984 E8.52698
G1 X118.122 Y112.667 E8.53917
G1 X117.743 Y112.308 E8.55219
G1 X117.41 Y111.963 E8.56415
G1 X117.103 Y111.613 E8.57577
G1 X116.777 Y111.203 E8.58883
G1 X116.49 Y110.804 E8.60109
G1 X116.205 Y110.361 E8.61423
G1 X115.954 Y109.926 E8.62676
G1 X115.703 Y109.432 E8.64058
G1 X115.495 Y108.97 E8.65322
G1 X115.317 Y108.512 E8.66548
G1 X115.145 Y107.994 E8.6791
G1 X115.009 Y107.504 E8.69178
G1 X114.891 Y106.978 E8.70523
G1 X114.806 Y106.471 E8.71805
G1 X114.743 Y105.938 E8.73144
G1 X114.709 Y105.412 E8.74459
G1 X114.7 Y104.897 E8.75744
G1 X114.72 Y104.363 E8.77077
G1 X114.764 Y103.854 E8.78351
G1 X114.835 Y103.34 E8.79646
G1 X114.93 Y102.836 E8.80925
G1 X115.051 Y102.334 E8.82213
G1 X115.203 Y101.825 E8.83538
G1 X115.362 Y101.364 E8.84755
G1 X115.539 Y100.928 E8.85928
G1 X115.75 Y100.47 E8.87186
G1 X115.965 Y100.054 E8.88354
G1 X116.223 Y99.611 E8.89633
G1 X116.496 Y99.187 E8.90891
G1 X116.773 Y98.803 E8.92072
G1 X117.011 Y98.5 E8.93033
G1 X117.327 Y98.129 E8.94249
G1 X117.671 Y97.763 E8.95502
G1 X118.037 Y97.41 E8.9677
G1 X118.387 Y97.103 E8.97932
G1 X118.797 Y96.777 E8.99238
G1 X119.196 Y96.49 E9.00465
G1 X119.631 Y96.21 E9.01755
G1 X120.065 Y95.959 E9.03006
G1 X120.54 Y95.716 E9.04337
G1 X121.021 Y95.499 E9.05653
G1 X121.488 Y95.317 E9.06903
G1 X121.997 Y95.148 E9.08241
G1 X122.496 Y95.009 E9.09533
G1 X123.021 Y94.892 E9.10875
G1 X123.515 Y94.808 E9.12125
G1 X124.072 Y94.743 E9.13524
G1 X124.59 Y94.709 E9.14819
G1 X125.092 Y94.7 E9.16071
G1 X125.639 Y94.72 E9.17437
G1 X126.133 Y94.762 E9.18673
G1 X126.671 Y94.837 E9.20028
G1 X127.186 Y94.934 E9.21336
G1 X127.666 Y95.051 E9.22568
G1 X128.147 Y95.193 E9.23819
G1 X128.636 Y95.362 E9.2511
G1 X129.099 Y95.551 E9.26357
G1 X129.538 Y95.754 E9.27564
G1 X129.955 Y95.97 E9.28735
G1 X130.389 Y96.223 E9.29988
G1 X130.813 Y96.496 E9.31246
G1 X131.197 Y96.773 E9.32427
G1 X131.5 Y97.011 E9.33388
G1 X131.871 Y97.327 E9.34604
G1 X132.237 Y97.671 E9.35857
G1 X132.59 Y98.037 E9.37126
G1 X132.897 Y98.387 E9.38287
G1 X133.223 Y98.797 E9.39594
G1 X133.504 Y99.187 E9.40793
G1 X133.79 Y99.631 E9.4211
G1 X134.041 Y100.065 E9.43361
G1 X134.284 Y100.54 E9.44692
