; generated by Slic3r 1.37.1-prusa3d-win64 on 2017-10-11 at 10:07:03

; 

; external perimeters extrusion width = 0.45mm
; perimeters extrusion width = 0.45mm
; infill extrusion width = 0.45mm
; solid infill extrusion width = 0.45mm
; top infill extrusion width = 0.45mm
; first layer extrusion width = 0.42mm

M107
M115 U3.0.12 ; tell printer latest fw version
; Start G-Code sequence START
T?
M104 S215
M140 S55
M109 S215
M190 S55
G21 ; set units to millimeters
G90 ; use absolute coordinates
M83 ; use relative distances for extrusion
G28 W
G80
G92 E0.0
M203 E100
M92 E140
G1 Z0.250 F7200.000
G1 X50.0 E80.0  F1000.0
G1 X160.0 E20.0  F1000.0
G1 Z0.200 F7200.000
G1 X220.0 E13 F1000.0
G1 X240.0 E0 F1000.0
G1 E-4 F1000.0
G92 E0.0
; Filament gcode

G21 ; set units to millimeters
G90 ; use absolute coordinates
M83 ; use relative distances for extrusion
;BEFORE_LAYER_CHANGE
;0.2


G1 Z0.200 F7200.000
;AFTER_LAYER_CHANGE
;0.2
G1 E-4.00000 F4800.00000
G1 Z0.700 F7200.000
G1 X106.784 Y61.846 F7200.000
G1 Z0.200 F7200.000
G1 E4.00000 F4800.00000
M204 S1000
G1 F2100
G1 X107.277 Y61.336 E0.02225
G1 X107.899 Y60.994 E0.02225
G1 X108.594 Y60.851 E0.02225
G1 X137.031 Y60.848 E0.89163
G1 X137.681 Y60.939 E0.02060
G1 X138.278 Y61.204 E0.02048
G1 X141.269 Y63.149 E0.11187
G1 X141.632 Y63.479 E0.01538
G1 X141.920 Y63.876 E0.01538
G1 X142.213 Y64.696 E0.02730
G1 X143.652 Y72.311 E0.24299
G1 X143.656 Y138.188 E2.06552
G1 X142.242 Y145.693 E0.23945
G1 X141.900 Y146.357 E0.02343
G1 X141.365 Y146.884 E0.02355
G1 X138.347 Y148.841 E0.11276
G1 X137.891 Y149.040 E0.01562
G1 X137.399 Y149.141 E0.01574
G1 X108.713 Y149.152 E0.89945
G1 X107.975 Y149.033 E0.02343
G1 X107.327 Y148.701 E0.02284
G1 X106.807 Y148.185 E0.02296
G1 X106.470 Y147.540 E0.02284
G1 X106.344 Y146.818 E0.02296
G1 X106.343 Y63.221 E2.62114
G1 X106.463 Y62.479 E0.02355
G1 X106.757 Y61.900 E0.02037
G1 F5760
G1 X107.277 Y61.336 E-0.60733
G1 F5760
G1 X107.899 Y60.994 E-0.56178
G1 F5760
G1 X108.594 Y60.851 E-0.56178
G1 F5760
G1 X111.207 Y60.851 E-2.06910
G1 E-0.20000 F4800.00000
G1 Z0.700 F7200.000
G1 X129.530 Y76.117 F7200.000
G1 Z0.200 F7200.000
G1 E4.00000 F4800.00000
G1 F840
G1 X129.729 Y75.793 E0.01192
G1 X129.997 Y75.498 E0.01251
G1 X130.331 Y75.251 E0.01302
G1 X130.716 Y75.072 E0.01331
G1 X131.129 Y74.974 E0.01333
G1 X131.521 Y74.963 E0.01228
G1 X131.952 Y75.030 E0.01369
G1 X132.330 Y75.175 E0.01269
G1 X132.654 Y75.374 E0.01192
G1 X132.949 Y75.642 E0.01251
G1 X133.197 Y75.976 E0.01302
G1 X133.376 Y76.361 E0.01331
G1 X133.474 Y76.775 E0.01333
G1 X133.486 Y77.196 E0.01322
G1 X133.416 Y77.602 E0.01292
G1 X133.273 Y77.976 E0.01255
G1 X133.073 Y78.299 E0.01192
G1 X132.805 Y78.594 E0.01251
G1 X132.471 Y78.842 E0.01302
G1 X132.087 Y79.021 E0.01331
G1 X131.673 Y79.119 E0.01333
G1 X131.252 Y79.131 E0.01321
G1 X130.846 Y79.061 E0.01292
G1 X130.472 Y78.918 E0.01255
G1 X130.148 Y78.719 E0.01192
G1 X129.853 Y78.450 E0.01251
G1 X129.606 Y78.117 E0.01302
G1 X129.427 Y77.732 E0.01331
G1 X129.329 Y77.318 E0.01333
G1 X129.317 Y76.897 E0.01322
G1 X129.386 Y76.491 E0.01292
G1 X129.508 Y76.173 E0.01067
G1 X129.860 Y76.308 F7200.000
G1 F840
G1 X130.032 Y76.021 E0.01048
G1 X130.251 Y75.779 E0.01025
G1 X130.525 Y75.577 E0.01067
G1 X130.840 Y75.430 E0.01090
G1 X131.179 Y75.350 E0.01092
G1 X131.497 Y75.341 E0.00999
G1 X131.855 Y75.396 E0.01135
G1 X132.163 Y75.514 E0.01034
G1 X132.427 Y75.677 E0.00971
G1 X132.668 Y75.897 E0.01025
G1 X132.871 Y76.170 E0.01067
G1 X133.018 Y76.485 E0.01090
G1 X133.098 Y76.824 E0.01092
G1 X133.108 Y77.169 E0.01083
G1 X133.051 Y77.502 E0.01058
G1 X132.933 Y77.808 E0.01029
G1 X132.771 Y78.072 E0.00971
G1 X132.551 Y78.313 E0.01025
G1 X132.278 Y78.516 E0.01067
G1 X131.962 Y78.663 E0.01090
G1 X131.623 Y78.743 E0.01092
G1 X131.278 Y78.753 E0.01082
G1 X130.946 Y78.696 E0.01058
G1 X130.640 Y78.578 E0.01029
G1 X130.376 Y78.416 E0.00971
G1 X130.134 Y78.196 E0.01025
G1 X129.932 Y77.923 E0.01067
G1 X129.785 Y77.608 E0.01090
G1 X129.705 Y77.269 E0.01092
G1 X129.695 Y76.924 E0.01083
G1 X129.752 Y76.591 E0.01058
G1 X129.839 Y76.364 E0.00763
G1 X129.671 Y76.032 F7200.000
G1 F5760
G1 X130.032 Y76.021 E-0.31141
G1 F5760
G1 X130.251 Y75.779 E-0.25869
G1 F5760
G1 X130.525 Y75.577 E-0.26941
G1 F5760
G1 X130.840 Y75.430 E-0.27526
G1 F5760
G1 X131.179 Y75.350 E-0.27566
G1 F5760
G1 X131.497 Y75.341 E-0.25216
G1 F5760
G1 X131.855 Y75.396 E-0.28652
G1 F5760
G1 X132.163 Y75.514 E-0.26101
G1 F5760
G1 X132.427 Y75.677 E-0.24523
G1 F5760
G1 X132.668 Y75.897 E-0.25869
G1 F5760
G1 X132.871 Y76.170 E-0.26941
G1 F5760
G1 X133.018 Y76.485 E-0.27526
G1 F5760
G1 X133.098 Y76.824 E-0.27565
G1 F5760
G1 X133.108 Y77.169 E-0.27333
G1 F5760
G1 X133.105 Y77.185 E-0.01232
G1 E-0.20000 F4800.00000
G1 Z0.700 F7200.000
G1 X117.050 Y140.664 F7200.000
G1 Z0.200 F7200.000
G1 E4.00000 F4800.00000
G1 F840
G1 X117.498 Y140.835 E0.01504
G1 X117.882 Y141.071 E0.01413
G1 X118.230 Y141.388 E0.01477
G1 X118.522 Y141.782 E0.01538
G1 X118.734 Y142.237 E0.01571
G1 X118.849 Y142.725 E0.01574
G1 X118.864 Y143.223 E0.01561
G1 X118.781 Y143.702 E0.01526
G1 X118.612 Y144.143 E0.01481
G1 X118.376 Y144.527 E0.01413
G1 X118.059 Y144.876 E0.01477
G1 X117.665 Y145.167 E0.01538
G1 X117.211 Y145.379 E0.01571
G1 X116.722 Y145.495 E0.01574
G1 X116.225 Y145.509 E0.01560
G1 X115.745 Y145.426 E0.01526
G1 X115.304 Y145.258 E0.01481
G1 X114.921 Y145.021 E0.01413
G1 X114.572 Y144.704 E0.01477
G1 X114.280 Y144.310 E0.01538
G1 X114.069 Y143.856 E0.01571
G1 X113.953 Y143.368 E0.01574
G1 X113.938 Y142.870 E0.01561
G1 X114.021 Y142.390 E0.01526
G1 X114.190 Y141.949 E0.01481
G1 X114.426 Y141.566 E0.01413
G1 X114.743 Y141.217 E0.01477
G1 X115.137 Y140.925 E0.01538
G1 X115.591 Y140.714 E0.01571
G1 X116.080 Y140.598 E0.01574
G1 X116.545 Y140.585 E0.01458
G1 X116.991 Y140.654 E0.01415
G1 X116.932 Y141.027 F7200.000
G1 F840
G1 X117.330 Y141.175 E0.01331
G1 X117.654 Y141.374 E0.01192
G1 X117.949 Y141.642 E0.01251
G1 X118.197 Y141.976 E0.01302
G1 X118.376 Y142.361 E0.01331
G1 X118.474 Y142.775 E0.01333
G1 X118.486 Y143.196 E0.01322
G1 X118.416 Y143.602 E0.01292
G1 X118.273 Y143.976 E0.01255
G1 X118.073 Y144.299 E0.01192
G1 X117.805 Y144.595 E0.01251
G1 X117.471 Y144.842 E0.01302
G1 X117.087 Y145.021 E0.01331
G1 X116.673 Y145.119 E0.01333
G1 X116.252 Y145.131 E0.01321
G1 X115.846 Y145.061 E0.01292
G1 X115.472 Y144.918 E0.01255
G1 X115.148 Y144.719 E0.01192
G1 X114.853 Y144.450 E0.01251
G1 X114.606 Y144.117 E0.01302
G1 X114.427 Y143.732 E0.01331
G1 X114.329 Y143.318 E0.01333
G1 X114.317 Y142.897 E0.01322
G1 X114.386 Y142.491 E0.01292
G1 X114.530 Y142.117 E0.01255
G1 X114.729 Y141.793 E0.01192
G1 X114.997 Y141.498 E0.01251
G1 X115.331 Y141.251 E0.01302
G1 X115.716 Y141.072 E0.01331
G1 X116.129 Y140.974 E0.01333
G1 X116.521 Y140.963 E0.01228
G1 X116.873 Y141.018 E0.01117
G1 X116.855 Y141.396 F7200.000
G1 F840
G1 X117.163 Y141.514 E0.01034
G1 X117.427 Y141.677 E0.00971
G1 X117.668 Y141.897 E0.01025
G1 X117.871 Y142.170 E0.01067
G1 X118.018 Y142.485 E0.01090
G1 X118.098 Y142.824 E0.01092
G1 X118.108 Y143.169 E0.01083
G1 X118.051 Y143.502 E0.01058
G1 X117.933 Y143.808 E0.01029
G1 X117.771 Y144.072 E0.00971
G1 X117.551 Y144.313 E0.01025
G1 X117.278 Y144.516 E0.01067
G1 X116.962 Y144.663 E0.01090
G1 X116.623 Y144.743 E0.01092
G1 X116.278 Y144.753 E0.01083
G1 X115.946 Y144.696 E0.01058
G1 X115.640 Y144.578 E0.01029
G1 X115.376 Y144.416 E0.00971
G1 X115.134 Y144.196 E0.01025
G1 X114.932 Y143.923 E0.01067
G1 X114.785 Y143.608 E0.01090
G1 X114.705 Y143.269 E0.01092
G1 X114.695 Y142.924 E0.01083
G1 X114.752 Y142.591 E0.01058
G1 X114.869 Y142.285 E0.01029
G1 X115.032 Y142.021 E0.00971
G1 X115.251 Y141.779 E0.01025
G1 X115.525 Y141.577 E0.01067
G1 X115.840 Y141.430 E0.01090
G1 X116.179 Y141.350 E0.01092
G1 X116.497 Y141.341 E0.00999
G1 X116.796 Y141.387 E0.00947
G1 X117.089 Y141.164 F7200.000
G1 F5760
G1 X117.163 Y141.514 E-0.30763
G1 F5760
G1 X117.427 Y141.677 E-0.24523
G1 F5760
G1 X117.668 Y141.897 E-0.25869
G1 F5760
G1 X117.871 Y142.170 E-0.26941
G1 F5760
G1 X118.018 Y142.485 E-0.27525
G1 F5760
G1 X118.098 Y142.824 E-0.27564
G1 F5760
G1 X118.108 Y143.169 E-0.27333
G1 F5760
G1 X118.051 Y143.502 E-0.26704
G1 F5760
G1 X117.933 Y143.808 E-0.25971
G1 F5760
G1 X117.771 Y144.072 E-0.24522
G1 F5760
G1 X117.551 Y144.313 E-0.25870
G1 F5760
G1 X117.278 Y144.516 E-0.26941
G1 F5760
G1 X116.962 Y144.663 E-0.27527
G1 F5760
G1 X116.623 Y144.743 E-0.27564
G1 F5760
G1 X116.568 Y144.745 E-0.04383
G1 E-0.20000 F4800.00000
G1 Z0.700 F7200.000
G1 X129.280 Y134.310 F7200.000
G1 Z0.200 F7200.000
G1 E4.00000 F4800.00000
G1 F840
G1 X129.069 Y133.856 E0.01571
G1 X128.953 Y133.368 E0.01574
G1 X128.938 Y132.870 E0.01561
G1 X129.021 Y132.390 E0.01526
G1 X129.190 Y131.949 E0.01481
G1 X129.426 Y131.566 E0.01413
G1 X129.743 Y131.217 E0.01477
G1 X130.137 Y130.925 E0.01538
G1 X130.591 Y130.714 E0.01571
G1 X131.080 Y130.598 E0.01574
G1 X131.545 Y130.585 E0.01458
G1 X132.050 Y130.664 E0.01603
G1 X132.498 Y130.835 E0.01504
G1 X132.882 Y131.071 E0.01413
G1 X133.230 Y131.388 E0.01477
G1 X133.522 Y131.782 E0.01538
G1 X133.734 Y132.237 E0.01571
G1 X133.849 Y132.725 E0.01574
G1 X133.864 Y133.223 E0.01561
G1 X133.781 Y133.702 E0.01526
G1 X133.612 Y134.143 E0.01481
G1 X133.376 Y134.527 E0.01413
G1 X133.059 Y134.876 E0.01477
G1 X132.665 Y135.167 E0.01538
G1 X132.211 Y135.379 E0.01571
G1 X131.722 Y135.495 E0.01574
G1 X131.225 Y135.509 E0.01560
G1 X130.745 Y135.426 E0.01526
G1 X130.304 Y135.258 E0.01481
G1 X129.921 Y135.021 E0.01413
G1 X129.572 Y134.704 E0.01477
G1 X129.316 Y134.359 E0.01350
G1 X129.619 Y134.134 F7200.000
G1 F840
G1 X129.427 Y133.732 E0.01398
G1 X129.329 Y133.318 E0.01333
G1 X129.317 Y132.897 E0.01322
G1 X129.386 Y132.491 E0.01292
G1 X129.530 Y132.117 E0.01255
G1 X129.729 Y131.793 E0.01192
G1 X129.997 Y131.498 E0.01251
G1 X130.331 Y131.251 E0.01302
G1 X130.716 Y131.072 E0.01331
G1 X131.129 Y130.974 E0.01333
G1 X131.521 Y130.963 E0.01228
G1 X131.952 Y131.030 E0.01369
G1 X132.330 Y131.175 E0.01269
G1 X132.654 Y131.374 E0.01192
G1 X132.949 Y131.642 E0.01251
G1 X133.197 Y131.976 E0.01302
G1 X133.376 Y132.361 E0.01331
G1 X133.474 Y132.775 E0.01333
G1 X133.486 Y133.196 E0.01322
G1 X133.416 Y133.602 E0.01292
G1 X133.273 Y133.976 E0.01255
G1 X133.073 Y134.299 E0.01192
G1 X132.805 Y134.595 E0.01251
G1 X132.471 Y134.842 E0.01302
G1 X132.087 Y135.021 E0.01331
G1 X131.673 Y135.119 E0.01333
G1 X131.252 Y135.131 E0.01321
G1 X130.846 Y135.061 E0.01292
G1 X130.472 Y134.918 E0.01255
G1 X130.148 Y134.719 E0.01192
G1 X129.853 Y134.450 E0.01251
G1 X129.655 Y134.182 E0.01046
G1 X129.932 Y133.923 F7200.000
G1 F840
G1 X129.785 Y133.608 E0.01090
G1 X129.705 Y133.269 E0.01092
G1 X129.695 Y132.924 E0.01083
G1 X129.752 Y132.591 E0.01058
G1 X129.869 Y132.285 E0.01029
G1 X130.032 Y132.021 E0.00971
G1 X130.251 Y131.779 E0.01025
G1 X130.525 Y131.577 E0.01067
G1 X130.840 Y131.430 E0.01090
G1 X131.179 Y131.350 E0.01092
G1 X131.497 Y131.341 E0.00999
G1 X131.855 Y131.396 E0.01135
G1 X132.163 Y131.514 E0.01034
G1 X132.427 Y131.677 E0.00971
G1 X132.668 Y131.897 E0.01025
G1 X132.871 Y132.170 E0.01067
G1 X133.018 Y132.485 E0.01090
G1 X133.098 Y132.824 E0.01092
G1 X133.108 Y133.169 E0.01083
G1 X133.051 Y133.502 E0.01058
G1 X132.933 Y133.808 E0.01029
G1 X132.771 Y134.072 E0.00971
G1 X132.551 Y134.313 E0.01025
G1 X132.278 Y134.516 E0.01067
G1 X131.962 Y134.663 E0.01090
G1 X131.624 Y134.743 E0.01092
G1 X131.278 Y134.753 E0.01083
G1 X130.946 Y134.696 E0.01058
G1 X130.640 Y134.578 E0.01029
G1 X130.376 Y134.416 E0.00971
G1 X130.134 Y134.196 E0.01025
G1 X129.967 Y133.971 E0.00879
G1 X129.584 Y133.927 F7200.000
G1 F5760
G1 X129.785 Y133.608 E-0.32193
G1 F5760
G1 X129.705 Y133.269 E-0.27564
G1 F5760
G1 X129.695 Y132.924 E-0.27333
G1 F5760
G1 X129.752 Y132.591 E-0.26703
G1 F5760
G1 X129.869 Y132.285 E-0.25971
G1 F5760
G1 X130.032 Y132.021 E-0.24523
G1 F5760
G1 X130.251 Y131.779 E-0.25869
G1 F5760
G1 X130.525 Y131.577 E-0.26941
G1 F5760
G1 X130.840 Y131.430 E-0.27526
G1 F5760
G1 X131.179 Y131.350 E-0.27565
G1 F5760
G1 X131.497 Y131.341 E-0.25216
G1 F5760
G1 X131.855 Y131.396 E-0.28652
G1 F5760
G1 X132.163 Y131.514 E-0.26101
G1 F5760
G1 X132.427 Y131.677 E-0.24523
G1 F5760
G1 X132.458 Y131.705 E-0.03318
G1 E-0.20000 F4800.00000
G1 Z0.700 F7200.000
G1 X116.722 Y69.495 F7200.000
G1 Z0.200 F7200.000
G1 E4.00000 F4800.00000
G1 F840
G1 X116.225 Y69.509 E0.01560
G1 X115.745 Y69.426 E0.01526
G1 X115.304 Y69.258 E0.01481
G1 X114.921 Y69.021 E0.01413
G1 X114.572 Y68.704 E0.01477
G1 X114.280 Y68.310 E0.01538
G1 X114.069 Y67.856 E0.01571
G1 X113.953 Y67.368 E0.01574
G1 X113.938 Y66.870 E0.01561
G1 X114.021 Y66.390 E0.01526
G1 X114.190 Y65.949 E0.01481
G1 X114.426 Y65.566 E0.01413
G1 X114.743 Y65.217 E0.01477
G1 X115.137 Y64.925 E0.01538
G1 X115.591 Y64.714 E0.01571
G1 X116.080 Y64.598 E0.01574
G1 X116.545 Y64.585 E0.01458
G1 X117.050 Y64.664 E0.01603
G1 X117.498 Y64.835 E0.01504
G1 X117.882 Y65.071 E0.01413
G1 X118.230 Y65.388 E0.01477
G1 X118.522 Y65.782 E0.01538
G1 X118.734 Y66.237 E0.01571
G1 X118.849 Y66.725 E0.01574
G1 X118.864 Y67.223 E0.01561
G1 X118.781 Y67.702 E0.01526
G1 X118.612 Y68.143 E0.01481
G1 X118.376 Y68.527 E0.01413
G1 X118.059 Y68.876 E0.01477
G1 X117.665 Y69.167 E0.01538
G1 X117.211 Y69.379 E0.01571
G1 X116.781 Y69.481 E0.01386
G1 X116.694 Y69.114 F7200.000
G1 F840
G1 X116.252 Y69.131 E0.01388
G1 X115.846 Y69.061 E0.01292
G1 X115.472 Y68.918 E0.01255
G1 X115.148 Y68.719 E0.01192
G1 X114.853 Y68.450 E0.01251
G1 X114.606 Y68.117 E0.01302
G1 X114.427 Y67.732 E0.01331
G1 X114.329 Y67.318 E0.01333
G1 X114.317 Y66.897 E0.01322
G1 X114.386 Y66.491 E0.01292
G1 X114.530 Y66.117 E0.01255
G1 X114.729 Y65.793 E0.01192
G1 X114.997 Y65.498 E0.01251
G1 X115.331 Y65.251 E0.01302
G1 X115.716 Y65.072 E0.01331
G1 X116.129 Y64.974 E0.01333
G1 X116.521 Y64.963 E0.01228
G1 X116.952 Y65.030 E0.01369
G1 X117.330 Y65.175 E0.01269
G1 X117.654 Y65.374 E0.01192
G1 X117.949 Y65.642 E0.01251
G1 X118.197 Y65.976 E0.01302
G1 X118.376 Y66.361 E0.01331
G1 X118.474 Y66.775 E0.01333
G1 X118.486 Y67.196 E0.01322
G1 X118.416 Y67.602 E0.01292
G1 X118.273 Y67.976 E0.01255
G1 X118.073 Y68.299 E0.01192
G1 X117.805 Y68.594 E0.01251
G1 X117.471 Y68.842 E0.01302
G1 X117.087 Y69.021 E0.01331
G1 X116.752 Y69.100 E0.01077
G1 X116.623 Y68.743 F7200.000
G1 F840
G1 X116.278 Y68.753 E0.01083
G1 X115.946 Y68.696 E0.01058
G1 X115.640 Y68.578 E0.01029
G1 X115.376 Y68.416 E0.00971
G1 X115.134 Y68.196 E0.01025
G1 X114.932 Y67.923 E0.01067
G1 X114.785 Y67.608 E0.01090
G1 X114.705 Y67.269 E0.01092
G1 X114.695 Y66.924 E0.01083
G1 X114.752 Y66.591 E0.01058
G1 X114.869 Y66.285 E0.01029
G1 X115.032 Y66.021 E0.00971
G1 X115.251 Y65.779 E0.01025
G1 X115.525 Y65.577 E0.01067
G1 X115.840 Y65.430 E0.01090
G1 X116.179 Y65.350 E0.01092
G1 X116.497 Y65.341 E0.00999
G1 X116.855 Y65.396 E0.01135
G1 X117.163 Y65.514 E0.01034
G1 X117.427 Y65.677 E0.00971
G1 X117.668 Y65.897 E0.01025
G1 X117.871 Y66.170 E0.01067
G1 X118.018 Y66.485 E0.01090
G1 X118.098 Y66.824 E0.01092
G1 X118.108 Y67.169 E0.01083
G1 X118.051 Y67.502 E0.01058
G1 X117.933 Y67.808 E0.01029
G1 X117.771 Y68.072 E0.00971
G1 X117.551 Y68.313 E0.01025
G1 X117.278 Y68.516 E0.01067
G1 X116.962 Y68.663 E0.01090
G1 X116.682 Y68.729 E0.00904
G1 X116.491 Y69.062 F7200.000
G1 F5760
G1 X116.278 Y68.753 E-0.31999
G1 F5760
G1 X115.946 Y68.696 E-0.26703
G1 F5760
G1 X115.640 Y68.578 E-0.25971
G1 F5760
G1 X115.376 Y68.416 E-0.24523
G1 F5760
G1 X115.134 Y68.196 E-0.25869
G1 F5760
G1 X114.932 Y67.923 E-0.26941
G1 F5760
G1 X114.785 Y67.608 E-0.27525
G1 F5760
G1 X114.705 Y67.269 E-0.27565
G1 F5760
G1 X114.695 Y66.924 E-0.27333
G1 F5760
G1 X114.752 Y66.591 E-0.26703
G1 F5760
G1 X114.869 Y66.285 E-0.25972
G1 F5760
G1 X115.032 Y66.021 E-0.24523
G1 F5760
G1 X115.251 Y65.779 E-0.25869
G1 F5760
G1 X115.525 Y65.577 E-0.26941
G1 F5760
G1 X115.589 Y65.547 E-0.05564
G1 E-0.20000 F4800.00000
G1 Z0.700 F7200.000
G1 X140.044 Y130.542 F7200.000
G1 Z0.200 F7200.000
G1 E4.00000 F4800.00000
G1 F1680
G1 X140.044 Y79.458 E1.60168
G1 X131.875 Y79.458 E0.25612
G1 X132.211 Y79.379 E0.01081
G1 X132.665 Y79.167 E0.01571
G1 X133.059 Y78.876 E0.01538
G1 X133.376 Y78.527 E0.01477
