;FLAVOR:RepRap
;TIME:2004
;Generated with Cura_SteamEngine 2.3.1
G21 ; set units to millimeters
G90 ; use absolute positioning
M82 ; absolute extrusion mode
G28 W ; home all without mesh bed level
G80 ; mesh bed leveling
M104 S200 ; set extruder temp
M140 S50 ; set bed temp
M190 S50 ; wait for bed temp
M109 S200 ; wait for extruder temp
G92 E0.0 ; reset extruder distance position
G1 Y-3.0 F1000.0 ; go outside print area
G1 X60.0 E9.0 F1000.0 ; intro line
G1 X100.0 E21.5 F1000.0 ; intro line
G92 E0.0 ; reset extruder distance position
;LAYER_COUNT:165
;LAYER:0
M107
G1 F2100 E-0.8
G0 F3600 X114.191 Y95.353 Z.15
;TYPE:SKIRT
G1 F2100 E0
G1 F1800 X114.467 Y95.052 E0.01019
G1 X115.206 Y94.324 E0.03606
G1 X115.498 Y94.064 E0.04582
G1 X116.293 Y93.421 E0.07132
G1 X116.768 Y93.09 E0.08577
G1 X118.497 Y92.065 E0.1359
G1 X119.021 Y91.805 E0.1505
G1 X120.017 Y91.397 E0.17735
G1 X120.509 Y91.231 E0.1903
G1 X122.118 Y90.805 E0.23182
G1 X122.652 Y90.702 E0.24538
G1 X123.729 Y90.569 E0.27245
G1 X124.211 Y90.539 E0.2845
G1 X125.755 Y90.536 E0.32302
G1 X126.273 Y90.569 E0.33596
G1 X127.4 Y90.714 E0.36431
G1 X127.98 Y90.832 E0.37907
G1 X129.911 Y91.379 E0.42914
G1 X130.629 Y91.66 E0.44837
G1 X132.425 Y92.57 E0.4986
G1 X133.049 Y92.962 E0.51698
G1 X134.522 Y94.09 E0.56326
G1 X134.937 Y94.457 E0.57708
G1 X135.673 Y95.203 E0.60322
G1 X136.055 Y95.651 E0.61791
G1 X137.265 Y97.306 E0.66905
G1 X137.625 Y97.901 E0.68639
G1 X138.325 Y99.324 E0.72595
G1 X138.579 Y99.981 E0.74352
G1 X139.168 Y102.023 E0.79654
G1 X139.293 Y102.627 E0.81193
G1 X139.428 Y103.688 E0.83861
G1 X139.46 Y104.18 E0.8509
G1 X139.465 Y105.727 E0.88949
G1 X139.434 Y106.234 E0.90217
G1 X139.296 Y107.343 E0.93004
G1 X139.203 Y107.837 E0.94258
G1 X138.82 Y109.339 E0.98125
G1 X138.634 Y109.895 E0.99587
G1 X138.063 Y111.26 E1.03278
G1 X137.804 Y111.772 E1.0471
G1 X137.009 Y113.099 E1.08568
G1 X136.685 Y113.562 E1.09978
G1 X135.806 Y114.646 E1.13459
G1 X135.359 Y115.114 E1.15074
G1 X133.851 Y116.457 E1.20111
G1 X133.395 Y116.808 E1.21546
G1 X132.538 Y117.374 E1.24108
G1 X132.099 Y117.626 E1.25371
G1 X130.675 Y118.326 E1.29329
G1 X130.122 Y118.548 E1.30816
G1 X128.669 Y119.01 E1.34619
G1 X128.201 Y119.128 E1.35823
G1 X127.139 Y119.329 E1.38519
G1 X126.705 Y119.387 E1.39611
G1 X125.561 Y119.476 E1.42474
G1 X125.13 Y119.486 E1.43549
G1 X124.008 Y119.452 E1.46349
G1 X123.516 Y119.407 E1.47582
G1 X122.032 Y119.177 E1.51328
G1 X121.562 Y119.075 E1.52528
G1 X120.566 Y118.795 E1.55108
G1 X120.103 Y118.633 E1.56332
G1 X118.728 Y118.057 E1.60051
G1 X118.216 Y117.798 E1.61482
G1 X116.898 Y117.007 E1.65316
G1 X116.434 Y116.682 E1.6673
G1 X115.337 Y115.791 E1.70255
G1 X114.869 Y115.344 E1.71869
G1 X113.54 Y113.849 E1.76859
G1 X113.134 Y113.305 E1.78552
G1 X112.308 Y111.978 E1.82452
G1 X112.028 Y111.441 E1.83962
G1 X111.398 Y109.972 E1.87949
G1 X111.205 Y109.409 E1.89434
G1 X110.812 Y107.909 E1.93302
G1 X110.714 Y107.406 E1.94581
G1 X110.571 Y106.296 E1.97372
G1 X110.538 Y105.79 E1.98637
G1 X110.536 Y104.243 E2.02496
G1 X110.58 Y103.645 E2.03992
G1 X110.817 Y102.064 E2.0798
G1 X110.926 Y101.56 E2.09266
G1 X111.224 Y100.515 E2.11977
G1 X111.384 Y100.061 E2.13178
G1 X111.955 Y98.704 E2.1685
G1 X112.248 Y98.138 E2.1844
G1 X113.211 Y96.594 E2.22979
G1 X113.522 Y96.162 E2.24307
G1 X114.191 Y95.353 E2.26926
G0 F3600 X114.5 Y95.608
G1 F1800 X114.748 Y95.337 E2.27842
G1 X115.487 Y94.609 E2.3043
G1 X115.749 Y94.375 E2.31306
G1 X116.544 Y93.732 E2.33857
G1 X116.972 Y93.434 E2.35158
G1 X118.701 Y92.409 E2.40172
G1 X119.172 Y92.175 E2.41484
G1 X120.168 Y91.767 E2.44168
G1 X120.612 Y91.618 E2.45337
G1 X122.221 Y91.192 E2.49489
G1 X122.701 Y91.099 E2.50708
G1 X123.778 Y90.966 E2.53415
G1 X124.212 Y90.939 E2.545
G1 X125.756 Y90.936 E2.58352
G1 X126.222 Y90.965 E2.59516
G1 X127.349 Y91.11 E2.62351
G1 X127.871 Y91.217 E2.6368
G1 X129.802 Y91.764 E2.68686
G1 X130.448 Y92.017 E2.70417
G1 X132.244 Y92.927 E2.75439
G1 X132.806 Y93.28 E2.77095
G1 X134.279 Y94.408 E2.81723
G1 X134.653 Y94.738 E2.82967
G1 X135.389 Y95.484 E2.85581
G1 X135.732 Y95.887 E2.86901
G1 X136.942 Y97.542 E2.92016
G1 X137.266 Y98.078 E2.93578
G1 X137.966 Y99.501 E2.97534
G1 X138.195 Y100.092 E2.99115
G1 X138.784 Y102.134 E3.04416
G1 X138.896 Y102.678 E3.05802
G1 X139.031 Y103.739 E3.0847
G1 X139.06 Y104.181 E3.09575
G1 X139.065 Y105.728 E3.13434
G1 X139.037 Y106.185 E3.14576
G1 X138.899 Y107.294 E3.17364
G1 X138.815 Y107.739 E3.18493
G1 X138.432 Y109.241 E3.2236
G1 X138.265 Y109.74 E3.23673
G1 X137.694 Y111.105 E3.27363
G1 X137.461 Y111.566 E3.28652
G1 X136.666 Y112.893 E3.32511
G1 X136.374 Y113.31 E3.33781
G1 X135.495 Y114.394 E3.37262
G1 X135.093 Y114.815 E3.38714
G1 X133.585 Y116.158 E3.43751
G1 X133.175 Y116.474 E3.45043
G1 X132.318 Y117.04 E3.47605
G1 X131.922 Y117.267 E3.48743
G1 X130.498 Y117.967 E3.52701
G1 X130.001 Y118.167 E3.54038
G1 X128.548 Y118.629 E3.57841
G1 X128.126 Y118.735 E3.58926
G1 X127.064 Y118.936 E3.61623
G1 X126.674 Y118.988 E3.62604
G1 X125.53 Y119.077 E3.65466
G1 X125.142 Y119.086 E3.66435
G1 X124.02 Y119.052 E3.69235
G1 X123.578 Y119.012 E3.70342
G1 X122.094 Y118.782 E3.74088
G1 X121.671 Y118.69 E3.75168
G1 X120.675 Y118.41 E3.77749
G1 X120.258 Y118.264 E3.78851
G1 X118.883 Y117.688 E3.82569
G1 X118.421 Y117.455 E3.8386
G1 X117.103 Y116.664 E3.87695
G1 X116.686 Y116.371 E3.88966
G1 X115.589 Y115.48 E3.92491
G1 X115.168 Y115.078 E3.93943
G1 X113.839 Y113.583 E3.98933
G1 X113.474 Y113.093 E4.00457
G1 X112.648 Y111.766 E4.04356
G1 X112.395 Y111.283 E4.05716
G1 X111.765 Y109.814 E4.09704
G1 X111.592 Y109.307 E4.1104
G1 X111.199 Y107.807 E4.14908
G1 X111.111 Y107.355 E4.16057
G1 X110.968 Y106.245 E4.18849
G1 X110.938 Y105.79 E4.19986
G1 X110.936 Y104.243 E4.23845
G1 X110.976 Y103.704 E4.25193
G1 X111.213 Y102.123 E4.29181
G1 X111.311 Y101.67 E4.30337
G1 X111.609 Y100.625 E4.33048
G1 X111.753 Y100.216 E4.3413
G1 X112.324 Y98.859 E4.37802
G1 X112.587 Y98.35 E4.39231
G1 X113.55 Y96.806 E4.43771
G1 X113.831 Y96.417 E4.44968
G1 X114.5 Y95.608 E4.47586
G0 F3600 X114.808 Y95.863
G1 F1800 X115.028 Y95.622 E4.484
G1 X115.767 Y94.894 E4.50988
G1 X116.001 Y94.686 E4.51769
G1 X116.796 Y94.043 E4.5432
G1 X117.176 Y93.778 E4.55475
G1 X118.905 Y92.753 E4.60489
G1 X119.324 Y92.545 E4.61656
G1 X120.32 Y92.137 E4.64341
G1 X120.714 Y92.005 E4.65378
G1 X122.323 Y91.579 E4.6953
G1 X122.75 Y91.496 E4.70615
G1 X123.827 Y91.363 E4.73322
G1 X124.213 Y91.339 E4.74286
G1 X125.757 Y91.336 E4.78138
G1 X126.171 Y91.362 E4.79173
G1 X127.298 Y91.507 E4.82007
G1 X127.762 Y91.602 E4.83189
G1 X129.693 Y92.149 E4.88195
G1 X130.267 Y92.374 E4.89733
G1 X132.063 Y93.284 E4.94755
G1 X132.563 Y93.597 E4.96227
G1 X134.036 Y94.725 E5.00855
G1 X134.368 Y95.019 E5.01961
G1 X135.104 Y95.765 E5.04575
G1 X135.409 Y96.123 E5.05748
G1 X136.619 Y97.778 E5.10863
G1 X136.907 Y98.255 E5.12252
G1 X137.607 Y99.678 E5.16208
G1 X137.811 Y100.203 E5.17613
G1 X138.4 Y102.245 E5.22915
G1 X138.499 Y102.728 E5.24145
G1 X138.634 Y103.789 E5.26813
G1 X138.66 Y104.183 E5.27798
G1 X138.665 Y105.73 E5.31657
G1 X138.641 Y106.135 E5.32669
G1 X138.503 Y107.244 E5.35457
G1 X138.428 Y107.64 E5.36462
G1 X138.045 Y109.142 E5.40329
G1 X137.896 Y109.586 E5.41497
G1 X137.325 Y110.951 E5.45188
G1 X137.118 Y111.361 E5.46334
G1 X136.323 Y112.688 E5.50192
G1 X136.064 Y113.058 E5.51319
G1 X135.185 Y114.142 E5.548
G1 X134.827 Y114.517 E5.56094
G1 X133.319 Y115.86 E5.61131
G1 X132.955 Y116.14 E5.62276
G1 X132.098 Y116.706 E5.64838
G1 X131.746 Y116.908 E5.65851
G1 X130.322 Y117.608 E5.69809
G1 X129.88 Y117.786 E5.70997
G1 X128.427 Y118.248 E5.74801
G1 X128.052 Y118.342 E5.75765
G1 X126.99 Y118.543 E5.78461
G1 X126.643 Y118.589 E5.79335
G1 X125.499 Y118.678 E5.82197
G1 X125.154 Y118.687 E5.83058
G1 X124.032 Y118.653 E5.85858
G1 X123.639 Y118.616 E5.86843
G1 X122.155 Y118.386 E5.90589
G1 X121.779 Y118.305 E5.91548
G1 X120.783 Y118.025 E5.94129
G1 X120.413 Y117.895 E5.95107
G1 X119.038 Y117.319 E5.98826
G1 X118.627 Y117.112 E5.99974
G1 X117.309 Y116.321 E6.03808
G1 X116.939 Y116.061 E6.04936
G1 X115.842 Y115.17 E6.08462
G1 X115.467 Y114.812 E6.09755
G1 X114.138 Y113.317 E6.14745
G1 X113.813 Y112.882 E6.16099
G1 X112.987 Y111.555 E6.19998
G1 X112.763 Y111.125 E6.21208
G1 X112.133 Y109.656 E6.25195
G1 X111.978 Y109.206 E6.26382
G1 X111.585 Y107.706 E6.3025
G1 X111.507 Y107.304 E6.31272
G1 X111.364 Y106.194 E6.34064
G1 X111.338 Y105.789 E6.35076
G1 X111.336 Y104.242 E6.38935
G1 X111.371 Y103.764 E6.40131
G1 X111.608 Y102.183 E6.44119
G1 X111.696 Y101.779 E6.4515
G1 X111.994 Y100.734 E6.47861
G1 X112.121 Y100.371 E6.4882
G1 X112.692 Y99.014 E6.52493
G1 X112.927 Y98.562 E6.53763
G1 X113.89 Y97.018 E6.58303
G1 X114.139 Y96.672 E6.59366
G1 X114.808 Y95.863 E6.61985
G1 F2100 E5.81985
G0 F3600 X116.711 Y97.523
G0 X117.661 Y98.415
G0 X117.706 Y98.455
G0 X117.632 Y98.389
;TYPE:WALL-INNER
G1 F2100 E6.61985
G1 F1800 X117.95 Y98.051 E6.63142
G1 X118.307 Y97.707 E6.64379
G1 X118.652 Y97.404 E6.65524
G1 X119.031 Y97.103 E6.66732
G1 X119.413 Y96.828 E6.67906
G1 X119.857 Y96.541 E6.69225
G1 X120.254 Y96.312 E6.70368
G1 X120.695 Y96.086 E6.71604
G1 X121.177 Y95.87 E6.72922
G1 X121.629 Y95.693 E6.74132
G1 X122.124 Y95.529 E6.75433
G1 X122.595 Y95.398 E6.76653
G1 X123.097 Y95.285 E6.77936
G1 X123.572 Y95.204 E6.79138
G1 X124.105 Y95.143 E6.80477
G1 X124.602 Y95.11 E6.81719
G1 X125.085 Y95.101 E6.82924
G1 X125.611 Y95.12 E6.84237
G1 X126.102 Y95.162 E6.85466
G1 X126.599 Y95.231 E6.86718
G1 X127.101 Y95.327 E6.87993
G1 X127.567 Y95.44 E6.89189
G1 X128.014 Y95.571 E6.90351
G1 X128.483 Y95.734 E6.9159
G1 X128.941 Y95.92 E6.92823
G1 X129.366 Y96.115 E6.93989
G1 X129.761 Y96.321 E6.951
G1 X130.18 Y96.564 E6.96309
G1 X130.587 Y96.828 E6.97519
G1 X130.949 Y97.088 E6.98631
G1 X131.252 Y97.326 E6.99592
G1 X131.611 Y97.632 E7.00768
G1 X131.949 Y97.95 E7.01926
G1 X132.293 Y98.307 E7.03163
G1 X132.596 Y98.652 E7.04308
G1 X132.897 Y99.031 E7.05516
G1 X133.167 Y99.406 E7.06668
G1 X133.459 Y99.857 E7.08008
G1 X133.685 Y100.248 E7.09135
G1 X133.914 Y100.695 E7.10388
G1 X134.13 Y101.177 E7.11705
G1 X134.309 Y101.635 E7.12932
G1 X134.471 Y102.124 E7.14217
G1 X134.602 Y102.595 E7.15437
G1 X134.716 Y103.101 E7.1673
G1 X134.795 Y103.563 E7.179
G1 X134.855 Y104.065 E7.19161
G1 X134.89 Y104.596 E7.20488
G1 X134.898 Y105.106 E7.21761
G1 X134.88 Y105.625 E7.23056
G1 X134.841 Y106.079 E7.24193
G1 X134.77 Y106.598 E7.25499
G1 X134.683 Y107.059 E7.2667
G1 X134.56 Y107.567 E7.27974
G1 X134.432 Y108.006 E7.29114
G1 X134.266 Y108.484 E7.30376
G1 X134.096 Y108.905 E7.31509
G1 X133.885 Y109.366 E7.32774
G1 X133.681 Y109.756 E7.33872
G1 X133.436 Y110.179 E7.35091
G1 X133.172 Y110.587 E7.36303
G1 X132.912 Y110.949 E7.37415
G1 X132.674 Y111.252 E7.38376
G1 X132.377 Y111.602 E7.39521
G1 X132.029 Y111.969 E7.40783
G1 X131.693 Y112.293 E7.41947
G1 X131.348 Y112.596 E7.43093
G1 X130.969 Y112.897 E7.443
G1 X130.587 Y113.172 E7.45474
G1 X130.146 Y113.457 E7.46784
G1 X129.746 Y113.688 E7.47936
G1 X129.305 Y113.914 E7.49172
G1 X128.823 Y114.13 E7.5049
G1 X128.371 Y114.307 E7.51701
G1 X127.876 Y114.471 E7.53001
G1 X127.405 Y114.602 E7.54221
G1 X126.903 Y114.715 E7.55505
G1 X126.429 Y114.796 E7.56704
G1 X125.923 Y114.856 E7.57975
G1 X125.398 Y114.89 E7.59288
G1 X124.915 Y114.899 E7.60493
G1 X124.375 Y114.88 E7.6184
G1 X123.878 Y114.835 E7.63085
G1 X123.397 Y114.769 E7.64296
G1 X122.935 Y114.682 E7.65469
G1 X122.433 Y114.56 E7.66758
G1 X121.991 Y114.431 E7.67906
G1 X121.503 Y114.261 E7.69195
G1 X121.093 Y114.095 E7.70299
G1 X120.634 Y113.885 E7.71558
G1 X120.239 Y113.679 E7.72669
G1 X119.82 Y113.436 E7.73877
G1 X119.406 Y113.167 E7.75109
G1 X119.037 Y112.902 E7.76242
G1 X118.742 Y112.67 E7.77179
G1 X118.394 Y112.373 E7.7832
G1 X118.031 Y112.029 E7.79567
G1 X117.707 Y111.693 E7.80732
G1 X117.404 Y111.348 E7.81877
G1 X117.103 Y110.969 E7.83084
G1 X116.828 Y110.587 E7.84258
G1 X116.541 Y110.143 E7.85577
G1 X116.311 Y109.744 E7.86726
G1 X116.065 Y109.26 E7.8808
G1 X115.87 Y108.823 E7.89274
G1 X115.691 Y108.365 E7.90501
G1 X115.526 Y107.867 E7.91809
G1 X115.399 Y107.411 E7.9299
G1 X115.282 Y106.89 E7.94322
G1 X115.202 Y106.414 E7.95526
G1 X115.143 Y105.905 E7.96805
G1 X115.11 Y105.4 E7.98067
G1 X115.101 Y104.911 E7.99287
G1 X115.12 Y104.377 E8.0062
G1 X115.161 Y103.908 E8.01794
G1 X115.229 Y103.405 E8.0306
G1 X115.317 Y102.941 E8.04239
G1 X115.436 Y102.449 E8.05501
G1 X115.584 Y101.949 E8.06802
G1 X115.734 Y101.516 E8.07945
G1 X115.904 Y101.095 E8.09078
G1 X116.118 Y100.628 E8.10359
G1 X116.321 Y100.239 E8.11454
G1 X116.564 Y99.82 E8.12662
G1 X116.828 Y99.413 E8.13872
G1 X117.088 Y99.051 E8.14984
G1 X117.326 Y98.748 E8.15945
G1 X117.632 Y98.389 E8.17122
G0 F3600 X117.327 Y98.13
;TYPE:WALL-OUTER
G1 F1800 X117.672 Y97.763 E8.18378
G1 X118.037 Y97.411 E8.19643
G1 X118.388 Y97.103 E8.20808
G1 X118.798 Y96.778 E8.22113
G1 X119.189 Y96.497 E8.23314
G1 X119.64 Y96.205 E8.24654
G1 X120.066 Y95.959 E8.25881
G1 X120.531 Y95.721 E8.27184
G1 X121.031 Y95.497 E8.28551
G1 X121.489 Y95.318 E8.29778
G1 X121.998 Y95.149 E8.31116
G1 X122.496 Y95.01 E8.32405
G1 X123.017 Y94.893 E8.33737
G1 X123.516 Y94.808 E8.35
G1 X124.073 Y94.744 E8.36399
G1 X124.59 Y94.71 E8.37691
G1 X125.092 Y94.701 E8.38944
G1 X125.639 Y94.72 E8.40309
G1 X126.136 Y94.763 E8.41553
G1 X126.67 Y94.837 E8.42898
G1 X127.188 Y94.936 E8.44214
G1 X127.666 Y95.052 E8.45441
G1 X128.137 Y95.19 E8.46665
G1 X128.634 Y95.363 E8.47978
G1 X129.099 Y95.552 E8.4923
G1 X129.539 Y95.754 E8.50438
G1 X129.946 Y95.966 E8.51582
G1 X130.381 Y96.218 E8.52836
G1 X130.82 Y96.503 E8.54142
G1 X131.196 Y96.773 E8.55297
G1 X131.499 Y97.011 E8.56258
G1 X131.87 Y97.327 E8.57473
G1 X132.237 Y97.672 E8.5873
G1 X132.589 Y98.037 E8.59995
G1 X132.897 Y98.388 E8.6116
G1 X133.222 Y98.798 E8.62465
G1 X133.503 Y99.189 E8.63666
G1 X133.795 Y99.64 E8.65006
G1 X134.041 Y100.066 E8.66233
G1 X134.279 Y100.531 E8.67536
G1 X134.503 Y101.031 E8.68903
G1 X134.682 Y101.489 E8.7013
G1 X134.851 Y101.998 E8.71468
G1 X134.99 Y102.496 E8.72757
G1 X135.106 Y103.013 E8.74079
G1 X135.192 Y103.516 E8.75352
G1 X135.254 Y104.039 E8.76666
G1 X135.29 Y104.59 E8.78043
G1 X135.298 Y105.12 E8.79365
G1 X135.28 Y105.639 E8.80661
G1 X135.237 Y106.133 E8.81898
G1 X135.163 Y106.672 E8.83255
G1 X135.072 Y107.153 E8.84476
G1 X134.948 Y107.666 E8.85793
G1 X134.81 Y108.137 E8.87017
G1 X134.637 Y108.634 E8.8833
G1 X134.46 Y109.072 E8.89508
G1 X134.246 Y109.539 E8.90789
G1 X134.034 Y109.946 E8.91934
G1 X133.782 Y110.381 E8.93188
G1 X133.497 Y110.82 E8.94494
G1 X133.227 Y111.196 E8.95649
G1 X132.989 Y111.499 E8.9661
G1 X132.667 Y111.877 E8.97848
G1 X132.307 Y112.257 E8.99154
G1 X131.963 Y112.589 E9.00347
G1 X131.612 Y112.897 E9.01512
G1 X131.202 Y113.222 E9.02817
G1 X130.811 Y113.503 E9.04018
G1 X130.36 Y113.795 E9.05358
G1 X129.934 Y114.041 E9.06585
G1 X129.469 Y114.279 E9.07888
G1 X128.969 Y114.503 E9.09255
G1 X128.511 Y114.682 E9.10482
G1 X128.002 Y114.851 E9.11819
G1 X127.504 Y114.99 E9.13109
G1 X126.983 Y115.107 E9.14441
G1 X126.484 Y115.192 E9.15704
G1 X125.958 Y115.254 E9.17025
G1 X125.41 Y115.29 E9.18395
G1 X124.908 Y115.299 E9.19647
G1 X124.361 Y115.28 E9.21013
G1 X123.832 Y115.232 E9.22338
G1 X123.328 Y115.163 E9.23607
G1 X122.845 Y115.072 E9.24833
G1 X122.334 Y114.948 E9.26144
G1 X121.862 Y114.81 E9.27371
G1 X121.366 Y114.637 E9.28682
G1 X120.928 Y114.46 E9.2986
G1 X120.461 Y114.246 E9.31141
G1 X120.054 Y114.034 E9.32286
G1 X119.619 Y113.782 E9.3354
G1 X119.18 Y113.497 E9.34846
G1 X118.804 Y113.227 E9.36
G1 X118.495 Y112.984 E9.36981
G1 X118.123 Y112.667 E9.382
G1 X117.743 Y112.307 E9.39506
G1 X117.411 Y111.963 E9.40699
G1 X117.103 Y111.612 E9.41863
G1 X116.778 Y111.202 E9.43169
G1 X116.497 Y110.811 E9.4437
G1 X116.205 Y110.36 E9.4571
G1 X115.954 Y109.925 E9.46963
G1 X115.708 Y109.441 E9.48317
G1 X115.497 Y108.969 E9.49607
G1 X115.318 Y108.511 E9.50833
G1 X115.146 Y107.993 E9.52195
G1 X115.01 Y107.504 E9.53461
G1 X114.892 Y106.978 E9.54806
G1 X114.806 Y106.47 E9.56091
G1 X114.744 Y105.937 E9.5743
G1 X114.71 Y105.412 E9.58742
G1 X114.701 Y104.897 E9.60027
G1 X114.72 Y104.363 E9.6136
G1 X114.765 Y103.854 E9.62634
G1 X114.836 Y103.33 E9.63953
G1 X114.928 Y102.847 E9.6518
