;FLAVOR:RepRap
;TIME:1524
;Generated with Cura_SteamEngine 2.3.1
M190 S60
M104 S200
M109 S200
G21 ;metric values
G90 ;absolute positioning
M82 ;set extruder to absolute mode
M107 ;start with the fan off
G28 ;Home all axes (max endstops)
G1 Z15.0 F9000 ;move the platform down 15mm
G92 E0 ;zero the extruded length
G1 F200 E3 ;extrude 3mm of feed stock
G92 E0 ;zero the extruded length again
G1 F9000
;Put printing message on LCD screen
M117 Printing...
;LAYER_COUNT:164
;LAYER:0
M107
G1 F1500 E-6.5
G0 F3600 X-5.197 Y6.066 Z.3
;TYPE:SKIRT
G1 F1500 E0
G1 F1800 X-4.78 Y6.489 E0.02963
G1 X-3.775 Y7.674 E0.10715
G1 X-3.432 Y8.144 E0.13618
G1 X-2.621 Y9.444 E0.21262
G1 X-2.355 Y9.948 E0.24106
G1 X-1.778 Y11.257 E0.31243
G1 X-1.576 Y11.829 E0.34269
G1 X-1.11 Y13.557 E0.43198
G1 X-1.005 Y14.089 E0.45903
G1 X-.878 Y15.078 E0.50878
G1 X-.846 Y15.49 E0.5294
G1 X-.817 Y16.69 E0.58928
G1 X-.838 Y17.203 E0.6149
G1 X-.997 Y18.722 E0.69109
G1 X-1.078 Y19.206 E0.71558
G1 X-1.307 Y20.198 E0.76637
G1 X-1.48 Y20.757 E0.79556
G1 X-2.227 Y22.664 E0.89774
G1 X-2.529 Y23.277 E0.93184
G1 X-3.332 Y24.603 E1.00918
G1 X-3.722 Y25.141 E1.04233
G1 X-4.971 Y26.592 E1.13784
G1 X-5.421 Y27.037 E1.16942
G1 X-6.52 Y27.966 E1.24121
G1 X-6.905 Y28.254 E1.2652
G1 X-7.783 Y28.831 E1.31761
G1 X-8.223 Y29.082 E1.34289
G1 X-9.661 Y29.785 E1.42274
G1 X-10.208 Y30.004 E1.45214
G1 X-11.648 Y30.461 E1.52751
G1 X-12.131 Y30.581 E1.55234
G1 X-13.218 Y30.782 E1.60749
G1 X-13.736 Y30.844 E1.63352
G1 X-15.357 Y30.929 E1.7145
G1 X-16.062 Y30.903 E1.7497
G1 X-18.127 Y30.645 E1.85352
G1 X-18.718 Y30.525 E1.88361
G1 X-19.752 Y30.233 E1.93721
G1 X-20.127 Y30.107 E1.95695
G1 X-21.072 Y29.736 E2.0076
G1 X-21.525 Y29.525 E2.03253
G1 X-22.884 Y28.784 E2.10976
G1 X-23.396 Y28.452 E2.1402
G1 X-24.743 Y27.424 E2.22474
G1 X-25.148 Y27.069 E2.25161
G1 X-25.975 Y26.24 E2.31003
G1 X-26.253 Y25.931 E2.33076
G1 X-26.88 Y25.156 E2.3805
G1 X-27.181 Y24.729 E2.40656
G1 X-28.058 Y23.297 E2.49034
G1 X-28.318 Y22.796 E2.5185
G1 X-28.854 Y21.557 E2.58585
G1 X-29.024 Y21.084 E2.61092
G1 X-29.373 Y19.882 E2.67337
G1 X-29.47 Y19.466 E2.69468
G1 X-29.646 Y18.475 E2.74489
G1 X-29.703 Y17.98 E2.76975
G1 X-29.784 Y16.396 E2.84888
G1 X-29.777 Y15.879 E2.87468
G1 X-29.688 Y14.744 E2.93148
G1 X-29.635 Y14.338 E2.9519
G1 X-29.452 Y13.336 E3.00272
G1 X-29.359 Y12.942 E3.02292
G1 X-29.059 Y11.906 E3.07673
G1 X-28.865 Y11.378 E3.10479
G1 X-28.082 Y9.638 E3.19998
G1 X-27.809 Y9.132 E3.22867
G1 X-27.225 Y8.214 E3.28295
G1 X-26.894 Y7.766 E3.31074
G1 X-25.709 Y6.376 E3.40187
G1 X-25.184 Y5.864 E3.43845
G1 X-23.608 Y4.586 E3.53968
G1 X-23.123 Y4.249 E3.56915
G1 X-22.219 Y3.715 E3.62153
G1 X-21.79 Y3.495 E3.64558
G1 X-20.418 Y2.894 E3.72031
G1 X-19.917 Y2.713 E3.74689
G1 X-18.702 Y2.364 E3.80995
G1 X-18.222 Y2.258 E3.83448
G1 X-16.893 Y2.048 E3.90161
G1 X-16.388 Y2.001 E3.92691
G1 X-15.078 Y1.962 E3.99229
G1 X-14.554 Y1.981 E4.01845
G1 X-13.119 Y2.127 E4.09042
G1 X-12.542 Y2.228 E4.11964
G1 X-10.943 Y2.633 E4.20193
G1 X-10.37 Y2.826 E4.2321
G1 X-8.993 Y3.407 E4.30666
G1 X-8.428 Y3.7 E4.33842
G1 X-6.854 Y4.684 E4.43103
G1 X-6.34 Y5.066 E4.46298
G1 X-5.197 Y6.066 E4.53874
G0 F3600 X-5.461 Y6.367
G1 F1800 X-5.085 Y6.747 E4.56541
G1 X-4.08 Y7.932 E4.64293
G1 X-3.772 Y8.356 E4.66908
G1 X-2.961 Y9.656 E4.74552
G1 X-2.721 Y10.109 E4.7711
G1 X-2.144 Y11.418 E4.84247
G1 X-1.962 Y11.933 E4.86972
G1 X-1.496 Y13.661 E4.95901
G1 X-1.401 Y14.139 E4.98332
G1 X-1.274 Y15.128 E5.03307
G1 X-1.246 Y15.5 E5.05168
G1 X-1.217 Y16.7 E5.11157
G1 X-1.236 Y17.162 E5.13463
G1 X-1.395 Y18.681 E5.21083
G1 X-1.467 Y19.116 E5.23283
G1 X-1.696 Y20.108 E5.28362
G1 X-1.852 Y20.611 E5.3099
G1 X-2.599 Y22.518 E5.41207
G1 X-2.872 Y23.07 E5.4428
G1 X-3.675 Y24.396 E5.52014
G1 X-4.026 Y24.88 E5.54997
G1 X-5.275 Y26.331 E5.64548
G1 X-5.679 Y26.731 E5.67385
G1 X-6.778 Y27.66 E5.74564
G1 X-7.125 Y27.919 E5.76724
G1 X-8.003 Y28.496 E5.81966
G1 X-8.399 Y28.722 E5.84241
G1 X-9.837 Y29.425 E5.92226
G1 X-10.329 Y29.622 E5.9487
G1 X-11.769 Y30.079 E6.02407
G1 X-12.203 Y30.188 E6.0464
G1 X-13.29 Y30.389 E6.10155
G1 X-13.756 Y30.444 E6.12496
G1 X-15.377 Y30.529 E6.20594
G1 X-16.012 Y30.506 E6.23764
G1 X-18.077 Y30.248 E6.34147
G1 X-18.609 Y30.141 E6.36854
G1 X-19.643 Y29.849 E6.42215
G1 X-19.981 Y29.735 E6.43994
G1 X-20.926 Y29.364 E6.49059
G1 X-21.333 Y29.174 E6.513
G1 X-22.692 Y28.433 E6.59022
G1 X-23.153 Y28.134 E6.61764
G1 X-24.5 Y27.106 E6.70217
G1 X-24.865 Y26.787 E6.72636
G1 X-25.692 Y25.958 E6.78478
G1 X-25.942 Y25.679 E6.80347
G1 X-26.569 Y24.904 E6.8532
G1 X-26.84 Y24.52 E6.87665
G1 X-27.717 Y23.088 E6.96043
G1 X-27.951 Y22.637 E6.98578
G1 X-28.487 Y21.398 E7.05313
G1 X-28.64 Y20.973 E7.07566
G1 X-28.989 Y19.771 E7.13811
G1 X-29.077 Y19.397 E7.15728
G1 X-29.253 Y18.406 E7.20749
G1 X-29.303 Y17.96 E7.22988
G1 X-29.384 Y16.376 E7.30901
G1 X-29.378 Y15.911 E7.33221
G1 X-29.289 Y14.776 E7.38901
G1 X-29.241 Y14.41 E7.40743
G1 X-29.058 Y13.408 E7.45824
G1 X-28.975 Y13.054 E7.47638
G1 X-28.675 Y12.018 E7.53019
G1 X-28.5 Y11.542 E7.55549
G1 X-27.717 Y9.802 E7.65069
G1 X-27.471 Y9.347 E7.67649
G1 X-26.887 Y8.429 E7.73077
G1 X-26.59 Y8.025 E7.75579
G1 X-25.405 Y6.635 E7.84692
G1 X-24.932 Y6.175 E7.87984
G1 X-23.356 Y4.897 E7.98107
G1 X-22.92 Y4.593 E8.00758
G1 X-22.016 Y4.059 E8.05996
G1 X-21.629 Y3.861 E8.08165
G1 X-20.257 Y3.26 E8.15638
G1 X-19.807 Y3.098 E8.18024
G1 X-18.592 Y2.749 E8.24331
G1 X-18.16 Y2.653 E8.26539
G1 X-16.831 Y2.443 E8.33252
G1 X-16.376 Y2.401 E8.35531
G1 X-15.066 Y2.362 E8.4207
G1 X-14.595 Y2.378 E8.44421
G1 X-13.16 Y2.524 E8.51617
G1 X-12.64 Y2.616 E8.54252
G1 X-11.041 Y3.021 E8.62481
G1 X-10.526 Y3.194 E8.65191
G1 X-9.149 Y3.775 E8.72648
G1 X-8.64 Y4.039 E8.75508
G1 X-7.066 Y5.023 E8.84769
G1 X-6.604 Y5.367 E8.87643
G1 X-5.461 Y6.367 E8.9522
G0 F3600 X-5.724 Y6.668
G1 F1800 X-5.391 Y7.006 E8.97587
G1 X-4.386 Y8.191 E9.05339
G1 X-4.111 Y8.567 E9.07663
G1 X-3.3 Y9.867 E9.15307
G1 X-3.087 Y10.27 E9.17581
G1 X-2.51 Y11.579 E9.24718
G1 X-2.348 Y12.037 E9.27142
G1 X-1.882 Y13.765 E9.36071
G1 X-1.798 Y14.19 E9.38232
G1 X-1.671 Y15.179 E9.43207
G1 X-1.646 Y15.51 E9.44863
G1 X-1.617 Y16.71 E9.50852
G1 X-1.633 Y17.12 E9.52899
G1 X-1.792 Y18.639 E9.60519
G1 X-1.857 Y19.026 E9.62476
G1 X-2.086 Y20.018 E9.67556
G1 X-2.224 Y20.465 E9.6989
G1 X-2.971 Y22.372 E9.80108
G1 X-3.214 Y22.863 E9.82841
G1 X-4.017 Y24.189 E9.90575
G1 X-4.329 Y24.619 E9.93225
G1 X-5.578 Y26.07 E10.02777
G1 X-5.937 Y26.426 E10.05299
G1 X-7.036 Y27.355 E10.12479
G1 X-7.345 Y27.585 E10.144
G1 X-8.223 Y28.162 E10.19642
G1 X-8.575 Y28.363 E10.21664
G1 X-10.013 Y29.066 E10.2965
G1 X-10.45 Y29.241 E10.31998
G1 X-11.89 Y29.698 E10.39536
G1 X-12.276 Y29.795 E10.41521
G1 X-13.363 Y29.996 E10.47036
G1 X-13.777 Y30.045 E10.49116
G1 X-15.398 Y30.13 E10.57214
G1 X-15.963 Y30.109 E10.60035
G1 X-18.028 Y29.851 E10.70418
G1 X-18.501 Y29.756 E10.72825
G1 X-19.535 Y29.464 E10.78185
G1 X-19.834 Y29.363 E10.79759
G1 X-20.779 Y28.992 E10.84824
G1 X-21.142 Y28.823 E10.86822
G1 X-22.501 Y28.082 E10.94545
G1 X-22.91 Y27.816 E10.96979
G1 X-24.257 Y26.788 E11.05432
G1 X-24.581 Y26.504 E11.07582
G1 X-25.408 Y25.675 E11.13424
G1 X-25.631 Y25.428 E11.15084
G1 X-26.258 Y24.653 E11.20057
G1 X-26.499 Y24.311 E11.22145
G1 X-27.376 Y22.879 E11.30522
G1 X-27.584 Y22.479 E11.32772
G1 X-28.12 Y21.24 E11.39507
G1 X-28.256 Y20.861 E11.41516
G1 X-28.605 Y19.659 E11.4776
G1 X-28.683 Y19.327 E11.49462
G1 X-28.859 Y18.336 E11.54483
G1 X-28.904 Y17.939 E11.56476
G1 X-28.985 Y16.355 E11.64389
G1 X-28.979 Y15.942 E11.6645
G1 X-28.89 Y14.807 E11.7213
G1 X-28.848 Y14.482 E11.73765
G1 X-28.665 Y13.48 E11.78846
G1 X-28.591 Y13.165 E11.80461
G1 X-28.291 Y12.129 E11.85842
G1 X-28.135 Y11.706 E11.88091
G1 X-27.352 Y9.966 E11.9761
G1 X-27.134 Y9.561 E11.99905
G1 X-26.55 Y8.643 E12.05333
G1 X-26.285 Y8.285 E12.07555
G1 X-25.1 Y6.895 E12.16668
G1 X-24.681 Y6.486 E12.19589
G1 X-23.105 Y5.208 E12.29712
G1 X-22.717 Y4.938 E12.32071
G1 X-21.813 Y4.404 E12.37309
G1 X-21.469 Y4.228 E12.39237
G1 X-20.097 Y3.627 E12.46709
G1 X-19.696 Y3.482 E12.48837
G1 X-18.481 Y3.133 E12.55144
G1 X-18.097 Y3.048 E12.57106
G1 X-16.768 Y2.838 E12.63818
G1 X-16.364 Y2.8 E12.65843
G1 X-15.054 Y2.761 E12.72381
G1 X-14.635 Y2.776 E12.74473
G1 X-13.2 Y2.922 E12.81669
G1 X-12.738 Y3.004 E12.8401
G1 X-11.139 Y3.409 E12.9224
G1 X-10.681 Y3.563 E12.9465
G1 X-9.304 Y4.144 E13.02107
G1 X-8.852 Y4.379 E13.04648
G1 X-7.278 Y5.363 E13.13909
G1 X-6.867 Y5.668 E13.16463
G1 X-5.724 Y6.668 E13.24039
G1 F1500 E6.74039
G0 F3600 X-7.481 Y8.477
G0 X-8.374 Y9.428
G0 X-8.416 Y9.471
G0 X-8.346 Y9.4
;TYPE:WALL-INNER
G1 F1500 E13.24039
G1 F1800 X-8 Y9.76 E13.26531
G1 X-7.705 Y10.096 E13.28761
G1 X-7.392 Y10.493 E13.31283
G1 X-7.117 Y10.875 E13.33632
G1 X-6.842 Y11.302 E13.36166
G1 X-6.607 Y11.71 E13.38515
G1 X-6.382 Y12.15 E13.4098
G1 X-6.151 Y12.667 E13.43805
G1 X-5.998 Y13.057 E13.45895
G1 X-5.821 Y13.596 E13.48726
G1 X-5.699 Y14.037 E13.51009
G1 X-5.583 Y14.556 E13.53662
G1 X-5.506 Y15.007 E13.55944
G1 X-5.446 Y15.509 E13.58467
G1 X-5.409 Y16.077 E13.61306
G1 X-5.405 Y16.611 E13.63971
G1 X-5.423 Y17.08 E13.66312
G1 X-5.463 Y17.543 E13.68631
G1 X-5.535 Y18.064 E13.71255
G1 X-5.619 Y18.514 E13.73539
G1 X-5.744 Y19.026 E13.76168
G1 X-5.875 Y19.468 E13.78468
G1 X-6.046 Y19.957 E13.81052
G1 X-6.21 Y20.362 E13.83232
G1 X-6.429 Y20.836 E13.85837
G1 X-6.613 Y21.191 E13.87832
G1 X-6.864 Y21.624 E13.90329
G1 X-7.146 Y22.057 E13.92907
G1 X-7.388 Y22.394 E13.94977
G1 X-7.642 Y22.716 E13.97023
G1 X-7.926 Y23.049 E13.99207
G1 X-8.324 Y23.466 E14.02083
G1 X-8.619 Y23.75 E14.04125
G1 X-8.946 Y24.035 E14.0629
G1 X-9.356 Y24.362 E14.08906
G1 X-9.729 Y24.628 E14.11192
G1 X-10.159 Y24.905 E14.13743
G1 X-10.563 Y25.136 E14.16065
G1 X-11.013 Y25.367 E14.18589
G1 X-11.506 Y25.587 E14.21282
G1 X-11.93 Y25.753 E14.23554
G1 X-12.451 Y25.925 E14.26291
G1 X-12.902 Y26.049 E14.28625
G1 X-13.426 Y26.166 E14.31303
G1 X-13.869 Y26.24 E14.33544
G1 X-14.38 Y26.302 E14.36112
G1 X-14.934 Y26.337 E14.38882
G1 X-15.384 Y26.344 E14.41127
G1 X-15.951 Y26.323 E14.43958
G1 X-16.478 Y26.273 E14.46599
G1 X-16.934 Y26.209 E14.48896
G1 X-17.37 Y26.127 E14.51109
G1 X-17.889 Y26 E14.53775
G1 X-18.334 Y25.868 E14.56091
G1 X-18.812 Y25.7 E14.58618
G1 X-19.22 Y25.536 E14.60812
G1 X-19.683 Y25.322 E14.63357
G1 X-20.07 Y25.12 E14.65535
G1 X-20.472 Y24.887 E14.67853
G1 X-20.927 Y24.59 E14.70564
G1 X-21.263 Y24.348 E14.7263
G1 X-21.57 Y24.106 E14.7458
G1 X-21.913 Y23.813 E14.76831
G1 X-22.328 Y23.417 E14.79692
G1 X-22.606 Y23.127 E14.81697
G1 X-22.894 Y22.796 E14.83886
G1 X-23.223 Y22.382 E14.86524
G1 X-23.474 Y22.031 E14.88677
G1 X-23.775 Y21.563 E14.91453
G1 X-23.994 Y21.181 E14.93649
G1 X-24.258 Y20.658 E14.96572
G1 X-24.45 Y20.224 E14.9894
G1 X-24.605 Y19.828 E15.01062
G1 X-24.779 Y19.301 E15.0383
G1 X-24.906 Y18.842 E15.06206
G1 X-25.02 Y18.329 E15.08828
G1 X-25.103 Y17.823 E15.11386
G1 X-25.162 Y17.321 E15.13908
G1 X-25.193 Y16.818 E15.16422
G1 X-25.2 Y16.331 E15.18852
G1 X-25.179 Y15.798 E15.21513
G1 X-25.138 Y15.329 E15.23862
G1 X-25.065 Y14.815 E15.26452
G1 X-24.983 Y14.376 E15.2868
G1 X-24.854 Y13.846 E15.31402
G1 X-24.699 Y13.338 E15.34051
G1 X-24.557 Y12.933 E15.36193
G1 X-24.391 Y12.523 E15.38399
G1 X-24.171 Y12.048 E15.41011
G1 X-23.99 Y11.699 E15.42972
G1 X-23.737 Y11.264 E15.45483
G1 X-23.457 Y10.833 E15.48047
G1 X-23.215 Y10.496 E15.50117
G1 X-22.958 Y10.17 E15.52188
G1 X-22.67 Y9.834 E15.54396
G1 X-22.344 Y9.488 E15.56768
G1 X-21.987 Y9.144 E15.59241
G1 X-21.658 Y8.856 E15.61423
G1 X-21.253 Y8.535 E15.64001
G1 X-20.877 Y8.264 E15.66313
G1 X-20.444 Y7.986 E15.6888
G1 X-20.04 Y7.753 E15.71207
G1 X-19.588 Y7.521 E15.73742
G1 X-19.097 Y7.303 E15.76422
G1 X-18.673 Y7.137 E15.78694
G1 X-18.157 Y6.967 E15.81404
G1 X-17.706 Y6.842 E15.83739
G1 X-17.171 Y6.724 E15.86472
G1 X-16.73 Y6.649 E15.88704
G1 X-16.222 Y6.588 E15.91257
G1 X-15.669 Y6.553 E15.94021
G1 X-15.218 Y6.545 E15.96271
G1 X-14.66 Y6.566 E15.99057
G1 X-14.204 Y6.606 E16.01341
G1 X-13.68 Y6.68 E16.03981
G1 X-13.132 Y6.786 E16.06766
G1 X-12.721 Y6.888 E16.08879
G1 X-12.274 Y7.02 E16.11204
G1 X-11.793 Y7.188 E16.13746
G1 X-11.303 Y7.391 E16.16392
G1 X-10.91 Y7.572 E16.1855
G1 X-10.547 Y7.761 E16.20592
G1 X-10.113 Y8.014 E16.23099
G1 X-9.69 Y8.289 E16.25616
G1 X-9.353 Y8.531 E16.27686
G1 X-9.038 Y8.78 E16.29689
G1 X-8.689 Y9.077 E16.31975
G1 X-8.346 Y9.4 E16.34326
G0 F3600 X-8.057 Y9.123
;TYPE:WALL-OUTER
G1 F1800 X-7.699 Y9.496 E16.36905
G1 X-7.404 Y9.832 E16.39136
G1 X-7.067 Y10.259 E16.4185
G1 X-6.792 Y10.641 E16.44198
G1 X-6.495 Y11.102 E16.46934
G1 X-6.26 Y11.51 E16.49283
G1 X-6.022 Y11.976 E16.51893
G1 X-5.786 Y12.504 E16.54779
G1 X-5.618 Y12.932 E16.57073
G1 X-5.441 Y13.471 E16.59903
G1 X-5.311 Y13.94 E16.62331
G1 X-5.189 Y14.489 E16.65137
G1 X-5.109 Y14.96 E16.6752
G1 X-5.047 Y15.483 E16.70148
G1 X-5.009 Y16.065 E16.73058
G1 X-5.005 Y16.627 E16.75862
G1 X-5.024 Y17.114 E16.78293
G1 X-5.064 Y17.577 E16.80612
G1 X-5.142 Y18.137 E16.83432
G1 X-5.23 Y18.609 E16.85828
G1 X-5.36 Y19.14 E16.88555
G1 X-5.491 Y19.582 E16.90855
G1 X-5.675 Y20.107 E16.93631
G1 X-5.841 Y20.517 E16.95837
G1 X-6.068 Y21.009 E16.98541
G1 X-6.267 Y21.392 E17.00694
G1 X-6.519 Y21.826 E17.03198
G1 X-6.821 Y22.29 E17.0596
G1 X-7.074 Y22.642 E17.08122
G1 X-7.331 Y22.968 E17.10194
G1 X-7.627 Y23.315 E17.12469
G1 X-8.04 Y23.748 E17.15454
G1 X-8.352 Y24.048 E17.17614
G1 X-8.697 Y24.348 E17.19895
G1 X-9.114 Y24.68 E17.22554
G1 X-9.497 Y24.954 E17.24903
G1 X-9.959 Y25.251 E17.27643
G1 X-10.367 Y25.486 E17.29993
G1 X-10.831 Y25.724 E17.32594
G1 X-11.36 Y25.96 E17.35484
G1 X-11.79 Y26.128 E17.37787
G1 X-12.334 Y26.308 E17.40646
G1 X-12.796 Y26.435 E17.43036
G1 X-13.348 Y26.558 E17.45858
G1 X-13.818 Y26.637 E17.48236
G1 X-14.345 Y26.7 E17.50884
G1 X-14.922 Y26.737 E17.53768
G1 X-15.393 Y26.744 E17.56118
G1 X-15.969 Y26.723 E17.58994
G1 X-16.528 Y26.67 E17.61795
G1 X-16.994 Y26.604 E17.64143
G1 X-17.465 Y26.516 E17.66534
G1 X-17.996 Y26.386 E17.69261
G1 X-18.448 Y26.252 E17.71613
G1 X-18.954 Y26.074 E17.74289
G1 X-19.382 Y25.902 E17.76591
G1 X-19.866 Y25.678 E17.79251
G1 X-20.255 Y25.475 E17.8144
G1 X-20.683 Y25.227 E17.83908
G1 X-21.146 Y24.925 E17.86666
G1 X-21.497 Y24.672 E17.88825
G1 X-21.83 Y24.41 E17.90939
G1 X-22.173 Y24.117 E17.93189
G1 X-22.604 Y23.706 E17.96161
G1 X-22.904 Y23.394 E17.9832
G1 X-23.204 Y23.049 E18.00601
G1 X-23.542 Y22.624 E18.0331
G1 X-23.81 Y22.249 E18.0561
G1 X-24.112 Y21.779 E18.08397
G1 X-24.341 Y21.38 E18.10692
G1 X-24.623 Y20.821 E18.13816
G1 X-24.816 Y20.386 E18.1619
G1 X-24.984 Y19.957 E18.18488
G1 X-25.165 Y19.408 E18.21372
G1 X-25.292 Y18.949 E18.23748
G1 X-25.415 Y18.395 E18.2658
G1 X-25.498 Y17.887 E18.29148
G1 X-25.56 Y17.354 E18.31825
G1 X-25.593 Y16.828 E18.34454
G1 X-25.6 Y16.315 E18.37014
G1 X-25.579 Y15.782 E18.39675
G1 X-25.534 Y15.273 E18.42224
G1 X-25.461 Y14.759 E18.44814
G1 X-25.372 Y14.281 E18.4724
G1 X-25.243 Y13.751 E18.49961
G1 X-25.082 Y13.222 E18.5272
G1 X-24.928 Y12.783 E18.55041
G1 X-24.762 Y12.373 E18.57248
G1 X-24.534 Y11.88 E18.59958
G1 X-24.336 Y11.498 E18.62104
G1 X-24.083 Y11.063 E18.64615
G1 X-23.782 Y10.6 E18.6737
G1 X-23.529 Y10.248 E18.69533
G1 X-23.272 Y9.922 E18.71604
G1 X-22.974 Y9.574 E18.7389
G1 X-22.63 Y9.208 E18.76396
G1 X-22.25 Y8.843 E18.79024
G1 X-21.906 Y8.542 E18.81305
G1 X-21.487 Y8.21 E18.83972
G1 X-21.105 Y7.935 E18.8632
G1 X-20.644 Y7.639 E18.89053
G1 X-20.236 Y7.404 E18.91402
G1 X-19.771 Y7.165 E18.94011
G1 X-19.243 Y6.93 E18.96894
G1 X-18.813 Y6.762 E18.99197
G1 X-18.269 Y6.582 E19.02056
G1 X-17.806 Y6.454 E19.04453
G1 X-17.257 Y6.333 E19.07257
G1 X-16.785 Y6.253 E19.09646
G1 X-16.257 Y6.19 E19.12299
G1 X-15.681 Y6.153 E19.15178
G1 X-15.21 Y6.145 E19.17528
G1 X-14.632 Y6.167 E19.20414
G1 X-14.168 Y6.207 E19.22738
G1 X-13.603 Y6.287 E19.25584
G1 X-13.055 Y6.394 E19.2837
G1 X-12.607 Y6.504 E19.30672
G1 X-12.155 Y6.638 E19.33024
G1 X-11.65 Y6.814 E19.35692
G1 X-11.15 Y7.021 E19.38392
G1 X-10.737 Y7.212 E19.40662
G1 X-10.346 Y7.415 E19.4286
G1 X-9.912 Y7.668 E19.45366
G1 X-9.457 Y7.964 E19.48074
G1 X-9.105 Y8.217 E19.50237
G1 X-8.779 Y8.475 E19.52311
G1 X-8.43 Y8.772 E19.54597
