;FLAVOR:RepRap
;TIME:802
;Generated with Cura_SteamEngine 2.3.1
M190 S60
M104 S200
M109 S200
G21 ;metric values
G90 ;absolute positioning
M82 ;set extruder to absolute mode
M107 ;start with the fan off
G28 ;Home all axes (max endstops)
G1 Z15.0 F9000 ;move the platform down 15mm
G92 E0 ;zero the extruded length
G1 F200 E3 ;extrude 3mm of feed stock
G92 E0 ;zero the extruded length again
G1 F9000
;Put printing message on LCD screen
M117 Printing...
;LAYER_COUNT:46
;LAYER:0
M107
G1 F1500 E-6.5
G0 F3600 X15.504 Y7.224 Z.3
;TYPE:SKIRT
G1 F1500 E0
G1 F1800 X-15.716 Y7.175 E1.55757
G1 X-16.25 Y7.134 E1.58429
G1 X-16.996 Y6.938 E1.62278
G1 X-22.125 Y4.977 E1.89673
G1 X-27.33 Y3.289 E2.16972
G1 X-28.973 Y2.822 E2.25494
G1 X-29.476 Y2.637 E2.28167
G1 X-29.947 Y2.38 E2.30844
G1 X-30.374 Y2.056 E2.33518
G1 X-30.748 Y1.672 E2.36193
G1 X-31.061 Y1.236 E2.3887
G1 X-31.306 Y.759 E2.41546
G1 X-31.477 Y.251 E2.4422
G1 X-31.571 Y-.277 E2.46896
G1 X-31.589 Y-.64 E2.48709
G1 X-31.59 Y-3.623 E2.63591
G1 X-31.55 Y-4.158 E2.66268
G1 X-31.431 Y-4.681 E2.68944
G1 X-31.236 Y-5.18 E2.71616
G1 X-30.969 Y-5.645 E2.74292
G1 X-30.636 Y-6.065 E2.76966
G1 X-30.244 Y-6.431 E2.79641
G1 X-29.802 Y-6.735 E2.82318
G1 X-29.32 Y-6.969 E2.84991
G1 X-28.808 Y-7.13 E2.87668
G1 X-28.278 Y-7.212 E2.90344
G1 X-27.99 Y-7.224 E2.91782
G1 X27.991 Y-7.223 E5.71072
G1 X28.526 Y-7.183 E5.73749
G1 X29.049 Y-7.064 E5.76425
G1 X29.548 Y-6.869 E5.79098
G1 X30.013 Y-6.601 E5.81775
G1 X30.433 Y-6.268 E5.8445
G1 X30.799 Y-5.876 E5.87125
G1 X31.102 Y-5.434 E5.89799
G1 X31.337 Y-4.951 E5.92479
G1 X31.497 Y-4.44 E5.9515
G1 X31.58 Y-3.91 E5.97826
G1 X31.591 Y-3.622 E5.99264
G1 X31.59 Y-.64 E6.14142
G1 X31.55 Y-.105 E6.16818
G1 X31.431 Y.418 E6.19494
G1 X31.235 Y.917 E6.22169
G1 X30.968 Y1.382 E6.24844
G1 X30.634 Y1.802 E6.27521
G1 X30.242 Y2.168 E6.30197
G1 X29.8 Y2.471 E6.3287
G1 X29.317 Y2.705 E6.35548
G1 X29.026 Y2.807 E6.37086
G1 X24.772 Y4.085 E6.59247
G1 X16.741 Y7.007 E7.01883
G1 X16.225 Y7.152 E7.04557
G1 X15.504 Y7.224 E7.08172
G0 F3600 X15.505 Y6.824
G1 F1800 X-15.715 Y6.775 E8.63929
G1 X-16.219 Y6.734 E8.66452
G1 X-16.853 Y6.564 E8.69727
G1 X-21.979 Y4.604 E8.97106
G1 X-27.232 Y2.9 E9.24658
G1 X-28.863 Y2.437 E9.33117
G1 X-29.337 Y2.261 E9.35639
G1 X-29.777 Y2.013 E9.38159
G1 X-30.173 Y1.698 E9.40684
G1 X-30.514 Y1.325 E9.43205
G1 X-30.792 Y.902 E9.4573
G1 X-31 Y.442 E9.48249
G1 X-31.133 Y-.046 E9.50772
G1 X-31.189 Y-.64 E9.53749
G1 X-31.19 Y-3.623 E9.68631
G1 X-31.15 Y-4.127 E9.71154
G1 X-31.032 Y-4.618 E9.73673
G1 X-30.837 Y-5.085 E9.76198
G1 X-30.571 Y-5.515 E9.7872
G1 X-30.241 Y-5.898 E9.81243
G1 X-29.855 Y-6.224 E9.83763
G1 X-29.422 Y-6.486 E9.86288
G1 X-28.954 Y-6.675 E9.88806
G1 X-28.461 Y-6.789 E9.91331
G1 X-27.99 Y-6.824 E9.93687
G1 X27.991 Y-6.823 E12.72977
G1 X28.495 Y-6.783 E12.755
G1 X28.986 Y-6.664 E12.7802
G1 X29.453 Y-6.469 E12.80545
G1 X29.883 Y-6.204 E12.83065
G1 X30.266 Y-5.874 E12.85587
G1 X30.592 Y-5.487 E12.88112
G1 X30.853 Y-5.054 E12.90634
G1 X31.043 Y-4.586 E12.93154
G1 X31.156 Y-4.093 E12.95677
G1 X31.191 Y-3.622 E12.98034
G1 X31.19 Y-.64 E13.12911
G1 X31.15 Y-.136 E13.15433
G1 X31.031 Y.355 E13.17954
G1 X30.836 Y.822 E13.20479
G1 X30.57 Y1.252 E13.23001
G1 X30.24 Y1.635 E13.25524
G1 X29.853 Y1.961 E13.28048
G1 X29.42 Y2.222 E13.3057
G1 X28.911 Y2.424 E13.33302
G1 X24.641 Y3.707 E13.55546
G1 X16.604 Y6.631 E13.98214
G1 X16.117 Y6.766 E14.00736
G1 X15.505 Y6.824 E14.03803
G1 F1500 E7.53803
G0 F3600 X15.444 Y4.298
G0 X15.444 Y2.994
G0 X15.605 Y2.887
G0 X15.636 Y2.981
;TYPE:WALL-INNER
G1 F1500 E14.03803
G1 F1800 X15.449 Y3.033 E14.04771
G1 X-15.449 Y3.033 E15.58922
G1 X-15.709 Y2.958 E15.60272
G1 X-15.935 Y2.867 E15.61487
G1 X-16.152 Y2.754 E15.62708
G1 X-16.456 Y2.553 E15.64526
G1 X-16.575 Y2.454 E15.65298
G1 X-16.644 Y2.397 E15.65745
G1 X-16.691 Y2.348 E15.66084
G1 X-16.881 Y2.151 E15.67449
G1 X-16.944 Y2.071 E15.67957
G1 X-17.021 Y1.975 E15.68571
G1 X-17.051 Y1.927 E15.68853
G1 X-17.196 Y1.697 E15.7021
G1 X-17.246 Y1.597 E15.70768
G1 X-17.302 Y1.485 E15.71392
G1 X-17.387 Y1.256 E15.72611
G1 X-17.415 Y1.181 E15.73011
G1 X-17.436 Y1.1 E15.73428
G1 X-17.478 Y.943 E15.74239
G1 X-17.51 Y.747 E15.7523
G1 X-17.522 Y.673 E15.75604
G1 X-17.538 Y.326 E15.77337
G1 X-17.537 Y.297 E15.77481
G1 X-17.526 Y.095 E15.78491
G1 X-17.501 Y-.066 E15.79304
G1 X-17.479 Y-.203 E15.79996
G1 X-17.476 Y-.219 E15.80077
G1 X-17.39 Y-.551 E15.81788
G1 X-17.31 Y-.857 E15.83366
G1 X-17.306 Y-.874 E15.83453
G1 X-17.274 Y-.998 E15.84092
G1 X-17.216 Y-1.216 E15.85217
G1 X-17.212 Y-1.233 E15.85305
G1 X-17.229 Y-1.233 E15.85356
G1 X-17.23 Y-1.233 E15.85361
G1 X-27.399 Y-1.233 E16.36094
G1 X-27.399 Y-3.033 E16.45074
G1 X27.4 Y-3.033 E19.18468
G1 X27.4 Y-1.233 E19.27448
G1 X17.472 Y-1.233 E19.76979
G1 X17.471 Y-1.233 E19.76984
G1 X17.214 Y-1.233 E19.78266
G1 X17.278 Y-.984 E19.79042
G1 X17.475 Y-.22 E19.82978
G1 X17.526 Y.094 E19.84565
G1 X17.537 Y.345 E19.85819
G1 X17.517 Y.71 E19.87643
G1 X17.477 Y.95 E19.88856
G1 X17.388 Y1.264 E19.90485
G1 X17.3 Y1.492 E19.91704
G1 X17.197 Y1.697 E19.92849
G1 X17.021 Y1.973 E19.94482
G1 X16.813 Y2.228 E19.96123
G1 X16.643 Y2.398 E19.97323
G1 X16.43 Y2.573 E19.98698
G1 X16.137 Y2.763 E20.0044
G1 X15.934 Y2.867 E20.01578
G1 X15.636 Y2.981 E20.0317
G0 F3600 X15.599 Y2.304
G1 F1800 X16.008 Y2.08 E20.05497
G1 X16.273 Y1.85 E20.07247
G1 X16.371 Y1.746 E20.0796
G1 X16.578 Y1.471 E20.09677
G1 X16.732 Y1.161 E20.11404
G1 X16.788 Y.996 E20.12274
G1 X16.863 Y.713 E20.13734
G1 X16.887 Y.381 E20.15395
G1 X16.886 Y.245 E20.16074
G1 X16.841 Y-.097 E20.17794
G1 X16.729 Y-.441 E20.19599
G1 X16.504 Y-.85 E20.21928
G1 X16.272 Y-1.119 E20.23701
G1 X16.169 Y-1.215 E20.24403
G1 X15.895 Y-1.422 E20.26116
G1 X15.53 Y-1.601 E20.28144
G1 X15.139 Y-1.706 E20.30164
G1 X14.805 Y-1.731 E20.31835
G1 X14.669 Y-1.73 E20.32514
G1 X14.328 Y-1.685 E20.3423
G1 X13.982 Y-1.574 E20.36043
G1 X13.571 Y-1.348 E20.38383
G1 X13.306 Y-1.118 E20.40133
G1 X13.207 Y-1.014 E20.4085
G1 X13.001 Y-.738 E20.42568
G1 X12.847 Y-.428 E20.44295
G1 X12.791 Y-.264 E20.45159
G1 X12.716 Y.019 E20.4662
G1 X12.692 Y.351 E20.48281
G1 X12.693 Y.486 E20.48954
G1 X12.738 Y.827 E20.5067
G1 X12.848 Y1.17 E20.52467
G1 X13.037 Y1.523 E20.54465
G1 X13.126 Y1.645 E20.55218
G1 X13.356 Y1.903 E20.56943
G1 X13.626 Y2.113 E20.58649
G1 X13.745 Y2.186 E20.59346
G1 X14.051 Y2.335 E20.61044
G1 X14.441 Y2.439 E20.63057
G1 X14.775 Y2.463 E20.64728
G1 X14.91 Y2.462 E20.65402
G1 X15.252 Y2.417 E20.67123
G1 X15.599 Y2.304 E20.68943
G0 F3600 X15.638 Y2.395
G0 X14.774 Y2.502
G0 X6.872 Y1.081
G0 X6.778 Y1.049
G1 F1800 X6.858 Y.721 E20.70628
G1 X6.876 Y.587 E20.71302
G1 X6.889 Y.248 E20.72995
G1 X6.836 Y-.109 E20.74795
G1 X6.692 Y-.531 E20.7702
G1 X6.503 Y-.85 E20.7887
G1 X6.193 Y-1.2 E20.81202
G1 X5.909 Y-1.408 E20.82959
G1 X5.787 Y-1.481 E20.83668
G1 X5.472 Y-1.622 E20.8539
G1 X5.078 Y-1.716 E20.8741
G1 X4.674 Y-1.733 E20.89428
G1 X4.314 Y-1.68 E20.91243
G1 X3.892 Y-1.535 E20.93469
G1 X3.573 Y-1.346 E20.95319
G1 X3.222 Y-1.038 E20.97649
G1 X3.011 Y-.75 E20.9943
G1 X2.941 Y-.628 E21.00132
G1 X2.801 Y-.316 E21.01838
G1 X2.707 Y.076 E21.03849
G1 X2.69 Y.482 E21.05876
G1 X2.743 Y.842 E21.07692
G1 X2.888 Y1.263 E21.09913
G1 X3.074 Y1.58 E21.11747
G1 X3.337 Y1.881 E21.13741
G1 X3.448 Y1.98 E21.14483
G1 X3.731 Y2.183 E21.16221
G1 X4.038 Y2.324 E21.17906
G1 X4.167 Y2.371 E21.18591
G1 X4.5 Y2.449 E21.20298
G1 X4.863 Y2.467 E21.22111
G1 X5.307 Y2.404 E21.24348
G1 X5.689 Y2.266 E21.26374
G1 X6.005 Y2.081 E21.28201
G1 X6.355 Y1.769 E21.3054
G1 X6.565 Y1.485 E21.32303
G1 X6.637 Y1.363 E21.33009
G1 X6.778 Y1.049 E21.34727
G0 F3600 X6.872 Y1.081
G0 X6.384 Y1.795
G0 X6.028 Y2.113
G0 X5.316 Y2.442
G0 X4.864 Y2.506
G0 X4.156 Y2.409
G0 X-3.013 Y.517
G0 X-3.112 Y.51
G1 F1800 X-3.118 Y.169 E21.36428
G1 X-3.137 Y.03 E21.37128
G1 X-3.214 Y-.296 E21.38799
G1 X-3.358 Y-.627 E21.406
G1 X-3.623 Y-1.015 E21.42944
G1 X-3.878 Y-1.256 E21.44695
G1 X-3.989 Y-1.343 E21.45398
G1 X-4.286 Y-1.523 E21.47131
G1 X-4.623 Y-1.65 E21.48928
G1 X-5.06 Y-1.731 E21.51145
G1 X-5.429 Y-1.724 E21.52986
G1 X-5.865 Y-1.632 E21.55209
G1 X-6.204 Y-1.485 E21.57053
G1 X-6.592 Y-1.22 E21.59397
G1 X-6.834 Y-.961 E21.61165
G1 X-6.919 Y-.851 E21.61859
G1 X-7.099 Y-.556 E21.63583
G1 X-7.241 Y-.175 E21.65612
G1 X-7.306 Y.22 E21.67609
G1 X-7.301 Y.586 E21.69435
G1 X-7.207 Y1.022 E21.7166
G1 X-7.062 Y1.357 E21.73481
G1 X-6.84 Y1.69 E21.75478
G1 X-6.739 Y1.803 E21.76234
G1 X-6.485 Y2.039 E21.77964
G1 X-6.195 Y2.219 E21.79667
G1 X-6.071 Y2.28 E21.80356
G1 X-5.75 Y2.398 E21.82062
G1 X-5.355 Y2.462 E21.84059
G1 X-4.989 Y2.457 E21.85885
G1 X-4.554 Y2.363 E21.88105
G1 X-4.214 Y2.217 E21.89951
G1 X-3.827 Y1.952 E21.92291
G1 X-3.587 Y1.697 E21.94038
G1 X-3.5 Y1.586 E21.94742
G1 X-3.32 Y1.288 E21.96479
G1 X-3.178 Y.908 E21.98503
G1 X-3.112 Y.51 E22.00516
G0 F3600 X-3.013 Y.517
G0 X-3.284 Y1.305
G0 X-3.801 Y1.982
G0 X-4.195 Y2.252
G0 X-4.542 Y2.401
G0 X-4.985 Y2.496
G0 X-5.76 Y2.436
G0 X-13.008 Y.425
G0 X-13.107 Y.423
G1 F1800 X-13.136 Y.023 E22.02516
G1 X-13.221 Y-.308 E22.04221
G1 X-13.271 Y-.437 E22.04912
G1 X-13.422 Y-.741 E22.06605
G1 X-13.683 Y-1.08 E22.08739
G1 X-13.945 Y-1.307 E22.10469
G1 X-14.059 Y-1.389 E22.1117
G1 X-14.36 Y-1.556 E22.12887
G1 X-14.68 Y-1.664 E22.14572
G1 X-14.812 Y-1.693 E22.15246
G1 X-15.148 Y-1.736 E22.16936
G1 X-15.489 Y-1.715 E22.18641
G1 X-15.627 Y-1.691 E22.19339
G1 X-15.949 Y-1.601 E22.21007
G1 X-16.276 Y-1.444 E22.22817
G1 X-16.653 Y-1.164 E22.2516
G1 X-16.884 Y-.898 E22.26918
G1 X-16.89 Y-.89 E22.26968
G1 X-16.964 Y-.785 E22.27571
G1 X-16.972 Y-.771 E22.27647
G1 X-16.979 Y-.759 E22.27716
G1 X-17.133 Y-.484 E22.29025
G1 X-17.241 Y-.164 E22.29948
G0 X-17.271 Y-.03
G0 X-17.289 Y.124
G0 X-17.312 Y.308
G1 X-17.287 Y.655 E22.3088
G0 X-17.283 Y.71
G0 X-17.239 Y.881
G1 X-17.199 Y1.036 E22.31093
G0 X-17.178 Y1.094
G1 X-17.151 Y1.167 E22.31122
G1 X-17.055 Y1.36 E22.31498
G0 X-16.998 Y1.472
G0 X-16.962 Y1.519
G1 X-16.783 Y1.757 E22.32647
G1 X-16.682 Y1.862 E22.33048
G1 X-16.656 Y1.883 E22.3312
G1 X-16.418 Y2.085 E22.34546
G1 X-16.341 Y2.13 E22.34983
G1 X-16.122 Y2.257 E22.36246
G1 X-15.994 Y2.313 E22.36943
G1 X-15.672 Y2.417 E22.38631
G1 X-15.326 Y2.461 E22.40371
G1 X-15.148 Y2.46 E22.41259
G1 X-14.817 Y2.43 E22.42918
G1 X-14.471 Y2.334 E22.44709
G1 X-14.143 Y2.177 E22.46523
G1 X-13.766 Y1.897 E22.48866
G1 X-13.535 Y1.631 E22.50624
G1 X-13.454 Y1.517 E22.51321
G1 X-13.287 Y1.216 E22.53039
G1 X-13.178 Y.897 E22.54721
G1 X-13.148 Y.761 E22.55415
G1 X-13.107 Y.423 E22.57114
G0 F3600 X-13.509 Y.413
;TYPE:WALL-OUTER
G1 F1800 X-13.532 Y.087 E22.58744
G1 X-13.602 Y-.185 E22.60146
G1 X-13.637 Y-.275 E22.60628
G1 X-13.763 Y-.528 E22.62038
G1 X-13.976 Y-.804 E22.63777
G1 X-14.193 Y-.993 E22.65213
G1 X-14.273 Y-1.05 E22.65703
G1 X-14.522 Y-1.189 E22.67125
G1 X-14.788 Y-1.278 E22.68525
G1 X-14.881 Y-1.299 E22.69
G1 X-15.161 Y-1.334 E22.70408
G1 X-15.442 Y-1.317 E22.71813
G1 X-15.538 Y-1.3 E22.72299
G1 X-15.808 Y-1.225 E22.73697
G1 X-16.068 Y-1.1 E22.75136
G1 X-16.379 Y-.869 E22.77069
G1 X-16.569 Y-.65 E22.78516
G1 X-16.626 Y-.57 E22.79006
G1 X-16.766 Y-.321 E22.80431
G1 X-16.855 Y-.056 E22.81826
G1 X-16.876 Y.038 E22.82306
G1 X-16.91 Y.318 E22.83713
G1 X-16.887 Y.645 E22.85349
G1 X-16.817 Y.916 E22.86745
G1 X-16.783 Y1.008 E22.87234
G1 X-16.657 Y1.26 E22.8864
G1 X-16.478 Y1.497 E22.90122
G1 X-16.408 Y1.57 E22.90626
G1 X-16.187 Y1.757 E22.92071
G1 X-15.942 Y1.899 E22.93484
G1 X-15.852 Y1.938 E22.93973
G1 X-15.584 Y2.025 E22.95379
G1 X-15.302 Y2.061 E22.96797
G1 X-15.167 Y2.06 E22.9747
G1 X-14.889 Y2.035 E22.98863
G1 X-14.612 Y1.958 E23.00297
G1 X-14.351 Y1.833 E23.01741
G1 X-14.04 Y1.602 E23.03674
G1 X-13.85 Y1.383 E23.0512
G1 X-13.793 Y1.303 E23.0561
G1 X-13.654 Y1.053 E23.07038
G1 X-13.564 Y.789 E23.08429
G1 X-13.543 Y.694 E23.08914
G1 X-13.509 Y.413 E23.10327
G0 F3600 X-13.013 Y.473
G0 X-13.235 Y-.453
G0 X-13.654 Y-1.107
G0 X-14.344 Y-1.592
G0 X-15.147 Y-1.775
G0 X-15.963 Y-1.638
G0 X-16.296 Y-1.478
G0 X-17.247 Y-.707
G0 X-17.729 Y-.833
G1 F1800 X-17.987 Y-.833 E23.11614
G1 X-27.799 Y-.833 E23.60566
G1 X-27.799 Y-3.433 E23.73537
G1 X27.8 Y-3.433 E26.50922
G1 X27.8 Y-.833 E26.63893
G1 X17.987 Y-.833 E27.12851
G1 X17.986 Y-.833 E27.12856
G1 X17.73 Y-.833 E27.14133
G1 X17.793 Y-.584 E27.14909
G1 X17.868 Y-.295 E27.16398
G1 X17.925 Y.055 E27.18168
G1 X17.938 Y.34 E27.19591
G1 X17.914 Y.763 E27.21705
G1 X17.869 Y1.032 E27.23065
G1 X17.767 Y1.394 E27.24942
G1 X17.669 Y1.646 E27.26291
G1 X17.542 Y1.899 E27.27703
G1 X17.344 Y2.21 E27.29542
G1 X17.11 Y2.497 E27.3139
G1 X16.914 Y2.693 E27.32773
G1 X16.663 Y2.899 E27.34393
G1 X16.344 Y3.106 E27.3629
G1 X16.1 Y3.231 E27.37658
G1 X15.751 Y3.365 E27.39523
G1 X15.505 Y3.433 E27.40796
G1 X-15.505 Y3.433 E28.95506
G1 X-15.844 Y3.335 E28.97266
G1 X-16.099 Y3.232 E28.98638
G1 X-16.354 Y3.1 E29.00071
G1 X-16.696 Y2.873 E29.02119
G1 X-16.919 Y2.688 E29.03564
G1 X-17.176 Y2.422 E29.05409
G1 X-17.348 Y2.205 E29.06791
G1 X-17.541 Y1.899 E29.08596
G1 X-17.671 Y1.64 E29.10042
G1 X-17.797 Y1.303 E29.11837
G1 X-17.87 Y1.027 E29.13261
G1 X-17.921 Y.712 E29.14853
G1 X-17.939 Y.334 E29.16741
G1 X-17.924 Y.047 E29.18175
G1 X-17.868 Y-.299 E29.19923
G1 X-17.794 Y-.583 E29.21388
G1 X-17.729 Y-.833 E29.22167
G0 F3600 X-17.247 Y-.707
G0 X-16.296 Y-1.478
G0 X-15.635 Y-1.73
G0 X-15.147 Y-1.775
G0 X-14.344 Y-1.592
G0 X-7.398 Y.169
G0 X-6.906 Y.25
G1 F1800 X-6.902 Y.54 E29.23614
G1 X-6.824 Y.899 E29.25447
G1 X-6.709 Y1.165 E29.26892
G1 X-6.522 Y1.445 E29.28572
G1 X-6.453 Y1.523 E29.29092
G1 X-6.241 Y1.719 E29.30532
G1 X-6 Y1.869 E29.31948
G1 X-5.913 Y1.912 E29.32433
G1 X-5.648 Y2.009 E29.3384
G1 X-5.325 Y2.062 E29.35473
G1 X-5.035 Y2.058 E29.3692
G1 X-4.676 Y1.98 E29.38753
G1 X-4.408 Y1.865 E29.40208
G1 X-4.089 Y1.646 E29.42139
G1 X-3.891 Y1.436 E29.43579
G1 X-3.83 Y1.358 E29.44073
G1 X-3.681 Y1.113 E29.45503
G1 X-3.566 Y.805 E29.47143
G1 X-3.513 Y.481 E29.48781
G1 X-3.518 Y.199 E29.50188
G1 X-3.531 Y.103 E29.50672
G1 X-3.595 Y-.169 E29.52066
G1 X-3.71 Y-.433 E29.53503
G1 X-3.929 Y-.754 E29.55441
G1 X-4.139 Y-.952 E29.56881
G1 X-4.217 Y-1.013 E29.57375
G1 X-4.462 Y-1.162 E29.58806
G1 X-4.731 Y-1.263 E29.60239
G1 X-5.093 Y-1.33 E29.62076
G1 X-5.384 Y-1.325 E29.63528
G1 X-5.743 Y-1.249 E29.65359
G1 X-6.01 Y-1.133 E29.66811
G1 X-6.33 Y-.914 E29.68746
G1 X-6.529 Y-.702 E29.70196
G1 X-6.589 Y-.624 E29.70687
G1 X-6.738 Y-.38 E29.72114
G1 X-6.853 Y-.072 E29.73754
G1 X-6.906 Y.25 E29.75382
G0 F3600 X-7.398 Y.169
G0 X-7.134 Y-.573
G0 X-6.618 Y-1.25
G0 X-6.223 Y-1.52
G0 X-5.877 Y-1.67
G0 X-5.057 Y-1.77
G0 X-4.269 Y-1.558
G0 X2.592 Y.44
G0 X3.091 Y.461
G1 F1800 X3.133 Y.747 E29.76824
G1 X3.253 Y1.095 E29.78661
G1 X3.4 Y1.345 E29.80107
G1 X3.621 Y1.599 E29.81787
G1 X3.698 Y1.667 E29.823
G1 X3.933 Y1.836 E29.83744
G1 X4.19 Y1.954 E29.85155
G1 X4.281 Y1.987 E29.85638
G1 X4.556 Y2.051 E29.87046
G1 X4.845 Y2.066 E29.8849
G1 X5.21 Y2.014 E29.90329
G1 X5.519 Y1.902 E29.91969
G1 X5.769 Y1.756 E29.93414
G1 X6.058 Y1.498 E29.95346
G1 X6.231 Y1.264 E29.96798
G1 X6.281 Y1.179 E29.9729
G1 X6.398 Y.919 E29.98713
G1 X6.464 Y.647 E30.00109
G1 X6.477 Y.552 E30.00587
G1 X6.488 Y.27 E30.01995
G1 X6.446 Y-.014 E30.03428
G1 X6.327 Y-.362 E30.05263
G1 X6.178 Y-.613 E30.06719
G1 X5.922 Y-.903 E30.08649
G1 X5.688 Y-1.074 E30.10095
G1 X5.602 Y-1.125 E30.10593
G1 X5.342 Y-1.242 E30.12016
G1 X5.023 Y-1.318 E30.13652
G1 X4.695 Y-1.332 E30.1529
G1 X4.409 Y-1.29 E30.16732
G1 X4.061 Y-1.17 E30.18568
G1 X3.809 Y-1.021 E30.20029
G1 X3.519 Y-.766 E30.21956
G1 X3.347 Y-.531 E30.23409
G1 X3.298 Y-.446 E30.23898
G1 X3.181 Y-.186 E30.2532
G1 X3.105 Y.132 E30.26952
G1 X3.091 Y.461 E30.28594
G0 F3600 X2.592 Y.44
G0 X2.764 Y-.328
G0 X3.193 Y-1.065
G0 X3.876 Y-1.571
G0 X4.672 Y-1.772
G0 X5.083 Y-1.755
G0 X12.614 Y.049
G0 X13.112 Y.085
G1 F1800 X13.092 Y.363 E30.29985
G1 X13.093 Y.458 E30.30459
G1 X13.13 Y.739 E30.31873
G1 X13.218 Y1.013 E30.33309
G1 X13.377 Y1.31 E30.34989
G1 X13.438 Y1.394 E30.35507
G1 X13.63 Y1.61 E30.36949
G1 X13.854 Y1.784 E30.38364
G1 X13.937 Y1.835 E30.3885
G1 X14.191 Y1.958 E30.40258
G1 X14.508 Y2.043 E30.41896
G1 X14.787 Y2.063 E30.43291
G1 X14.882 Y2.062 E30.43765
