;FLAVOR:RepRap
;TIME:1633
;Generated with Cura_SteamEngine 2.3.1
M190 S60
M104 S200
M109 S200
G21 ;metric values
G90 ;absolute positioning
M82 ;set extruder to absolute mode
M107 ;start with the fan off
G28 ;Home all axes (max endstops)
G1 Z15.0 F9000 ;move the platform down 15mm
G92 E0 ;zero the extruded length
G1 F200 E3 ;extrude 3mm of feed stock
G92 E0 ;zero the extruded length again
G1 F9000
;Put printing message on LCD screen
M117 Printing...
;LAYER_COUNT:46
;LAYER:0
M107
G1 F1500 E-6.5
G0 F3600 X15.504 Y7.224 Z.3
;TYPE:SKIRT
G1 F1500 E0
G1 F1800 X-15.716 Y7.175 E1.55757
G1 X-16.25 Y7.134 E1.58429
G1 X-16.996 Y6.938 E1.62278
G1 X-22.125 Y4.977 E1.89673
G1 X-27.33 Y3.289 E2.16972
G1 X-28.973 Y2.822 E2.25494
G1 X-29.476 Y2.637 E2.28167
G1 X-29.947 Y2.38 E2.30844
G1 X-30.374 Y2.056 E2.33518
G1 X-30.748 Y1.672 E2.36193
G1 X-31.061 Y1.236 E2.3887
G1 X-31.306 Y.759 E2.41546
G1 X-31.477 Y.251 E2.4422
G1 X-31.571 Y-.277 E2.46896
G1 X-31.589 Y-.641 E2.48714
G1 X-31.59 Y-12.644 E3.08597
G1 X-31.55 Y-13.178 E3.11269
G1 X-31.431 Y-13.701 E3.13945
G1 X-31.236 Y-14.201 E3.16622
G1 X-30.969 Y-14.666 E3.19297
G1 X-30.635 Y-15.086 E3.21974
G1 X-30.243 Y-15.452 E3.2465
G1 X-29.801 Y-15.755 E3.27324
G1 X-29.319 Y-15.99 E3.29999
G1 X-28.807 Y-16.15 E3.32675
G1 X-28.277 Y-16.233 E3.35351
G1 X-27.99 Y-16.244 E3.36784
G1 X27.991 Y-16.243 E6.16075
G1 X28.526 Y-16.203 E6.18751
G1 X29.049 Y-16.084 E6.21427
G1 X29.548 Y-15.889 E6.241
G1 X30.013 Y-15.621 E6.26778
G1 X30.433 Y-15.288 E6.29452
G1 X30.799 Y-14.896 E6.32127
G1 X31.102 Y-14.454 E6.34801
G1 X31.337 Y-13.971 E6.37481
G1 X31.497 Y-13.46 E6.40152
G1 X31.58 Y-12.93 E6.42829
G1 X31.591 Y-12.643 E6.44261
G1 X31.59 Y-.641 E7.0414
G1 X31.55 Y-.106 E7.06816
G1 X31.431 Y.417 E7.09492
G1 X31.236 Y.916 E7.12165
G1 X30.968 Y1.381 E7.14843
G1 X30.635 Y1.801 E7.17517
G1 X30.243 Y2.167 E7.20192
G1 X29.801 Y2.471 E7.22869
G1 X29.318 Y2.705 E7.25546
G1 X29.026 Y2.807 E7.27089
G1 X24.772 Y4.085 E7.4925
G1 X16.741 Y7.007 E7.91886
G1 X16.225 Y7.152 E7.9456
G1 X15.504 Y7.224 E7.98175
G0 F3600 X15.505 Y6.824
G1 F1800 X-15.715 Y6.775 E9.53933
G1 X-16.219 Y6.734 E9.56455
G1 X-16.853 Y6.564 E9.5973
G1 X-21.979 Y4.604 E9.8711
G1 X-27.232 Y2.9 E10.14661
G1 X-28.863 Y2.437 E10.2312
G1 X-29.337 Y2.261 E10.25642
G1 X-29.777 Y2.013 E10.28162
G1 X-30.173 Y1.698 E10.30687
G1 X-30.514 Y1.325 E10.33208
G1 X-30.792 Y.902 E10.35733
G1 X-31 Y.442 E10.38252
G1 X-31.133 Y-.046 E10.40776
G1 X-31.189 Y-.641 E10.43757
G1 X-31.19 Y-12.644 E11.0364
G1 X-31.15 Y-13.148 E11.06163
G1 X-31.031 Y-13.639 E11.08683
G1 X-30.837 Y-14.106 E11.11206
G1 X-30.571 Y-14.536 E11.13729
G1 X-30.241 Y-14.919 E11.16251
G1 X-29.854 Y-15.245 E11.18775
G1 X-29.422 Y-15.506 E11.21294
G1 X-28.953 Y-15.696 E11.23818
G1 X-28.46 Y-15.809 E11.26341
G1 X-27.99 Y-15.844 E11.28693
G1 X27.991 Y-15.843 E14.07983
G1 X28.495 Y-15.803 E14.10506
G1 X28.986 Y-15.684 E14.13026
G1 X29.453 Y-15.489 E14.15551
G1 X29.883 Y-15.224 E14.18071
G1 X30.266 Y-14.894 E14.20593
G1 X30.592 Y-14.507 E14.23118
G1 X30.853 Y-14.074 E14.2564
G1 X31.043 Y-13.606 E14.2816
G1 X31.156 Y-13.113 E14.30683
G1 X31.191 Y-12.643 E14.33035
G1 X31.19 Y-.641 E14.92913
G1 X31.15 Y-.137 E14.95435
G1 X31.031 Y.355 E14.97961
G1 X30.836 Y.821 E15.00481
G1 X30.571 Y1.251 E15.03001
G1 X30.24 Y1.634 E15.05526
G1 X29.854 Y1.96 E15.08047
G1 X29.421 Y2.221 E15.10569
G1 X28.911 Y2.424 E15.13308
G1 X24.641 Y3.707 E15.35552
G1 X16.604 Y6.631 E15.7822
G1 X16.117 Y6.766 E15.80741
G1 X15.505 Y6.824 E15.83808
G1 F1500 E9.33808
G0 F3600 X15.444 Y4.298
G0 X15.444 Y2.994
G0 X15.605 Y2.887
G0 X15.636 Y2.981
;TYPE:WALL-INNER
G1 F1500 E15.83808
G1 F1800 X15.449 Y3.033 E15.84776
G1 X-15.449 Y3.033 E17.38927
G1 X-15.709 Y2.958 E17.40277
G1 X-15.935 Y2.867 E17.41493
G1 X-16.152 Y2.754 E17.42713
G1 X-16.456 Y2.553 E17.44531
G1 X-16.575 Y2.454 E17.45304
G1 X-16.644 Y2.397 E17.4575
G1 X-16.691 Y2.348 E17.46089
G1 X-16.881 Y2.151 E17.47454
G1 X-16.944 Y2.071 E17.47962
G1 X-17.021 Y1.975 E17.48576
G1 X-17.051 Y1.927 E17.48859
G1 X-17.196 Y1.697 E17.50215
G1 X-17.246 Y1.597 E17.50773
G1 X-17.302 Y1.485 E17.51398
G1 X-17.387 Y1.256 E17.52616
G1 X-17.415 Y1.181 E17.53016
G1 X-17.436 Y1.1 E17.53433
G1 X-17.478 Y.943 E17.54244
G1 X-17.51 Y.747 E17.55235
G1 X-17.522 Y.673 E17.55609
G1 X-17.538 Y.326 E17.57342
G1 X-17.537 Y.297 E17.57487
G1 X-17.526 Y.095 E17.58496
G1 X-17.501 Y-.066 E17.59309
G1 X-17.479 Y-.203 E17.60001
G1 X-17.476 Y-.219 E17.60082
G1 X-17.39 Y-.551 E17.61793
G1 X-17.31 Y-.857 E17.63371
G1 X-17.306 Y-.874 E17.63458
G1 X-17.274 Y-.998 E17.64097
G1 X-17.216 Y-1.216 E17.65223
G1 X-17.212 Y-1.233 E17.6531
G1 X-17.229 Y-1.233 E17.65361
G1 X-17.23 Y-1.233 E17.65366
G1 X-27.399 Y-1.233 E18.16099
G1 X-27.399 Y-3.033 E18.2508
G1 X27.4 Y-3.033 E20.98473
G1 X27.4 Y-1.233 E21.07453
G1 X17.472 Y-1.233 E21.56984
G1 X17.471 Y-1.233 E21.56989
G1 X17.214 Y-1.233 E21.58271
G1 X17.278 Y-.984 E21.59047
G1 X17.475 Y-.22 E21.62984
G1 X17.526 Y.094 E21.64571
G1 X17.537 Y.345 E21.65824
G1 X17.517 Y.71 E21.67648
G1 X17.477 Y.95 E21.68862
G1 X17.388 Y1.264 E21.7049
G1 X17.3 Y1.492 E21.71709
G1 X17.197 Y1.697 E21.72854
G1 X17.021 Y1.973 E21.74487
G1 X16.813 Y2.228 E21.76129
G1 X16.643 Y2.398 E21.77328
G1 X16.43 Y2.573 E21.78704
G1 X16.137 Y2.763 E21.80446
G1 X15.934 Y2.867 E21.81584
G1 X15.636 Y2.981 E21.83176
G0 F3600 X15.599 Y2.304
G1 F1800 X16.008 Y2.08 E21.85502
G1 X16.273 Y1.85 E21.87253
G1 X16.371 Y1.746 E21.87966
G1 X16.578 Y1.471 E21.89683
G1 X16.732 Y1.161 E21.9141
G1 X16.788 Y.996 E21.92279
G1 X16.863 Y.713 E21.9374
G1 X16.887 Y.381 E21.954
G1 X16.886 Y.245 E21.96079
G1 X16.841 Y-.097 E21.978
G1 X16.729 Y-.441 E21.99605
G1 X16.504 Y-.85 E22.01934
G1 X16.272 Y-1.119 E22.03706
G1 X16.169 Y-1.215 E22.04408
G1 X15.895 Y-1.422 E22.06122
G1 X15.53 Y-1.601 E22.0815
G1 X15.139 Y-1.706 E22.1017
G1 X14.805 Y-1.731 E22.11841
G1 X14.669 Y-1.73 E22.12519
G1 X14.328 Y-1.685 E22.14235
G1 X13.982 Y-1.574 E22.16048
G1 X13.571 Y-1.348 E22.18388
G1 X13.306 Y-1.118 E22.20139
G1 X13.207 Y-1.014 E22.20855
G1 X13.001 Y-.738 E22.22573
G1 X12.847 Y-.428 E22.243
G1 X12.791 Y-.264 E22.25165
G1 X12.716 Y.019 E22.26625
G1 X12.692 Y.351 E22.28286
G1 X12.693 Y.486 E22.28959
G1 X12.738 Y.827 E22.30676
G1 X12.848 Y1.17 E22.32473
G1 X13.037 Y1.523 E22.3447
G1 X13.126 Y1.645 E22.35224
G1 X13.356 Y1.903 E22.36948
G1 X13.626 Y2.113 E22.38655
G1 X13.745 Y2.186 E22.39351
G1 X14.051 Y2.335 E22.41049
G1 X14.441 Y2.439 E22.43063
G1 X14.775 Y2.463 E22.44733
G1 X14.91 Y2.462 E22.45407
G1 X15.252 Y2.417 E22.47128
G1 X15.599 Y2.304 E22.48949
G0 F3600 X15.638 Y2.395
G0 X14.774 Y2.502
G0 X6.872 Y1.081
G0 X6.778 Y1.049
G1 F1800 X6.858 Y.721 E22.50633
G1 X6.876 Y.587 E22.51307
G1 X6.889 Y.248 E22.53
G1 X6.836 Y-.109 E22.54801
G1 X6.692 Y-.531 E22.57025
G1 X6.503 Y-.85 E22.58875
G1 X6.193 Y-1.2 E22.61208
G1 X5.909 Y-1.408 E22.62964
G1 X5.787 Y-1.481 E22.63673
G1 X5.472 Y-1.622 E22.65395
G1 X5.078 Y-1.716 E22.67416
G1 X4.674 Y-1.733 E22.69433
G1 X4.314 Y-1.68 E22.71249
G1 X3.892 Y-1.535 E22.73475
G1 X3.573 Y-1.346 E22.75325
G1 X3.222 Y-1.038 E22.77654
G1 X3.011 Y-.75 E22.79436
G1 X2.941 Y-.628 E22.80137
G1 X2.801 Y-.316 E22.81843
G1 X2.707 Y.076 E22.83854
G1 X2.69 Y.482 E22.85882
G1 X2.743 Y.842 E22.87697
G1 X2.888 Y1.263 E22.89919
G1 X3.074 Y1.58 E22.91752
G1 X3.337 Y1.881 E22.93747
G1 X3.448 Y1.98 E22.94489
G1 X3.731 Y2.183 E22.96226
G1 X4.038 Y2.324 E22.97912
G1 X4.167 Y2.371 E22.98597
G1 X4.5 Y2.449 E23.00303
G1 X4.863 Y2.467 E23.02116
G1 X5.307 Y2.404 E23.04353
G1 X5.689 Y2.266 E23.0638
G1 X6.005 Y2.081 E23.08207
G1 X6.355 Y1.769 E23.10546
G1 X6.565 Y1.485 E23.12308
G1 X6.637 Y1.363 E23.13015
G1 X6.778 Y1.049 E23.14732
G0 F3600 X6.872 Y1.081
G0 X6.384 Y1.795
G0 X6.028 Y2.113
G0 X5.316 Y2.442
G0 X4.864 Y2.506
G0 X4.156 Y2.409
G0 X-3.013 Y.517
G0 X-3.112 Y.51
G1 F1800 X-3.118 Y.169 E23.16433
G1 X-3.137 Y.03 E23.17133
G1 X-3.214 Y-.296 E23.18805
G1 X-3.358 Y-.627 E23.20605
G1 X-3.623 Y-1.015 E23.2295
G1 X-3.878 Y-1.256 E23.247
G1 X-3.989 Y-1.343 E23.25404
G1 X-4.286 Y-1.523 E23.27136
G1 X-4.623 Y-1.65 E23.28933
G1 X-5.06 Y-1.731 E23.3115
G1 X-5.429 Y-1.724 E23.32992
G1 X-5.865 Y-1.632 E23.35215
G1 X-6.204 Y-1.485 E23.37058
G1 X-6.592 Y-1.22 E23.39402
G1 X-6.834 Y-.961 E23.41171
G1 X-6.919 Y-.851 E23.41864
G1 X-7.099 Y-.556 E23.43588
G1 X-7.241 Y-.175 E23.45617
G1 X-7.306 Y.22 E23.47614
G1 X-7.301 Y.586 E23.4944
G1 X-7.207 Y1.022 E23.51665
G1 X-7.062 Y1.357 E23.53487
G1 X-6.84 Y1.69 E23.55483
G1 X-6.739 Y1.803 E23.56239
G1 X-6.485 Y2.039 E23.57969
G1 X-6.195 Y2.219 E23.59672
G1 X-6.071 Y2.28 E23.60362
G1 X-5.75 Y2.398 E23.62068
G1 X-5.355 Y2.462 E23.64064
G1 X-4.989 Y2.457 E23.6589
G1 X-4.554 Y2.363 E23.68111
G1 X-4.214 Y2.217 E23.69957
G1 X-3.827 Y1.952 E23.72297
G1 X-3.587 Y1.697 E23.74044
G1 X-3.5 Y1.586 E23.74747
G1 X-3.32 Y1.288 E23.76484
G1 X-3.178 Y.908 E23.78508
G1 X-3.112 Y.51 E23.80521
G0 F3600 X-3.013 Y.517
G0 X-3.284 Y1.305
G0 X-3.801 Y1.982
G0 X-4.195 Y2.252
G0 X-4.542 Y2.401
G0 X-4.985 Y2.496
G0 X-5.76 Y2.436
G0 X-13.008 Y.425
G0 X-13.107 Y.423
G1 F1800 X-13.136 Y.023 E23.82522
G1 X-13.221 Y-.308 E23.84227
G1 X-13.271 Y-.437 E23.84917
G1 X-13.422 Y-.741 E23.8661
G1 X-13.683 Y-1.08 E23.88745
G1 X-13.945 Y-1.307 E23.90474
G1 X-14.059 Y-1.389 E23.91175
G1 X-14.36 Y-1.556 E23.92892
G1 X-14.68 Y-1.664 E23.94577
G1 X-14.812 Y-1.693 E23.95251
G1 X-15.148 Y-1.736 E23.96941
G1 X-15.489 Y-1.715 E23.98646
G1 X-15.627 Y-1.691 E23.99345
G1 X-15.949 Y-1.601 E24.01013
G1 X-16.276 Y-1.444 E24.02822
G1 X-16.653 Y-1.164 E24.05165
G1 X-16.884 Y-.898 E24.06923
G1 X-16.89 Y-.89 E24.06973
G1 X-16.964 Y-.785 E24.07577
G1 X-16.972 Y-.771 E24.07652
G1 X-16.979 Y-.759 E24.07722
G1 X-17.133 Y-.484 E24.0903
G1 X-17.241 Y-.164 E24.09953
G0 X-17.271 Y-.03
G0 X-17.289 Y.124
G0 X-17.312 Y.308
G1 X-17.287 Y.655 E24.10886
G0 X-17.283 Y.71
G0 X-17.239 Y.881
G1 X-17.199 Y1.036 E24.11098
G0 X-17.178 Y1.094
G1 X-17.151 Y1.167 E24.11127
G1 X-17.055 Y1.36 E24.11503
G0 X-16.998 Y1.472
G0 X-16.962 Y1.519
G1 X-16.783 Y1.757 E24.12653
G1 X-16.682 Y1.862 E24.13053
G1 X-16.656 Y1.883 E24.13126
G1 X-16.418 Y2.085 E24.14552
G1 X-16.341 Y2.13 E24.14988
G1 X-16.122 Y2.257 E24.16251
G1 X-15.994 Y2.313 E24.16948
G1 X-15.672 Y2.417 E24.18637
G1 X-15.326 Y2.461 E24.20377
G1 X-15.148 Y2.46 E24.21265
G1 X-14.817 Y2.43 E24.22923
G1 X-14.471 Y2.334 E24.24714
G1 X-14.143 Y2.177 E24.26529
G1 X-13.766 Y1.897 E24.28871
G1 X-13.535 Y1.631 E24.30629
G1 X-13.454 Y1.517 E24.31327
G1 X-13.287 Y1.216 E24.33044
G1 X-13.178 Y.897 E24.34726
G1 X-13.148 Y.761 E24.35421
G1 X-13.107 Y.423 E24.37119
G0 F3600 X-13.509 Y.413
;TYPE:WALL-OUTER
G1 F1800 X-13.532 Y.087 E24.3875
G1 X-13.602 Y-.185 E24.40151
G1 X-13.637 Y-.275 E24.40633
G1 X-13.763 Y-.528 E24.42043
G1 X-13.976 Y-.804 E24.43782
G1 X-14.193 Y-.993 E24.45218
G1 X-14.273 Y-1.05 E24.45708
G1 X-14.522 Y-1.189 E24.47131
G1 X-14.788 Y-1.278 E24.4853
G1 X-14.881 Y-1.299 E24.49006
G1 X-15.161 Y-1.334 E24.50414
G1 X-15.442 Y-1.317 E24.51818
G1 X-15.538 Y-1.3 E24.52304
G1 X-15.808 Y-1.225 E24.53702
G1 X-16.068 Y-1.1 E24.55142
G1 X-16.379 Y-.869 E24.57075
G1 X-16.569 Y-.65 E24.58521
G1 X-16.626 Y-.57 E24.59011
G1 X-16.766 Y-.321 E24.60436
G1 X-16.855 Y-.056 E24.61831
G1 X-16.876 Y.038 E24.62311
G1 X-16.91 Y.318 E24.63719
G1 X-16.887 Y.645 E24.65354
G1 X-16.817 Y.916 E24.6675
G1 X-16.783 Y1.008 E24.6724
G1 X-16.657 Y1.26 E24.68645
G1 X-16.478 Y1.497 E24.70127
G1 X-16.408 Y1.57 E24.70632
G1 X-16.187 Y1.757 E24.72076
G1 X-15.942 Y1.899 E24.73489
G1 X-15.852 Y1.938 E24.73978
G1 X-15.584 Y2.025 E24.75384
G1 X-15.302 Y2.061 E24.76802
G1 X-15.167 Y2.06 E24.77476
G1 X-14.889 Y2.035 E24.78868
G1 X-14.612 Y1.958 E24.80303
G1 X-14.351 Y1.833 E24.81746
G1 X-14.04 Y1.602 E24.83679
G1 X-13.85 Y1.383 E24.85126
G1 X-13.793 Y1.303 E24.85616
G1 X-13.654 Y1.053 E24.87043
G1 X-13.564 Y.789 E24.88434
G1 X-13.543 Y.694 E24.8892
G1 X-13.509 Y.413 E24.90332
G0 F3600 X-13.013 Y.473
G0 X-13.235 Y-.453
G0 X-13.654 Y-1.107
G0 X-14.344 Y-1.592
G0 X-15.147 Y-1.775
G0 X-15.963 Y-1.638
G0 X-16.296 Y-1.478
G0 X-17.247 Y-.707
G0 X-17.729 Y-.833
G1 F1800 X-17.987 Y-.833 E24.91619
G1 X-27.799 Y-.833 E25.40571
G1 X-27.799 Y-3.433 E25.53543
G1 X27.8 Y-3.433 E28.30927
G1 X27.8 Y-.833 E28.43899
G1 X17.987 Y-.833 E28.92856
G1 X17.986 Y-.833 E28.92861
G1 X17.73 Y-.833 E28.94138
G1 X17.793 Y-.584 E28.94914
G1 X17.868 Y-.295 E28.96404
G1 X17.925 Y.055 E28.98173
G1 X17.938 Y.34 E28.99596
G1 X17.914 Y.763 E29.0171
G1 X17.869 Y1.032 E29.03071
G1 X17.767 Y1.394 E29.04947
G1 X17.669 Y1.646 E29.06296
G1 X17.542 Y1.899 E29.07708
G1 X17.344 Y2.21 E29.09548
G1 X17.11 Y2.497 E29.11395
G1 X16.914 Y2.693 E29.12778
G1 X16.663 Y2.899 E29.14398
G1 X16.344 Y3.106 E29.16295
G1 X16.1 Y3.231 E29.17663
G1 X15.751 Y3.365 E29.19528
G1 X15.505 Y3.433 E29.20801
G1 X-15.505 Y3.433 E30.75511
G1 X-15.844 Y3.335 E30.77271
G1 X-16.099 Y3.232 E30.78643
G1 X-16.354 Y3.1 E30.80076
G1 X-16.696 Y2.873 E30.82124
G1 X-16.919 Y2.688 E30.83569
G1 X-17.176 Y2.422 E30.85415
G1 X-17.348 Y2.205 E30.86796
G1 X-17.541 Y1.899 E30.88601
G1 X-17.671 Y1.64 E30.90047
G1 X-17.797 Y1.303 E30.91842
G1 X-17.87 Y1.027 E30.93266
G1 X-17.921 Y.712 E30.94858
G1 X-17.939 Y.334 E30.96746
G1 X-17.924 Y.047 E30.9818
G1 X-17.868 Y-.299 E30.99929
G1 X-17.794 Y-.583 E31.01393
G1 X-17.729 Y-.833 E31.02172
G0 F3600 X-17.247 Y-.707
G0 X-16.296 Y-1.478
G0 X-15.635 Y-1.73
G0 X-15.147 Y-1.775
G0 X-14.344 Y-1.592
G0 X-7.398 Y.169
G0 X-6.906 Y.25
G1 F1800 X-6.902 Y.54 E31.03619
G1 X-6.824 Y.899 E31.05452
G1 X-6.709 Y1.165 E31.06898
G1 X-6.522 Y1.445 E31.08577
G1 X-6.453 Y1.523 E31.09097
G1 X-6.241 Y1.719 E31.10537
G1 X-6 Y1.869 E31.11954
G1 X-5.913 Y1.912 E31.12438
G1 X-5.648 Y2.009 E31.13846
G1 X-5.325 Y2.062 E31.15479
G1 X-5.035 Y2.058 E31.16926
G1 X-4.676 Y1.98 E31.18759
G1 X-4.408 Y1.865 E31.20214
G1 X-4.089 Y1.646 E31.22144
G1 X-3.891 Y1.436 E31.23584
G1 X-3.83 Y1.358 E31.24078
G1 X-3.681 Y1.113 E31.25509
G1 X-3.566 Y.805 E31.27149
G1 X-3.513 Y.481 E31.28787
G1 X-3.518 Y.199 E31.30194
G1 X-3.531 Y.103 E31.30677
G1 X-3.595 Y-.169 E31.32071
G1 X-3.71 Y-.433 E31.33508
G1 X-3.929 Y-.754 E31.35447
G1 X-4.139 Y-.952 E31.36886
G1 X-4.217 Y-1.013 E31.3738
G1 X-4.462 Y-1.162 E31.38811
G1 X-4.731 Y-1.263 E31.40245
G1 X-5.093 Y-1.33 E31.42081
G1 X-5.384 Y-1.325 E31.43533
G1 X-5.743 Y-1.249 E31.45364
G1 X-6.01 Y-1.133 E31.46816
G1 X-6.33 Y-.914 E31.48751
G1 X-6.529 Y-.702 E31.50202
G1 X-6.589 Y-.624 E31.50693
G1 X-6.738 Y-.38 E31.52119
G1 X-6.853 Y-.072 E31.53759
G1 X-6.906 Y.25 E31.55387
G0 F3600 X-7.398 Y.169
G0 X-7.134 Y-.573
G0 X-6.618 Y-1.25
G0 X-6.223 Y-1.52
G0 X-5.877 Y-1.67
G0 X-5.057 Y-1.77
G0 X-4.269 Y-1.558
G0 X2.592 Y.44
G0 X3.091 Y.461
G1 F1800 X3.133 Y.747 E31.56829
G1 X3.253 Y1.095 E31.58666
G1 X3.4 Y1.345 E31.60113
G1 X3.621 Y1.599 E31.61793
G1 X3.698 Y1.667 E31.62305
G1 X3.933 Y1.836 E31.63749
G1 X4.19 Y1.954 E31.6516
G1 X4.281 Y1.987 E31.65643
G1 X4.556 Y2.051 E31.67052
G1 X4.845 Y2.066 E31.68495
G1 X5.21 Y2.014 E31.70335
G1 X5.519 Y1.902 E31.71975
G1 X5.769 Y1.756 E31.73419
G1 X6.058 Y1.498 E31.75352
G1 X6.231 Y1.264 E31.76804
G1 X6.281 Y1.179 E31.77296
G1 X6.398 Y.919 E31.78718
G1 X6.464 Y.647 E31.80114
G1 X6.477 Y.552 E31.80593
G1 X6.488 Y.27 E31.82001
G1 X6.446 Y-.014 E31.83433
G1 X6.327 Y-.362 E31.85268
G1 X6.178 Y-.613 E31.86724
G1 X5.922 Y-.903 E31.88654
G1 X5.688 Y-1.074 E31.901
G1 X5.602 Y-1.125 E31.90599
G1 X5.342 Y-1.242 E31.92021
G1 X5.023 Y-1.318 E31.93657
G1 X4.695 Y-1.332 E31.95295
G1 X4.409 Y-1.29 E31.96737
G1 X4.061 Y-1.17 E31.98574
G1 X3.809 Y-1.021 E32.00034
G1 X3.519 Y-.766 E32.01961
G1 X3.347 Y-.531 E32.03414
G1 X3.298 Y-.446 E32.03903
G1 X3.181 Y-.186 E32.05326
G1 X3.105 Y.132 E32.06957
G1 X3.091 Y.461 E32.086
G0 F3600 X2.592 Y.44
G0 X2.764 Y-.328
G0 X3.193 Y-1.065
G0 X3.876 Y-1.571
G0 X4.672 Y-1.772
G0 X5.083 Y-1.755
G0 X12.614 Y.049
G0 X13.112 Y.085
G1 F1800 X13.092 Y.363 E32.0999
G1 X13.093 Y.458 E32.10464
G1 X13.13 Y.739 E32.11878
G1 X13.218 Y1.013 E32.13314
G1 X13.377 Y1.31 E32.14995
G1 X13.438 Y1.394 E32.15513
G1 X13.63 Y1.61 E32.16955
G1 X13.854 Y1.784 E32.1837
G1 X13.937 Y1.835 E32.18856
G1 X14.191 Y1.958 E32.20264
