;FLAVOR:Marlin
;TIME:1469
;Filament used: 0.659551m
;Layer height: 0.1
;Generated with Cura_SteamEngine 3.2.1
M82 ;absolute extrusion mode
; info: M303 E0 S200 C8 ; Pid auto-tune

M140 S60; Start heating up the base
G28 ; Home to top 3 endstops
; Autolevel and adjust first layer
; Adjust this value to fit your own printer!  (positive is thicker)
; This default value is intentionally very high to accommodate the
; variety of print heads used with this printer.  Many of you will
; need tiny values like Z0 or Z0.1.  Use feeler gauges to dial this
; in as accurately as possible.
;G29 Z10

; Squirt and wipe ;
;M109 S220 ; Wait for the temp to hit 220
;G00 X125 Y-60 Z0.1 ;
;G92 E0 ;
;G01 E25 F100 ; Extrude a little bit to replace oozage from auto levelling
;G01 X90 Y-50 F6000 ;
;G01 Z5 ;

; Set the extruder to the requested print temperature
M109 S200
;LAYER_COUNT:45
;LAYER:0
M107
G0 F1500 X12.147 Y0.014 Z0.3
;TYPE:SKIRT
G1 X12.242 Y2.482 E0.10782
G1 X12.524 Y4.906 E0.21435
G1 X12.989 Y7.303 E0.32094
G1 X13.705 Y9.912 E0.43904
G1 X13.876 Y10.687 E0.47369
G1 X13.969 Y11.475 E0.50833
G1 X13.986 Y11.997 E0.53112
G1 X13.986 Y19.154 E0.84356
G1 X13.946 Y19.946 E0.87817
G1 X13.827 Y20.731 E0.91283
G1 X13.629 Y21.499 E0.94746
G1 X13.354 Y22.244 E0.98212
G1 X13.007 Y22.957 E1.01674
G1 X12.589 Y23.632 E1.0514
G1 X12.106 Y24.261 E1.08602
G1 X11.561 Y24.838 E1.12067
G1 X10.962 Y25.358 E1.15529
G1 X10.313 Y25.814 E1.18992
G1 X9.621 Y26.203 E1.22457
G1 X8.894 Y26.521 E1.25921
G1 X8.138 Y26.764 E1.29388
G1 X7.362 Y26.929 E1.32851
G1 X6.574 Y27.015 E1.36311
G1 X6.111 Y27.029 E1.38333
G1 X-4.266 Y27.029 E1.83633
G1 X-5.058 Y26.989 E1.87095
G1 X-5.843 Y26.87 E1.90561
G1 X-6.611 Y26.672 E1.94023
G1 X-7.356 Y26.397 E1.9749
G1 X-8.069 Y26.05 E2.00951
G1 X-8.744 Y25.632 E2.04417
G1 X-9.373 Y25.149 E2.07879
G1 X-9.95 Y24.604 E2.11344
G1 X-10.47 Y24.005 E2.14807
G1 X-10.926 Y23.356 E2.18269
G1 X-11.315 Y22.664 E2.21735
G1 X-11.633 Y21.937 E2.25199
G1 X-11.876 Y21.181 E2.28665
G1 X-12.041 Y20.405 E2.32129
G1 X-12.127 Y19.617 E2.35589
G1 X-12.141 Y19.154 E2.37611
G1 X-12.141 Y13.059 E2.64218
G1 X-12.663 Y11.148 E2.72866
G1 X-12.797 Y10.569 E2.7546
G1 X-13.377 Y7.574 E2.88778
G1 X-13.47 Y6.975 E2.91424
G1 X-13.819 Y3.935 E3.04782
G1 X-13.864 Y3.335 E3.07408
G1 X-13.98 Y0.275 E3.20776
G1 X-13.98 Y-.329 E3.23413
G1 X-13.861 Y-3.388 E3.36777
G1 X-13.815 Y-3.989 E3.39408
G1 X-13.463 Y-7.024 E3.52746
G1 X-13.371 Y-7.619 E3.55374
G1 X-12.792 Y-10.6 E3.6863
G1 X-12.656 Y-11.181 E3.71235
G1 X-12.141 Y-13.059 E3.79736
G1 X-12.141 Y-19.155 E4.06348
G1 X-12.101 Y-19.947 E4.09809
G1 X-11.982 Y-20.732 E4.13275
G1 X-11.784 Y-21.5 E4.16738
G1 X-11.509 Y-22.245 E4.20204
G1 X-11.162 Y-22.958 E4.23666
G1 X-10.744 Y-23.633 E4.27132
G1 X-10.261 Y-24.262 E4.30594
G1 X-9.716 Y-24.839 E4.34059
G1 X-9.117 Y-25.359 E4.37521
G1 X-8.468 Y-25.815 E4.40984
G1 X-7.776 Y-26.204 E4.44449
G1 X-7.049 Y-26.522 E4.47913
G1 X-6.293 Y-26.765 E4.5138
G1 X-5.517 Y-26.93 E4.54843
G1 X-4.729 Y-27.016 E4.58303
G1 X-4.265 Y-27.03 E4.6033
G1 X6.112 Y-27.029 E5.0563
G1 X6.904 Y-26.989 E5.09091
G1 X7.689 Y-26.869 E5.12558
G1 X8.457 Y-26.671 E5.1602
G1 X9.202 Y-26.397 E5.19485
G1 X9.915 Y-26.049 E5.22949
G1 X10.589 Y-25.632 E5.26409
G1 X11.218 Y-25.148 E5.29873
G1 X11.796 Y-24.604 E5.33338
G1 X12.315 Y-24.004 E5.36802
G1 X12.772 Y-23.355 E5.40267
G1 X13.161 Y-22.663 E5.43732
G1 X13.478 Y-21.936 E5.47194
G1 X13.721 Y-21.181 E5.50657
G1 X13.886 Y-20.405 E5.5412
G1 X13.972 Y-19.616 E5.57585
G1 X13.986 Y-19.154 E5.59602
G1 X13.986 Y-12 E5.90832
G1 X13.946 Y-11.208 E5.94294
G1 X13.827 Y-10.423 E5.9776
G1 X13.707 Y-9.922 E6.00009
G1 X12.985 Y-7.284 E6.11948
G1 X12.519 Y-4.871 E6.22677
G1 X12.239 Y-2.436 E6.33377
G1 X12.147 Y0.014 E6.44079
G0 X11.796 Y0.028
G1 X11.892 Y2.496 E6.54861
G1 X12.18 Y4.975 E6.65756
G1 X12.647 Y7.384 E6.76468
G1 X13.367 Y10.005 E6.88333
G1 X13.534 Y10.762 E6.91717
G1 X13.622 Y11.533 E6.95105
G1 X13.636 Y11.997 E6.97132
G1 X13.636 Y19.154 E7.28375
G1 X13.596 Y19.929 E7.31762
G1 X13.477 Y20.695 E7.35146
G1 X13.279 Y21.445 E7.38533
G1 X13.005 Y22.171 E7.4192
G1 X12.658 Y22.864 E7.45303
G1 X12.241 Y23.518 E7.48689
G1 X11.759 Y24.126 E7.52076
G1 X11.217 Y24.681 E7.55463
G1 X10.621 Y25.178 E7.5885
G1 X9.977 Y25.61 E7.62236
G1 X9.292 Y25.973 E7.6562
G1 X8.573 Y26.265 E7.69008
G1 X7.828 Y26.48 E7.72392
G1 X7.065 Y26.618 E7.75777
G1 X6.111 Y26.679 E7.7995
G1 X-4.266 Y26.679 E8.2525
G1 X-5.041 Y26.639 E8.28638
G1 X-5.807 Y26.52 E8.32022
G1 X-6.557 Y26.322 E8.35408
G1 X-7.283 Y26.048 E8.38795
G1 X-7.976 Y25.701 E8.42179
G1 X-8.63 Y25.284 E8.45565
G1 X-9.238 Y24.802 E8.48952
G1 X-9.793 Y24.26 E8.52338
G1 X-10.29 Y23.664 E8.55726
G1 X-10.722 Y23.02 E8.59111
G1 X-11.085 Y22.335 E8.62495
G1 X-11.377 Y21.616 E8.65883
G1 X-11.592 Y20.871 E8.69268
G1 X-11.73 Y20.108 E8.72653
G1 X-11.791 Y19.154 E8.76826
G1 X-11.791 Y13.009 E9.03651
G1 X-12.325 Y11.055 E9.12494
G1 X-12.454 Y10.503 E9.14969
G1 X-13.034 Y7.508 E9.28286
G1 X-13.122 Y6.935 E9.30817
G1 X-13.471 Y3.895 E9.44174
G1 X-13.515 Y3.322 E9.46683
G1 X-13.631 Y0.262 E9.60051
G1 X-13.63 Y-.316 E9.62574
G1 X-13.511 Y-3.375 E9.75938
G1 X-13.467 Y-3.949 E9.78451
G1 X-13.115 Y-6.984 E9.91789
G1 X-13.027 Y-7.552 E9.94298
G1 X-12.448 Y-10.533 E10.07554
G1 X-12.318 Y-11.088 E10.10043
G1 X-11.791 Y-13.01 E10.18743
G1 X-11.791 Y-19.155 E10.45568
G1 X-11.751 Y-19.93 E10.48956
G1 X-11.632 Y-20.696 E10.5234
G1 X-11.434 Y-21.446 E10.55726
G1 X-11.16 Y-22.172 E10.59113
G1 X-10.813 Y-22.865 E10.62497
G1 X-10.396 Y-23.519 E10.65883
G1 X-9.914 Y-24.127 E10.6927
G1 X-9.372 Y-24.682 E10.72656
G1 X-8.776 Y-25.179 E10.76044
G1 X-8.132 Y-25.611 E10.79429
G1 X-7.447 Y-25.974 E10.82813
G1 X-6.728 Y-26.266 E10.86201
G1 X-5.983 Y-26.481 E10.89586
G1 X-5.22 Y-26.619 E10.92971
G1 X-4.265 Y-26.68 E10.97148
G1 X6.112 Y-26.679 E11.42448
G1 X6.886 Y-26.639 E11.45831
G1 X7.653 Y-26.519 E11.4922
G1 X8.403 Y-26.322 E11.52605
G1 X9.128 Y-26.048 E11.55989
G1 X9.822 Y-25.7 E11.59378
G1 X10.476 Y-25.284 E11.62761
G1 X11.084 Y-24.802 E11.66148
G1 X11.639 Y-24.26 E11.69535
G1 X12.135 Y-23.664 E11.7292
G1 X12.567 Y-23.02 E11.76305
G1 X12.931 Y-22.335 E11.79691
G1 X13.222 Y-21.616 E11.83077
G1 X13.438 Y-20.871 E11.86463
G1 X13.575 Y-20.107 E11.89852
G1 X13.636 Y-19.154 E11.94021
G1 X13.636 Y-12 E12.25251
G1 X13.596 Y-11.225 E12.28638
G1 X13.477 Y-10.459 E12.32022
G1 X13.369 Y-10.014 E12.34021
G1 X12.643 Y-7.362 E12.46024
G1 X12.175 Y-4.94 E12.56793
G1 X11.89 Y-2.463 E12.67677
G1 X11.796 Y0.028 E12.78559
G0 X11.446 Y0.014
G1 X11.545 Y2.538 E12.89586
G1 X11.832 Y5.014 E13.00467
G1 X12.307 Y7.464 E13.11361
G1 X13.03 Y10.097 E13.23281
G1 X13.192 Y10.837 E13.26588
G1 X13.274 Y11.59 E13.29894
G1 X13.286 Y11.997 E13.31672
G1 X13.286 Y19.154 E13.62915
G1 X13.246 Y19.91 E13.6622
G1 X13.127 Y20.658 E13.69526
G1 X12.929 Y21.389 E13.72832
G1 X12.655 Y22.096 E13.76142
G1 X12.309 Y22.769 E13.79446
G1 X11.893 Y23.402 E13.82752
G1 X11.413 Y23.988 E13.86059
G1 X10.874 Y24.52 E13.89365
G1 X10.282 Y24.992 E13.9267
G1 X9.643 Y25.399 E13.95977
G1 X8.965 Y25.737 E13.99285
G1 X8.256 Y26.001 E14.02587
G1 X7.522 Y26.189 E14.05895
G1 X6.773 Y26.298 E14.09199
G1 X6.111 Y26.329 E14.12092
G1 X-4.266 Y26.329 E14.57392
G1 X-5.022 Y26.289 E14.60697
G1 X-5.77 Y26.17 E14.64003
G1 X-6.501 Y25.972 E14.67309
G1 X-7.208 Y25.698 E14.70619
G1 X-7.881 Y25.352 E14.73923
G1 X-8.514 Y24.936 E14.77229
G1 X-9.1 Y24.456 E14.80536
G1 X-9.632 Y23.917 E14.83842
G1 X-10.104 Y23.325 E14.87147
G1 X-10.511 Y22.686 E14.90454
G1 X-10.849 Y22.008 E14.93762
G1 X-11.113 Y21.299 E14.97064
G1 X-11.301 Y20.565 E15.00372
G1 X-11.41 Y19.816 E15.03676
G1 X-11.441 Y19.154 E15.06569
G1 X-11.441 Y12.961 E15.33604
G1 X-11.987 Y10.963 E15.42646
G1 X-12.11 Y10.436 E15.45008
G1 X-12.69 Y7.441 E15.58325
G1 X-12.774 Y6.895 E15.60737
G1 X-13.123 Y3.855 E15.74095
G1 X-13.165 Y3.309 E15.76485
G1 X-13.281 Y0.249 E15.89853
G1 X-13.281 Y-.302 E15.92258
G1 X-13.162 Y-3.361 E16.05622
G1 X-13.119 Y-3.909 E16.08022
G1 X-12.767 Y-6.944 E16.2136
G1 X-12.683 Y-7.485 E16.2375
G1 X-12.104 Y-10.466 E16.37006
G1 X-11.981 Y-10.996 E16.39381
G1 X-11.441 Y-12.965 E16.48294
G1 X-11.441 Y-19.155 E16.75316
G1 X-11.401 Y-19.911 E16.78621
G1 X-11.282 Y-20.659 E16.81927
G1 X-11.084 Y-21.39 E16.85233
G1 X-10.81 Y-22.097 E16.88543
G1 X-10.464 Y-22.77 E16.91847
G1 X-10.048 Y-23.403 E16.95153
G1 X-9.568 Y-23.989 E16.9846
G1 X-9.029 Y-24.521 E17.01766
G1 X-8.437 Y-24.993 E17.05071
G1 X-7.798 Y-25.4 E17.08378
G1 X-7.12 Y-25.738 E17.11686
G1 X-6.411 Y-26.002 E17.14988
G1 X-5.677 Y-26.19 E17.18296
G1 X-4.928 Y-26.299 E17.216
G1 X-4.265 Y-26.33 E17.24497
G1 X6.112 Y-26.329 E17.69797
G1 X6.868 Y-26.289 E17.73102
G1 X7.616 Y-26.169 E17.76409
G1 X8.347 Y-25.972 E17.79714
G1 X9.053 Y-25.698 E17.8302
G1 X9.727 Y-25.351 E17.86329
G1 X10.36 Y-24.936 E17.89633
G1 X10.945 Y-24.456 E17.92937
G1 X11.477 Y-23.917 E17.96243
G1 X11.95 Y-23.324 E17.99554
G1 X12.357 Y-22.686 E18.02858
G1 X12.694 Y-22.008 E18.06163
G1 X12.958 Y-21.298 E18.0947
G1 X13.146 Y-20.564 E18.12777
G1 X13.256 Y-19.815 E18.16082
G1 X13.286 Y-19.154 E18.18971
G1 X13.286 Y-12 E18.50201
G1 X13.246 Y-11.244 E18.53505
G1 X13.127 Y-10.496 E18.56812
G1 X13.032 Y-10.107 E18.5856
G1 X12.304 Y-7.445 E18.70607
G1 X11.827 Y-4.98 E18.81568
G1 X11.541 Y-2.49 E18.92509
G1 X11.446 Y0.014 E19.03448
G0 X11.096 Y0.015
G1 X11.195 Y2.565 E19.14588
G1 X11.486 Y5.07 E19.25597
G1 X11.966 Y7.545 E19.36602
G1 X12.692 Y10.19 E19.48576
G1 X12.849 Y10.912 E19.51801
G1 X12.936 Y11.997 E19.56553
G1 X12.936 Y19.154 E19.87796
G1 X12.896 Y19.892 E19.91022
G1 X12.777 Y20.62 E19.94243
G1 X12.579 Y21.332 E19.97469
G1 X12.306 Y22.018 E20.00692
G1 X11.96 Y22.671 E20.03918
G1 X11.546 Y23.283 E20.07143
G1 X11.068 Y23.846 E20.10367
G1 X10.532 Y24.354 E20.13591
G1 X9.944 Y24.801 E20.16816
G1 X9.311 Y25.182 E20.20041
G1 X8.641 Y25.493 E20.23265
G1 X7.941 Y25.729 E20.2649
G1 X7.22 Y25.888 E20.29713
G1 X6.485 Y25.969 E20.32941
G1 X6.111 Y25.979 E20.34574
G1 X-4.266 Y25.979 E20.79874
G1 X-5.004 Y25.939 E20.831
G1 X-5.732 Y25.82 E20.86321
G1 X-6.444 Y25.622 E20.89547
G1 X-7.13 Y25.349 E20.9277
G1 X-7.783 Y25.003 E20.95996
G1 X-8.395 Y24.589 E20.99221
G1 X-8.958 Y24.111 E21.02445
G1 X-9.466 Y23.575 E21.05669
G1 X-9.913 Y22.987 E21.08893
G1 X-10.294 Y22.354 E21.12119
G1 X-10.605 Y21.684 E21.15343
G1 X-10.841 Y20.984 E21.18568
G1 X-11 Y20.263 E21.21791
G1 X-11.081 Y19.528 E21.25019
G1 X-11.091 Y19.154 E21.26652
G1 X-11.091 Y12.917 E21.53879
G1 X-11.65 Y10.871 E21.63138
G1 X-11.767 Y10.37 E21.65384
G1 X-12.347 Y7.375 E21.78701
G1 X-12.426 Y6.855 E21.80997
G1 X-12.775 Y3.815 E21.94355
G1 X-12.815 Y3.296 E21.96628
G1 X-12.931 Y0.236 E22.09995
G1 X-12.931 Y-.288 E22.12283
G1 X-12.812 Y-3.347 E22.25647
G1 X-12.772 Y-3.868 E22.27928
G1 X-12.42 Y-6.903 E22.41266
G1 X-12.34 Y-7.418 E22.43541
G1 X-11.761 Y-10.399 E22.56797
G1 X-11.643 Y-10.903 E22.59057
G1 X-11.091 Y-12.916 E22.68169
G1 X-11.091 Y-19.155 E22.95404
G1 X-11.051 Y-19.893 E22.98631
G1 X-10.932 Y-20.621 E23.01851
G1 X-10.734 Y-21.333 E23.05077
G1 X-10.461 Y-22.019 E23.083
G1 X-10.115 Y-22.672 E23.11526
G1 X-9.701 Y-23.284 E23.14752
G1 X-9.223 Y-23.847 E23.17976
G1 X-8.687 Y-24.355 E23.212
G1 X-8.099 Y-24.802 E23.24424
G1 X-7.466 Y-25.183 E23.27649
G1 X-6.796 Y-25.494 E23.30874
G1 X-6.096 Y-25.73 E23.34098
G1 X-5.375 Y-25.889 E23.37322
G1 X-4.64 Y-25.97 E23.4055
G1 X-4.265 Y-25.98 E23.42187
G1 X6.112 Y-25.979 E23.87487
G1 X6.849 Y-25.939 E23.90709
G1 X7.578 Y-25.819 E23.93934
G1 X8.29 Y-25.622 E23.97159
G1 X8.976 Y-25.349 E24.00382
G1 X9.629 Y-25.003 E24.03608
G1 X10.24 Y-24.588 E24.06832
G1 X10.803 Y-24.11 E24.10056
G1 X11.311 Y-23.574 E24.1328
G1 X11.759 Y-22.986 E24.16507
G1 X12.14 Y-22.353 E24.19732
G1 X12.45 Y-21.683 E24.22955
G1 X12.686 Y-20.983 E24.2618
G1 X12.845 Y-20.262 E24.29403
G1 X12.926 Y-19.528 E24.32627
G1 X12.936 Y-19.154 E24.3426
G1 X12.936 Y-12 E24.6549
G1 X12.896 Y-11.262 E24.68716
G1 X12.694 Y-10.199 E24.7344
G1 X11.962 Y-7.522 E24.85555
G1 X11.481 Y-5.036 E24.96609
G1 X11.191 Y-2.517 E25.07678
G1 X11.096 Y0.015 E25.18739
G0 X10.745 Y0.015
G1 X10.845 Y2.581 E25.29949
G1 X11.14 Y5.121 E25.41111
G1 X11.626 Y7.629 E25.52263
G1 X12.355 Y10.283 E25.64278
G1 X12.507 Y10.986 E25.67418
G1 X12.586 Y11.997 E25.71845
G1 X12.586 Y19.154 E26.03088
G1 X12.546 Y19.872 E26.06227
G1 X12.427 Y20.582 E26.0937
G1 X12.229 Y21.274 E26.12512
G1 X11.956 Y21.939 E26.1565
G1 X11.611 Y22.571 E26.18793
G1 X11.198 Y23.16 E26.21934
G1 X10.722 Y23.699 E26.25073
G1 X10.19 Y24.183 E26.28212
G1 X9.607 Y24.604 E26.31352
G1 X8.98 Y24.958 E26.34495
G1 X8.319 Y25.241 E26.37634
G1 X7.63 Y25.448 E26.40774
G1 X6.922 Y25.578 E26.43917
G1 X6.111 Y25.629 E26.47464
G1 X-4.266 Y25.629 E26.92764
G1 X-4.984 Y25.589 E26.95903
G1 X-5.694 Y25.47 E26.99046
G1 X-6.386 Y25.272 E27.02188
G1 X-7.051 Y24.999 E27.05326
G1 X-7.683 Y24.654 E27.08469
G1 X-8.272 Y24.241 E27.11609
G1 X-8.811 Y23.765 E27.14748
G1 X-9.295 Y23.233 E27.17888
G1 X-9.716 Y22.65 E27.21027
G1 X-10.07 Y22.023 E27.24171
G1 X-10.353 Y21.362 E27.27309
G1 X-10.56 Y20.673 E27.3045
G1 X-10.69 Y19.965 E27.33592
G1 X-10.741 Y19.154 E27.3714
G1 X-10.741 Y12.869 E27.64576
G1 X-11.312 Y10.779 E27.74034
G1 X-11.423 Y10.303 E27.76168
G1 X-12.003 Y7.308 E27.89485
G1 X-12.079 Y6.815 E27.91663
G1 X-12.428 Y3.775 E28.05021
G1 X-12.465 Y3.282 E28.07179
G1 X-12.581 Y0.222 E28.20547
G1 X-12.581 Y-.275 E28.22716
G1 X-12.462 Y-3.334 E28.3608
G1 X-12.424 Y-3.828 E28.38243
G1 X-12.072 Y-6.863 E28.51581
G1 X-11.996 Y-7.352 E28.53741
G1 X-11.417 Y-10.333 E28.66997
G1 X-11.305 Y-10.81 E28.69136
G1 X-10.741 Y-12.867 E28.78447
G1 X-10.741 Y-19.155 E29.05897
G1 X-10.701 Y-19.873 E29.09036
G1 X-10.582 Y-20.583 E29.12179
G1 X-10.384 Y-21.275 E29.15321
G1 X-10.111 Y-21.94 E29.18459
G1 X-9.766 Y-22.572 E29.21602
G1 X-9.353 Y-23.161 E29.24743
G1 X-8.877 Y-23.7 E29.27882
G1 X-8.345 Y-24.184 E29.31021
G1 X-7.762 Y-24.605 E29.34161
G1 X-7.135 Y-24.959 E29.37304
G1 X-6.474 Y-25.242 E29.40443
G1 X-5.785 Y-25.449 E29.43583
G1 X-5.077 Y-25.579 E29.46726
G1 X-4.265 Y-25.63 E29.50277
G1 X6.112 Y-25.629 E29.95577
G1 X6.83 Y-25.589 E29.98716
G1 X7.539 Y-25.469 E30.01855
G1 X8.231 Y-25.272 E30.04996
G1 X8.897 Y-24.999 E30.08138
G1 X9.528 Y-24.654 E30.11278
G1 X10.117 Y-24.241 E30.14418
G1 X10.657 Y-23.765 E30.1756
G1 X11.14 Y-23.232 E30.207
G1 X11.562 Y-22.649 E30.23842
G1 X11.916 Y-22.023 E30.26982
G1 X12.198 Y-21.361 E30.30123
G1 X12.405 Y-20.672 E30.33263
G1 X12.535 Y-19.965 E30.36401
G1 X12.586 Y-19.154 E30.39949
G1 X12.586 Y-12 E30.71179
G1 X12.546 Y-11.282 E30.74318
G1 X12.357 Y-10.291 E30.78722
G1 X11.618 Y-7.59 E30.90946
G1 X11.137 Y-5.101 E31.02013
G1 X10.841 Y-2.532 E31.13302
G1 X10.745 Y0.015 E31.24428
G0 X10.395 Y0.029
G1 X10.496 Y2.609 E31.357
G1 X10.794 Y5.177 E31.46985
G1 X11.284 Y7.706 E31.58231
G1 X12.017 Y10.375 E31.70313
G1 X12.164 Y11.059 E31.73367
G1 X12.236 Y11.997 E31.77474
G1 X12.236 Y19.154 E32.08717
G1 X12.196 Y19.853 E32.11774
G1 X12.077 Y20.542 E32.14826
G1 X11.879 Y21.213 E32.1788
G1 X11.607 Y21.858 E32.20936
G1 X11.263 Y22.467 E32.23989
G1 X10.851 Y23.033 E32.27045
G1 X10.378 Y23.548 E32.30098
G1 X9.849 Y24.006 E32.33152
G1 X9.271 Y24.401 E32.36208
G1 X8.652 Y24.727 E32.39262
G1 X8 Y24.981 E32.42317
G1 X7.323 Y25.158 E32.45372
G1 X6.63 Y25.257 E32.48428
G1 X6.111 Y25.279 E32.50695
G1 X-4.266 Y25.279 E32.95995
G1 X-4.965 Y25.239 E32.99051
G1 X-5.654 Y25.12 E33.02104
G1 X-6.325 Y24.922 E33.05158
G1 X-6.97 Y24.65 E33.08213
G1 X-7.579 Y24.306 E33.11267
G1 X-8.145 Y23.894 E33.14323
G1 X-8.66 Y23.421 E33.17375
G1 X-9.118 Y22.892 E33.2043
G1 X-9.513 Y22.314 E33.23486
G1 X-9.839 Y21.695 E33.2654
G1 X-10.093 Y21.043 E33.29595
G1 X-10.27 Y20.366 E33.32649
G1 X-10.369 Y19.673 E33.35705
G1 X-10.391 Y19.154 E33.37973
G1 X-10.391 Y12.82 E33.65623
G1 X-10.974 Y10.686 E33.7528
G1 X-11.079 Y10.237 E33.77293
G1 X-11.659 Y7.242 E33.90611
G1 X-11.731 Y6.776 E33.92669
G1 X-12.08 Y3.736 E34.06027
G1 X-12.116 Y3.269 E34.08072
G1 X-12.232 Y0.209 E34.21439
G1 X-12.231 Y-.261 E34.23491
G1 X-12.112 Y-3.32 E34.36855
G1 X-12.076 Y-3.788 E34.38904
G1 X-11.724 Y-6.823 E34.52242
G1 X-11.653 Y-7.285 E34.54282
