;FLAVOR:Marlin
;TIME:1939
;Filament used: 0.792886m
;Layer height: 0.1
;Generated with Cura_SteamEngine 3.2.1
M82 ;absolute extrusion mode
; info: M303 E0 S200 C8 ; Pid auto-tune

M140 S60; Start heating up the base
G28 ; Home to top 3 endstops
; Autolevel and adjust first layer
; Adjust this value to fit your own printer!  (positive is thicker)
; This default value is intentionally very high to accommodate the
; variety of print heads used with this printer.  Many of you will
; need tiny values like Z0 or Z0.1.  Use feeler gauges to dial this
; in as accurately as possible.
;G29 Z10

; Squirt and wipe ;
;M109 S220 ; Wait for the temp to hit 220
;G00 X125 Y-60 Z0.1 ;
;G92 E0 ;
;G01 E25 F100 ; Extrude a little bit to replace oozage from auto levelling
;G01 X90 Y-50 F6000 ;
;G01 Z5 ;

; Set the extruder to the requested print temperature
M109 S200
;LAYER_COUNT:89
;LAYER:0
M107
G0 F1500 X12.147 Y0.014 Z0.3
;TYPE:SKIRT
G1 X12.242 Y2.482 E0.10782
G1 X12.524 Y4.906 E0.21435
G1 X12.989 Y7.303 E0.32094
G1 X13.705 Y9.912 E0.43904
G1 X13.876 Y10.687 E0.47369
G1 X13.969 Y11.475 E0.50833
G1 X13.986 Y11.997 E0.53112
G1 X13.986 Y19.155 E0.8436
G1 X13.946 Y19.947 E0.87822
G1 X13.827 Y20.732 E0.91288
G1 X13.629 Y21.5 E0.9475
G1 X13.354 Y22.245 E0.98217
G1 X13.007 Y22.958 E1.01678
G1 X12.589 Y23.633 E1.05144
G1 X12.106 Y24.262 E1.08606
G1 X11.561 Y24.839 E1.12071
G1 X10.962 Y25.359 E1.15534
G1 X10.313 Y25.815 E1.18996
G1 X9.621 Y26.204 E1.22462
G1 X8.894 Y26.522 E1.25926
G1 X8.138 Y26.765 E1.29392
G1 X7.362 Y26.93 E1.32855
G1 X6.574 Y27.016 E1.36316
G1 X6.112 Y27.03 E1.38333
G1 X-4.265 Y27.031 E1.83633
G1 X-5.058 Y26.991 E1.87099
G1 X-5.842 Y26.872 E1.90561
G1 X-6.611 Y26.674 E1.94027
G1 X-7.355 Y26.4 E1.97489
G1 X-8.068 Y26.052 E2.00952
G1 X-8.743 Y25.634 E2.04418
G1 X-9.372 Y25.151 E2.0788
G1 X-9.95 Y24.607 E2.11345
G1 X-10.469 Y24.007 E2.14808
G1 X-10.926 Y23.358 E2.18273
G1 X-11.315 Y22.667 E2.21735
G1 X-11.633 Y21.94 E2.25199
G1 X-11.875 Y21.184 E2.28664
G1 X-12.041 Y20.408 E2.32128
G1 X-12.127 Y19.619 E2.35593
G1 X-12.141 Y19.156 E2.37615
G1 X-12.141 Y13.059 E2.64231
G1 X-12.663 Y11.148 E2.72879
G1 X-12.797 Y10.569 E2.75473
G1 X-13.377 Y7.574 E2.8879
G1 X-13.47 Y6.975 E2.91436
G1 X-13.819 Y3.935 E3.04794
G1 X-13.864 Y3.335 E3.07421
G1 X-13.98 Y0.275 E3.20789
G1 X-13.98 Y-.329 E3.23425
G1 X-13.861 Y-3.388 E3.36789
G1 X-13.815 Y-3.989 E3.3942
G1 X-13.463 Y-7.024 E3.52758
G1 X-13.371 Y-7.619 E3.55387
G1 X-12.792 Y-10.6 E3.68643
G1 X-12.656 Y-11.181 E3.71248
G1 X-12.141 Y-13.059 E3.79749
G1 X-12.141 Y-19.155 E4.0636
G1 X-12.101 Y-19.947 E4.09822
G1 X-11.982 Y-20.732 E4.13288
G1 X-11.784 Y-21.5 E4.1675
G1 X-11.509 Y-22.245 E4.20217
G1 X-11.162 Y-22.958 E4.23678
G1 X-10.744 Y-23.633 E4.27144
G1 X-10.261 Y-24.262 E4.30606
G1 X-9.716 Y-24.839 E4.34071
G1 X-9.117 Y-25.359 E4.37534
G1 X-8.468 Y-25.815 E4.40996
G1 X-7.776 Y-26.204 E4.44462
G1 X-7.049 Y-26.522 E4.47926
G1 X-6.293 Y-26.765 E4.51392
G1 X-5.517 Y-26.93 E4.54856
G1 X-4.729 Y-27.016 E4.58316
G1 X-4.267 Y-27.03 E4.60334
G1 X6.11 Y-27.031 E5.05633
G1 X6.903 Y-26.991 E5.09099
G1 X7.687 Y-26.872 E5.12561
G1 X8.456 Y-26.674 E5.16028
G1 X9.2 Y-26.4 E5.19489
G1 X9.913 Y-26.052 E5.22952
G1 X10.588 Y-25.634 E5.26418
G1 X11.217 Y-25.151 E5.2988
G1 X11.795 Y-24.607 E5.33345
G1 X12.314 Y-24.007 E5.36808
G1 X12.771 Y-23.358 E5.40273
G1 X13.16 Y-22.667 E5.43735
G1 X13.478 Y-21.94 E5.47199
G1 X13.72 Y-21.184 E5.50664
G1 X13.886 Y-20.408 E5.54128
G1 X13.972 Y-19.619 E5.57593
G1 X13.986 Y-19.156 E5.59615
G1 X13.986 Y-12 E5.90854
G1 X13.946 Y-11.208 E5.94316
G1 X13.827 Y-10.423 E5.97782
G1 X13.707 Y-9.922 E6.00031
G1 X12.985 Y-7.284 E6.1197
G1 X12.519 Y-4.871 E6.22698
G1 X12.239 Y-2.436 E6.33398
G1 X12.147 Y0.014 E6.44101
G0 X11.796 Y0.028
G1 X11.892 Y2.496 E6.54883
G1 X12.18 Y4.975 E6.65777
G1 X12.647 Y7.384 E6.76489
G1 X13.367 Y10.005 E6.88355
G1 X13.534 Y10.762 E6.91739
G1 X13.622 Y11.533 E6.95127
G1 X13.636 Y11.997 E6.97153
G1 X13.636 Y19.155 E7.284
G1 X13.596 Y19.93 E7.31788
G1 X13.477 Y20.696 E7.35172
G1 X13.279 Y21.446 E7.38558
G1 X13.005 Y22.172 E7.41946
G1 X12.658 Y22.865 E7.45329
G1 X12.241 Y23.519 E7.48715
G1 X11.759 Y24.127 E7.52102
G1 X11.217 Y24.682 E7.55489
G1 X10.621 Y25.179 E7.58876
G1 X9.977 Y25.611 E7.62261
G1 X9.292 Y25.974 E7.65646
G1 X8.573 Y26.266 E7.69033
G1 X7.828 Y26.481 E7.72418
G1 X7.065 Y26.619 E7.75803
G1 X6.112 Y26.68 E7.79972
G1 X-4.265 Y26.681 E8.25272
G1 X-5.04 Y26.641 E8.28659
G1 X-5.806 Y26.522 E8.32043
G1 X-6.556 Y26.324 E8.35429
G1 X-7.282 Y26.05 E8.38817
G1 X-7.976 Y25.703 E8.42204
G1 X-8.63 Y25.286 E8.4559
G1 X-9.238 Y24.805 E8.48974
G1 X-9.793 Y24.263 E8.52361
G1 X-10.289 Y23.667 E8.55746
G1 X-10.721 Y23.023 E8.59131
G1 X-11.085 Y22.338 E8.62517
G1 X-11.376 Y21.619 E8.65903
G1 X-11.592 Y20.874 E8.69289
G1 X-11.73 Y20.111 E8.72674
G1 X-11.791 Y19.156 E8.76852
G1 X-11.791 Y13.009 E9.03686
G1 X-12.325 Y11.055 E9.12529
G1 X-12.454 Y10.503 E9.15003
G1 X-13.034 Y7.508 E9.2832
G1 X-13.122 Y6.935 E9.30851
G1 X-13.471 Y3.895 E9.44209
G1 X-13.515 Y3.322 E9.46718
G1 X-13.631 Y0.262 E9.60085
G1 X-13.63 Y-.316 E9.62609
G1 X-13.511 Y-3.375 E9.75973
G1 X-13.467 Y-3.949 E9.78486
G1 X-13.115 Y-6.984 E9.91823
G1 X-13.027 Y-7.552 E9.94333
G1 X-12.448 Y-10.533 E10.07589
G1 X-12.318 Y-11.088 E10.10077
G1 X-11.791 Y-13.01 E10.18777
G1 X-11.791 Y-19.155 E10.45603
G1 X-11.751 Y-19.93 E10.4899
G1 X-11.632 Y-20.696 E10.52374
G1 X-11.434 Y-21.446 E10.55761
G1 X-11.16 Y-22.172 E10.59148
G1 X-10.813 Y-22.865 E10.62531
G1 X-10.396 Y-23.519 E10.65917
G1 X-9.914 Y-24.127 E10.69304
G1 X-9.372 Y-24.682 E10.72691
G1 X-8.776 Y-25.179 E10.76078
G1 X-8.132 Y-25.611 E10.79464
G1 X-7.447 Y-25.974 E10.82848
G1 X-6.728 Y-26.266 E10.86236
G1 X-5.983 Y-26.481 E10.8962
G1 X-5.22 Y-26.619 E10.93005
G1 X-4.267 Y-26.68 E10.97174
G1 X6.11 Y-26.681 E11.42474
G1 X6.885 Y-26.641 E11.45861
G1 X7.651 Y-26.522 E11.49245
G1 X8.401 Y-26.324 E11.52632
G1 X9.127 Y-26.05 E11.56019
G1 X9.821 Y-25.703 E11.59406
G1 X10.475 Y-25.286 E11.62792
G1 X11.083 Y-24.805 E11.66176
G1 X11.638 Y-24.263 E11.69563
G1 X12.134 Y-23.667 E11.72948
G1 X12.566 Y-23.023 E11.76333
G1 X12.93 Y-22.338 E11.79719
G1 X13.221 Y-21.619 E11.83105
G1 X13.437 Y-20.874 E11.86492
G1 X13.575 Y-20.111 E11.89876
G1 X13.636 Y-19.156 E11.94054
G1 X13.636 Y-12 E12.25293
G1 X13.596 Y-11.225 E12.2868
G1 X13.477 Y-10.459 E12.32064
G1 X13.369 Y-10.014 E12.34063
G1 X12.643 Y-7.362 E12.46066
G1 X12.175 Y-4.94 E12.56835
G1 X11.89 Y-2.463 E12.67719
G1 X11.796 Y0.028 E12.78601
G0 X11.446 Y0.014
G1 X11.545 Y2.538 E12.89628
G1 X11.832 Y5.014 E13.00509
G1 X12.307 Y7.464 E13.11403
G1 X13.03 Y10.097 E13.23323
G1 X13.192 Y10.837 E13.2663
G1 X13.274 Y11.59 E13.29936
G1 X13.286 Y11.997 E13.31714
G1 X13.286 Y19.155 E13.62961
G1 X13.246 Y19.911 E13.66266
G1 X13.127 Y20.659 E13.69573
G1 X12.929 Y21.39 E13.72879
G1 X12.655 Y22.097 E13.76189
G1 X12.309 Y22.77 E13.79492
G1 X11.893 Y23.403 E13.82799
G1 X11.413 Y23.989 E13.86105
G1 X10.874 Y24.521 E13.89411
G1 X10.282 Y24.993 E13.92717
G1 X9.643 Y25.4 E13.96024
G1 X8.965 Y25.738 E13.99331
G1 X8.256 Y26.002 E14.02634
G1 X7.522 Y26.19 E14.05941
G1 X6.773 Y26.299 E14.09245
G1 X6.112 Y26.33 E14.12134
G1 X-4.265 Y26.331 E14.57434
G1 X-5.022 Y26.291 E14.60743
G1 X-5.77 Y26.172 E14.64049
G1 X-6.501 Y25.974 E14.67355
G1 X-7.207 Y25.701 E14.7066
G1 X-7.88 Y25.354 E14.73965
G1 X-8.514 Y24.939 E14.77273
G1 X-9.099 Y24.459 E14.80577
G1 X-9.631 Y23.92 E14.83883
G1 X-10.104 Y23.328 E14.8719
G1 X-10.511 Y22.689 E14.90498
G1 X-10.849 Y22.011 E14.93805
G1 X-11.113 Y21.301 E14.97112
G1 X-11.301 Y20.568 E15.00415
G1 X-11.41 Y19.818 E15.03723
G1 X-11.441 Y19.156 E15.06617
G1 X-11.441 Y12.961 E15.3366
G1 X-11.987 Y10.963 E15.42702
G1 X-12.11 Y10.436 E15.45064
G1 X-12.69 Y7.441 E15.58382
G1 X-12.774 Y6.895 E15.60793
G1 X-13.123 Y3.855 E15.74151
G1 X-13.165 Y3.309 E15.76542
G1 X-13.281 Y0.249 E15.89909
G1 X-13.281 Y-.302 E15.92315
G1 X-13.162 Y-3.361 E16.05679
G1 X-13.119 Y-3.909 E16.08078
G1 X-12.767 Y-6.944 E16.21416
G1 X-12.683 Y-7.485 E16.23806
G1 X-12.104 Y-10.466 E16.37062
G1 X-11.981 Y-10.996 E16.39437
G1 X-11.441 Y-12.965 E16.4835
G1 X-11.441 Y-19.155 E16.75372
G1 X-11.401 Y-19.911 E16.78677
G1 X-11.282 Y-20.659 E16.81983
G1 X-11.084 Y-21.39 E16.85289
G1 X-10.81 Y-22.097 E16.88599
G1 X-10.464 Y-22.77 E16.91903
G1 X-10.048 Y-23.403 E16.95209
G1 X-9.568 Y-23.989 E16.98516
G1 X-9.029 Y-24.521 E17.01822
G1 X-8.437 Y-24.993 E17.05127
G1 X-7.798 Y-25.4 E17.08435
G1 X-7.12 Y-25.738 E17.11742
G1 X-6.411 Y-26.002 E17.15044
G1 X-5.677 Y-26.19 E17.18352
G1 X-4.928 Y-26.299 E17.21656
G1 X-4.267 Y-26.33 E17.24545
G1 X6.11 Y-26.331 E17.69845
G1 X6.867 Y-26.291 E17.73154
G1 X7.615 Y-26.172 E17.7646
G1 X8.346 Y-25.974 E17.79766
G1 X9.052 Y-25.701 E17.83071
G1 X9.725 Y-25.354 E17.86376
G1 X10.359 Y-24.939 E17.89684
G1 X10.944 Y-24.459 E17.92987
G1 X11.476 Y-23.92 E17.96293
G1 X11.949 Y-23.328 E17.99601
G1 X12.356 Y-22.689 E18.02909
G1 X12.694 Y-22.011 E18.06216
G1 X12.958 Y-21.301 E18.09522
G1 X13.146 Y-20.568 E18.12826
G1 X13.255 Y-19.818 E18.16134
G1 X13.286 Y-19.156 E18.19027
G1 X13.286 Y-12 E18.50266
G1 X13.246 Y-11.244 E18.53571
G1 X13.127 Y-10.496 E18.56877
G1 X13.032 Y-10.107 E18.58625
G1 X12.304 Y-7.445 E18.70673
G1 X11.827 Y-4.98 E18.81633
G1 X11.541 Y-2.49 E18.92574
G1 X11.446 Y0.014 E19.03513
G0 X11.096 Y0.015
G1 X11.195 Y2.565 E19.14653
G1 X11.486 Y5.07 E19.25662
G1 X11.966 Y7.545 E19.36668
G1 X12.692 Y10.19 E19.48641
G1 X12.849 Y10.912 E19.51867
G1 X12.936 Y11.997 E19.56618
G1 X12.936 Y19.155 E19.87866
G1 X12.896 Y19.893 E19.91092
G1 X12.777 Y20.621 E19.94312
G1 X12.579 Y21.333 E19.97539
G1 X12.306 Y22.019 E20.00762
G1 X11.96 Y22.672 E20.03988
G1 X11.546 Y23.284 E20.07213
G1 X11.068 Y23.847 E20.10437
G1 X10.532 Y24.355 E20.13661
G1 X9.944 Y24.802 E20.16885
G1 X9.311 Y25.183 E20.20111
G1 X8.641 Y25.494 E20.23335
G1 X7.941 Y25.73 E20.2656
G1 X7.22 Y25.889 E20.29783
G1 X6.485 Y25.97 E20.33011
G1 X6.112 Y25.98 E20.3464
G1 X-4.265 Y25.981 E20.7994
G1 X-5.003 Y25.941 E20.83166
G1 X-5.732 Y25.822 E20.8639
G1 X-6.444 Y25.624 E20.89617
G1 X-7.13 Y25.351 E20.9284
G1 X-7.783 Y25.005 E20.96066
G1 X-8.394 Y24.591 E20.99288
G1 X-8.957 Y24.113 E21.02512
G1 X-9.466 Y23.577 E21.05738
G1 X-9.913 Y22.989 E21.08963
G1 X-10.294 Y22.357 E21.12184
G1 X-10.605 Y21.686 E21.15413
G1 X-10.841 Y20.987 E21.18633
G1 X-11 Y20.265 E21.21861
G1 X-11.081 Y19.531 E21.25084
G1 X-11.091 Y19.156 E21.26722
G1 X-11.091 Y12.917 E21.53958
G1 X-11.65 Y10.871 E21.63217
G1 X-11.767 Y10.37 E21.65462
G1 X-12.347 Y7.375 E21.7878
G1 X-12.426 Y6.855 E21.81076
G1 X-12.775 Y3.815 E21.94434
G1 X-12.815 Y3.296 E21.96706
G1 X-12.931 Y0.236 E22.10074
G1 X-12.931 Y-.288 E22.12361
G1 X-12.812 Y-3.347 E22.25725
G1 X-12.772 Y-3.868 E22.28006
G1 X-12.42 Y-6.903 E22.41344
G1 X-12.34 Y-7.418 E22.43619
G1 X-11.761 Y-10.399 E22.56876
G1 X-11.643 Y-10.903 E22.59135
G1 X-11.091 Y-12.916 E22.68247
G1 X-11.091 Y-19.155 E22.95483
G1 X-11.051 Y-19.893 E22.98709
G1 X-10.932 Y-20.621 E23.01929
G1 X-10.734 Y-21.333 E23.05155
G1 X-10.461 Y-22.019 E23.08379
G1 X-10.115 Y-22.672 E23.11605
G1 X-9.701 Y-23.284 E23.1483
G1 X-9.223 Y-23.847 E23.18054
G1 X-8.687 Y-24.355 E23.21278
G1 X-8.099 Y-24.802 E23.24502
G1 X-7.466 Y-25.183 E23.27727
G1 X-6.796 Y-25.494 E23.30952
G1 X-6.096 Y-25.73 E23.34177
G1 X-5.375 Y-25.889 E23.374
G1 X-4.64 Y-25.97 E23.40628
G1 X-4.267 Y-25.98 E23.42257
G1 X6.11 Y-25.981 E23.87556
G1 X6.848 Y-25.941 E23.90783
G1 X7.577 Y-25.822 E23.94007
G1 X8.289 Y-25.624 E23.97233
G1 X8.975 Y-25.351 E24.00456
G1 X9.628 Y-25.005 E24.03683
G1 X10.239 Y-24.591 E24.06904
G1 X10.802 Y-24.113 E24.10128
G1 X11.311 Y-23.577 E24.13355
G1 X11.758 Y-22.989 E24.1658
G1 X12.139 Y-22.357 E24.19801
G1 X12.45 Y-21.686 E24.2303
G1 X12.686 Y-20.987 E24.2625
G1 X12.845 Y-20.265 E24.29478
G1 X12.926 Y-19.531 E24.32701
G1 X12.936 Y-19.156 E24.34339
G1 X12.936 Y-12 E24.65578
G1 X12.896 Y-11.262 E24.68804
G1 X12.694 Y-10.199 E24.73527
G1 X11.962 Y-7.522 E24.85643
G1 X11.481 Y-5.036 E24.96696
G1 X11.191 Y-2.517 E25.07765
G1 X11.096 Y0.015 E25.18826
G0 X10.745 Y0.015
G1 X10.845 Y2.581 E25.30036
G1 X11.14 Y5.121 E25.41199
G1 X11.626 Y7.629 E25.52351
G1 X12.355 Y10.283 E25.64366
G1 X12.507 Y10.986 E25.67506
G1 X12.586 Y11.997 E25.71933
G1 X12.586 Y19.155 E26.0318
G1 X12.546 Y19.873 E26.06319
G1 X12.427 Y20.583 E26.09462
G1 X12.229 Y21.275 E26.12604
G1 X11.956 Y21.94 E26.15742
G1 X11.611 Y22.572 E26.18885
G1 X11.198 Y23.161 E26.22026
G1 X10.722 Y23.7 E26.25165
G1 X10.19 Y24.184 E26.28304
G1 X9.607 Y24.605 E26.31444
G1 X8.98 Y24.959 E26.34587
G1 X8.319 Y25.242 E26.37726
G1 X7.63 Y25.449 E26.40866
G1 X6.922 Y25.579 E26.44009
G1 X6.112 Y25.63 E26.47552
G1 X-4.265 Y25.631 E26.92851
G1 X-4.984 Y25.591 E26.95995
G1 X-5.693 Y25.472 E26.99133
G1 X-6.385 Y25.274 E27.02275
G1 X-7.051 Y25.002 E27.05416
G1 X-7.682 Y24.657 E27.08555
G1 X-8.271 Y24.244 E27.11695
G1 X-8.811 Y23.768 E27.14838
G1 X-9.294 Y23.235 E27.17978
G1 X-9.716 Y22.652 E27.2112
G1 X-10.07 Y22.026 E27.24259
G1 X-10.353 Y21.364 E27.27402
G1 X-10.56 Y20.675 E27.30543
G1 X-10.69 Y19.968 E27.33681
G1 X-10.741 Y19.156 E27.37232
G1 X-10.741 Y12.869 E27.64678
G1 X-11.312 Y10.779 E27.74136
G1 X-11.423 Y10.303 E27.76269
G1 X-12.003 Y7.308 E27.89586
G1 X-12.079 Y6.815 E27.91764
G1 X-12.428 Y3.775 E28.05122
G1 X-12.465 Y3.282 E28.0728
G1 X-12.581 Y0.222 E28.20648
G1 X-12.581 Y-.275 E28.22818
G1 X-12.462 Y-3.334 E28.36181
G1 X-12.424 Y-3.828 E28.38344
G1 X-12.072 Y-6.863 E28.51682
G1 X-11.996 Y-7.352 E28.53842
G1 X-11.417 Y-10.333 E28.67099
G1 X-11.305 Y-10.81 E28.69238
G1 X-10.741 Y-12.867 E28.78549
G1 X-10.741 Y-19.155 E29.05998
G1 X-10.701 Y-19.873 E29.09137
G1 X-10.582 Y-20.583 E29.1228
G1 X-10.384 Y-21.275 E29.15422
G1 X-10.111 Y-21.94 E29.1856
G1 X-9.766 Y-22.572 E29.21704
G1 X-9.353 Y-23.161 E29.24844
G1 X-8.877 Y-23.7 E29.27983
G1 X-8.345 Y-24.184 E29.31123
G1 X-7.762 Y-24.605 E29.34262
G1 X-7.135 Y-24.959 E29.37405
G1 X-6.474 Y-25.242 E29.40544
G1 X-5.785 Y-25.449 E29.43685
G1 X-5.077 Y-25.579 E29.46827
G1 X-4.267 Y-25.63 E29.5037
G1 X6.11 Y-25.631 E29.9567
G1 X6.829 Y-25.591 E29.98813
G1 X7.538 Y-25.472 E30.01952
G1 X8.23 Y-25.274 E30.05094
G1 X8.896 Y-25.002 E30.08234
G1 X9.527 Y-24.657 E30.11373
G1 X10.116 Y-24.244 E30.14514
G1 X10.656 Y-23.768 E30.17656
G1 X11.139 Y-23.235 E30.20796
G1 X11.561 Y-22.652 E30.23938
G1 X11.915 Y-22.026 E30.27077
G1 X12.198 Y-21.364 E30.3022
G1 X12.405 Y-20.675 E30.33361
G1 X12.535 Y-19.968 E30.36499
G1 X12.586 Y-19.156 E30.40051
G1 X12.586 Y-12 E30.71289
G1 X12.546 Y-11.282 E30.74429
G1 X12.357 Y-10.291 E30.78833
G1 X11.618 Y-7.59 E30.91057
G1 X11.137 Y-5.101 E31.02123
G1 X10.841 Y-2.532 E31.13412
G1 X10.745 Y0.015 E31.24539
G0 X10.395 Y0.029
G1 X10.496 Y2.609 E31.3581
G1 X10.794 Y5.177 E31.47096
G1 X11.284 Y7.706 E31.58341
G1 X12.017 Y10.375 E31.70424
G1 X12.164 Y11.059 E31.73478
G1 X12.236 Y11.997 E31.77585
G1 X12.236 Y19.155 E32.08832
G1 X12.196 Y19.854 E32.11889
G1 X12.077 Y20.543 E32.14941
G1 X11.879 Y21.214 E32.17995
G1 X11.607 Y21.859 E32.21051
G1 X11.263 Y22.468 E32.24104
G1 X10.851 Y23.034 E32.2716
G1 X10.378 Y23.549 E32.30213
G1 X9.849 Y24.007 E32.33267
G1 X9.271 Y24.402 E32.36323
G1 X8.652 Y24.728 E32.39377
G1 X8 Y24.982 E32.42432
G1 X7.323 Y25.159 E32.45487
G1 X6.63 Y25.258 E32.48543
G1 X6.112 Y25.28 E32.50806
G1 X-4.265 Y25.281 E32.96105
G1 X-4.964 Y25.241 E32.99162
G1 X-5.653 Y25.122 E33.02214
G1 X-6.325 Y24.925 E33.05271
G1 X-6.969 Y24.652 E33.08325
G1 X-7.579 Y24.308 E33.11382
G1 X-8.144 Y23.897 E33.14432
G1 X-8.66 Y23.423 E33.1749
G1 X-9.118 Y22.894 E33.20545
G1 X-9.513 Y22.317 E33.23598
G1 X-9.839 Y21.698 E33.26652
G1 X-10.092 Y21.045 E33.29709
G1 X-10.27 Y20.369 E33.3276
G1 X-10.369 Y19.676 E33.35816
G1 X-10.391 Y19.156 E33.38088
G1 X-10.391 Y12.82 E33.65747
G1 X-10.974 Y10.686 E33.75404
G1 X-11.079 Y10.237 E33.77417
G1 X-11.659 Y7.242 E33.90735
G1 X-11.731 Y6.776 E33.92793
G1 X-12.08 Y3.736 E34.06151
G1 X-12.116 Y3.269 E34.08196
G1 X-12.232 Y0.209 E34.21563
G1 X-12.231 Y-.261 E34.23615
G1 X-12.112 Y-3.32 E34.36979
G1 X-12.076 Y-3.788 E34.39028
G1 X-11.724 Y-6.823 E34.52366
G1 X-11.653 Y-7.285 E34.54406
