;FLAVOR:Marlin
;TIME:7173
;Filament used: 3.61268m
;Layer height: 0.1
;Generated with Cura_SteamEngine 3.5.1
M82 ;absolute extrusion mode
G21 ; set units to millimeters
G90 ; use absolute positioning
M82 ; absolute extrusion mode
M104 S200 ; set extruder temp
M140 S60 ; set bed temp
M190 S60 ; wait for bed temp
M109 S200 ; wait for extruder temp
G28 W ; home all without mesh bed level
G80 ; mesh bed leveling
G92 E0.0 ; reset extruder distance position
G1 Y-3.0 F1000.0 ; go outside print area
G1 X60.0 E9.0 F1000.0 ; intro line
G1 X100.0 E21.5 F1000.0 ; intro line
G92 E0.0 ; reset extruder distance position
G92 E0
G1 F2100 E-0.8
;LAYER_COUNT:400
;LAYER:0
M107
G0 F3600 X69.739 Y96.436 Z0.15
;TYPE:SKIRT
G1 F2100 E0
G1 F1800 X70.683 Y95.751 E0.02909
G1 X71.188 Y95.451 E0.04375
G1 X72.728 Y94.719 E0.08628
G1 X73.207 Y94.537 E0.09906
G1 X73.955 Y94.319 E0.1185
G1 X74.305 Y94.238 E0.12746
G1 X75.283 Y94.069 E0.15222
G1 X75.825 Y94.022 E0.16579
G1 X138.853 Y93.968 E1.73803
G1 X144.38 Y93.812 E1.87596
G1 X149.846 Y93.347 E2.0128
G1 X155.252 Y92.576 E2.14902
G1 X160.657 Y91.493 E2.28652
G1 X163.295 Y90.846 E2.35428
G1 X165.59 Y90.235 E2.41352
G1 X165.836 Y90.179 E2.41982
G1 X167.025 Y89.961 E2.44997
G1 X167.42 Y89.914 E2.45989
G1 X169.176 Y89.814 E2.50377
G1 X169.644 Y89.822 E2.51544
G1 X171.404 Y89.98 E2.55952
G1 X171.802 Y90.041 E2.56957
G1 X173.004 Y90.304 E2.60026
G1 X173.32 Y90.39 E2.60843
G1 X174.517 Y90.784 E2.63987
G1 X174.82 Y90.901 E2.64797
G1 X175.861 Y91.365 E2.6764
G1 X176.146 Y91.51 E2.68438
G1 X177.236 Y92.133 E2.71569
G1 X177.513 Y92.311 E2.72391
G1 X178.511 Y93.027 E2.75455
G1 X178.764 Y93.229 E2.76262
G1 X179.663 Y94.023 E2.79254
G1 X179.902 Y94.257 E2.80089
G1 X180.775 Y95.208 E2.83309
G1 X181.053 Y95.556 E2.8442
G1 X182.227 Y97.26 E2.89582
G1 X182.442 Y97.62 E2.90628
G1 X182.934 Y98.583 E2.93325
G1 X183.062 Y98.868 E2.94105
G1 X183.512 Y100.012 E2.97171
G1 X183.635 Y100.393 E2.9817
G1 X184.081 Y102.143 E3.02675
G1 X184.156 Y102.541 E3.03685
G1 X184.305 Y103.748 E3.06719
G1 X184.329 Y104.134 E3.07684
G1 X184.332 Y105.783 E3.11797
G1 X184.301 Y106.234 E3.12925
G1 X184.055 Y107.986 E3.17338
G1 X183.976 Y108.371 E3.18318
G1 X183.677 Y109.484 E3.21193
G1 X183.583 Y109.778 E3.21963
G1 X183.169 Y110.881 E3.24902
G1 X183.039 Y111.181 E3.25718
G1 X182.463 Y112.34 E3.28946
G1 X182.293 Y112.64 E3.29806
G1 X181.608 Y113.711 E3.32978
G1 X181.349 Y114.061 E3.34064
G1 X180.061 Y115.574 E3.3902
G1 X179.763 Y115.88 E3.40086
G1 X178.843 Y116.707 E3.43172
G1 X178.579 Y116.92 E3.44018
G1 X177.528 Y117.68 E3.47253
G1 X177.245 Y117.863 E3.48094
G1 X176.206 Y118.459 E3.51082
G1 X175.924 Y118.603 E3.51872
G1 X174.796 Y119.109 E3.54956
G1 X174.416 Y119.251 E3.55968
G1 X172.743 Y119.759 E3.60329
G1 X172.364 Y119.849 E3.61301
G1 X171.185 Y120.055 E3.64286
G1 X170.729 Y120.102 E3.6543
G1 X168.508 Y120.168 E3.70973
G1 X167.972 Y120.138 E3.72312
G1 X166.176 Y119.888 E3.76835
G1 X165.813 Y119.816 E3.77758
G1 X164.379 Y119.444 E3.81454
G1 X159.806 Y118.317 E3.93202
G1 X154.446 Y117.289 E4.06817
G1 X149.018 Y116.563 E4.20478
G1 X143.544 Y116.144 E4.34172
G1 X138.872 Y116.032 E4.4583
G1 X75.93 Y115.988 E6.0284
G1 X75.333 Y115.932 E6.04335
G1 X73.894 Y115.658 E6.07989
G1 X73.385 Y115.516 E6.09308
G1 X72.326 Y115.125 E6.12124
G1 X71.9 Y114.932 E6.1329
G1 X70.88 Y114.375 E6.16189
G1 X70.482 Y114.117 E6.17373
G1 X69.572 Y113.428 E6.2022
G1 X69.218 Y113.116 E6.21397
G1 X68.406 Y112.287 E6.24292
G1 X68.102 Y111.928 E6.25465
G1 X67.421 Y110.99 E6.28357
G1 X67.156 Y110.555 E6.29627
G1 X66.554 Y109.365 E6.32954
G1 X66.344 Y108.838 E6.34369
G1 X65.934 Y107.469 E6.37934
G1 X65.825 Y106.961 E6.3923
G1 X65.691 Y105.924 E6.41838
G1 X65.665 Y105.548 E6.42778
G1 X65.656 Y104.71 E6.44869
G1 X65.696 Y104.17 E6.4622
G1 X65.992 Y102.321 E6.50891
G1 X66.15 Y101.719 E6.52443
G1 X66.541 Y100.66 E6.55259
G1 X66.736 Y100.232 E6.56432
G1 X67.299 Y99.203 E6.59358
G1 X67.557 Y98.805 E6.60542
G1 X68.249 Y97.893 E6.63397
G1 X68.562 Y97.538 E6.64578
G1 X69.382 Y96.737 E6.67437
G1 X69.739 Y96.436 E6.68602
G1 F2100 E5.88602
G0 F3600 X71.286 Y98.429
G0 X72.076 Y99.44
G0 X75.395 Y103.08
G0 X75.45 Y103.163
;TYPE:WALL-INNER
G1 F2100 E6.68602
G1 F1800 X75.082 Y103.47 E6.69798
G1 X74.812 Y103.81 E6.70881
G1 X74.61 Y104.212 E6.72003
G1 X74.499 Y104.606 E6.73024
G1 X74.464 Y105.022 E6.74065
G1 X74.513 Y105.456 E6.75155
G1 X74.636 Y105.852 E6.76189
G1 X74.837 Y106.229 E6.77255
G1 X75.126 Y106.575 E6.7838
G1 X75.489 Y106.861 E6.79532
G1 X75.865 Y107.053 E6.80586
G1 X76.283 Y107.169 E6.81668
G1 X76.67 Y107.203 E6.82637
G1 X77.103 Y107.159 E6.83722
G1 X77.504 Y107.038 E6.84767
G1 X77.882 Y106.837 E6.85835
G1 X78.25 Y106.53 E6.87031
G1 X78.52 Y106.19 E6.88114
G1 X78.722 Y105.788 E6.89236
G1 X78.833 Y105.394 E6.90257
G1 X78.868 Y104.982 E6.91289
G1 X78.827 Y104.576 E6.92306
G1 X78.697 Y104.149 E6.9342
G1 X78.494 Y103.77 E6.94492
G1 X78.205 Y103.425 E6.95615
G1 X77.844 Y103.139 E6.96764
G1 X77.466 Y102.947 E6.97822
G1 X77.049 Y102.831 E6.98901
G1 X76.665 Y102.797 E6.99863
G1 X76.26 Y102.834 E7.00877
G1 X75.83 Y102.962 E7.01997
G1 X75.45 Y103.163 E7.03069
G0 F3600 X75.395 Y103.08
G0 X76.253 Y102.795
G0 X76.902 Y102.794
G0 X160.38 Y112.141
G0 X160.34 Y112.232
G1 F1800 X76.688 Y112.232 E9.1174
G1 X76.154 Y112.213 E9.13073
G1 X75.628 Y112.155 E9.14393
G1 X75.157 Y112.072 E9.15586
G1 X74.66 Y111.948 E9.16863
G1 X74.167 Y111.786 E9.18158
G1 X73.67 Y111.582 E9.19498
G1 X73.183 Y111.338 E9.20857
G1 X72.751 Y111.08 E9.22112
G1 X72.298 Y110.763 E9.23491
G1 X71.88 Y110.421 E9.24838
G1 X71.489 Y110.049 E9.26185
G1 X71.141 Y109.665 E9.27477
G1 X70.799 Y109.228 E9.28862
G1 X70.511 Y108.798 E9.30153
G1 X70.25 Y108.334 E9.31481
G1 X70.023 Y107.857 E9.32798
G1 X69.842 Y107.395 E9.34036
G1 X69.69 Y106.904 E9.35318
G1 X69.575 Y106.419 E9.36562
G1 X69.492 Y105.91 E9.37848
G1 X69.447 Y105.418 E9.39081
G1 X69.434 Y105.007 E9.40106
G1 X69.453 Y104.492 E9.41392
G1 X69.507 Y103.981 E9.42674
G1 X69.594 Y103.492 E9.43913
G1 X69.72 Y102.987 E9.45211
G1 X69.876 Y102.51 E9.46463
G1 X70.078 Y102.018 E9.4779
G1 X70.329 Y101.517 E9.49187
G1 X70.59 Y101.079 E9.50459
G1 X70.908 Y100.625 E9.51842
G1 X71.229 Y100.232 E9.53108
G1 X71.623 Y99.817 E9.54535
G1 X72.001 Y99.474 E9.55809
G1 X72.435 Y99.136 E9.57181
G1 X72.871 Y98.844 E9.5849
G1 X73.332 Y98.584 E9.5981
G1 X73.809 Y98.357 E9.61128
G1 X74.271 Y98.176 E9.62365
G1 X74.763 Y98.023 E9.63651
G1 X75.239 Y97.911 E9.64871
G1 X75.758 Y97.826 E9.66182
G1 X76.248 Y97.781 E9.6741
G1 X76.684 Y97.768 E9.68498
G1 X160.331 Y97.768 E11.77156
G1 X161.334 Y96.717 E11.8078
G1 X161.744 Y96.346 E11.8216
G1 X162.216 Y95.963 E11.83676
G1 X162.662 Y95.637 E11.85054
G1 X163.169 Y95.305 E11.86566
G1 X163.657 Y95.02 E11.87975
G1 X164.176 Y94.751 E11.89434
G1 X164.715 Y94.505 E11.90912
G1 X165.249 Y94.295 E11.92343
G1 X165.837 Y94.097 E11.93891
G1 X166.396 Y93.942 E11.95338
G1 X166.965 Y93.814 E11.96793
G1 X167.515 Y93.72 E11.98184
G1 X168.081 Y93.652 E11.99606
G1 X168.637 Y93.613 E12.00997
G1 X169.166 Y93.6 E12.02317
G1 X169.755 Y93.616 E12.03787
G1 X170.323 Y93.659 E12.05208
G1 X170.864 Y93.728 E12.06568
G1 X171.432 Y93.828 E12.08007
G1 X171.983 Y93.953 E12.09416
G1 X172.534 Y94.11 E12.10845
G1 X173.098 Y94.3 E12.1233
G1 X173.638 Y94.514 E12.13779
G1 X174.202 Y94.773 E12.15327
G1 X174.72 Y95.045 E12.16786
G1 X175.213 Y95.336 E12.18215
G1 X175.722 Y95.675 E12.1974
G1 X176.199 Y96.028 E12.2122
G1 X176.656 Y96.406 E12.227
G1 X177.106 Y96.819 E12.24223
G1 X177.519 Y97.243 E12.257
G1 X177.918 Y97.695 E12.27204
G1 X178.288 Y98.163 E12.28692
G1 X178.634 Y98.65 E12.30182
G1 X178.951 Y99.15 E12.31659
G1 X179.245 Y99.674 E12.33158
G1 X179.497 Y100.18 E12.34568
G1 X179.736 Y100.73 E12.36064
G1 X179.932 Y101.25 E12.3745
G1 X180.105 Y101.789 E12.38862
G1 X180.249 Y102.333 E12.40266
G1 X180.37 Y102.891 E12.4169
G1 X180.461 Y103.458 E12.43123
G1 X180.523 Y104.006 E12.44498
G1 X180.558 Y104.564 E12.45893
G1 X180.566 Y104.985 E12.46944
G1 X180.551 Y105.578 E12.48423
G1 X180.51 Y106.129 E12.49802
G1 X180.44 Y106.691 E12.51214
G1 X180.344 Y107.241 E12.52607
G1 X180.216 Y107.801 E12.5404
G1 X180.064 Y108.344 E12.55447
G1 X179.87 Y108.919 E12.5696
G1 X179.657 Y109.459 E12.58408
G1 X179.413 Y109.995 E12.59877
G1 X179.134 Y110.531 E12.61385
G1 X178.828 Y111.05 E12.62888
G1 X178.511 Y111.528 E12.64318
G1 X178.139 Y112.032 E12.65881
G1 X177.767 Y112.482 E12.67337
G1 X177.37 Y112.915 E12.68803
G1 X176.926 Y113.35 E12.70353
G1 X176.478 Y113.745 E12.71843
G1 X176.016 Y114.112 E12.73315
G1 X175.522 Y114.464 E12.74828
G1 X175.015 Y114.785 E12.76325
G1 X174.511 Y115.069 E12.77768
G1 X173.99 Y115.329 E12.79221
G1 X173.442 Y115.568 E12.80712
G1 X172.922 Y115.764 E12.82098
G1 X172.365 Y115.942 E12.83557
G1 X171.838 Y116.083 E12.84918
G1 X171.303 Y116.198 E12.86283
G1 X170.73 Y116.292 E12.87731
G1 X170.149 Y116.357 E12.8919
G1 X169.604 Y116.391 E12.90552
G1 X169.169 Y116.4 E12.91637
G1 X168.598 Y116.385 E12.93062
G1 X168.039 Y116.344 E12.9446
G1 X167.48 Y116.275 E12.95865
G1 X166.897 Y116.171 E12.97342
G1 X166.348 Y116.046 E12.98747
G1 X165.797 Y115.891 E13.00175
G1 X165.249 Y115.706 E13.01618
G1 X164.742 Y115.506 E13.02977
G1 X164.213 Y115.267 E13.04425
G1 X163.691 Y114.999 E13.05889
G1 X163.208 Y114.72 E13.0728
G1 X162.718 Y114.401 E13.08739
G1 X162.236 Y114.051 E13.10225
G1 X161.785 Y113.687 E13.1167
G1 X161.34 Y113.289 E13.1316
G1 X160.885 Y112.833 E13.14767
G1 X160.34 Y112.232 E13.1679
G0 F3600 X160.163 Y112.632
;TYPE:WALL-OUTER
G1 F1800 X76.673 Y112.632 E15.25057
G1 X76.125 Y112.612 E15.26425
G1 X75.574 Y112.552 E15.27808
G1 X75.077 Y112.464 E15.29067
G1 X74.548 Y112.332 E15.30427
G1 X74.029 Y112.162 E15.31789
G1 X73.512 Y111.95 E15.33183
G1 X72.988 Y111.687 E15.34645
G1 X72.529 Y111.413 E15.35979
G1 X72.055 Y111.081 E15.37423
G1 X71.62 Y110.725 E15.38825
G1 X71.2 Y110.326 E15.4027
G1 X70.837 Y109.926 E15.41617
G1 X70.473 Y109.459 E15.43094
G1 X70.171 Y109.008 E15.44448
G1 X69.895 Y108.519 E15.45849
G1 X69.657 Y108.019 E15.4723
G1 X69.462 Y107.521 E15.48564
G1 X69.305 Y107.015 E15.49886
G1 X69.181 Y106.491 E15.51229
G1 X69.096 Y105.967 E15.52553
G1 X69.047 Y105.435 E15.53886
G1 X69.034 Y105.007 E15.54954
G1 X69.053 Y104.464 E15.5631
G1 X69.11 Y103.926 E15.57659
G1 X69.202 Y103.411 E15.58964
G1 X69.335 Y102.879 E15.60332
G1 X69.502 Y102.368 E15.61673
G1 X69.715 Y101.849 E15.63073
G1 X69.979 Y101.322 E15.64543
G1 X70.251 Y100.866 E15.65867
G1 X70.59 Y100.382 E15.67341
G1 X70.93 Y99.965 E15.68684
G1 X71.34 Y99.534 E15.70167
G1 X71.74 Y99.171 E15.71515
G1 X72.206 Y98.807 E15.7299
G1 X72.658 Y98.505 E15.74346
G1 X73.147 Y98.229 E15.75747
G1 X73.647 Y97.991 E15.77128
G1 X74.145 Y97.796 E15.78462
G1 X74.65 Y97.639 E15.79781
G1 X75.174 Y97.516 E15.81124
G1 X75.699 Y97.43 E15.82451
G1 X76.231 Y97.381 E15.83784
G1 X76.672 Y97.368 E15.84884
G1 X160.16 Y97.368 E17.93146
G1 X161.059 Y96.426 E17.96394
G1 X161.492 Y96.035 E17.97849
G1 X161.964 Y95.652 E17.99366
G1 X162.437 Y95.306 E18.00828
G1 X162.95 Y94.97 E18.02357
G1 X163.465 Y94.669 E18.03845
G1 X164.005 Y94.389 E18.05363
G1 X164.549 Y94.141 E18.06854
G1 X165.121 Y93.916 E18.08387
G1 X165.712 Y93.717 E18.09943
G1 X166.303 Y93.553 E18.11473
G1 X166.885 Y93.422 E18.12961
G1 X167.463 Y93.324 E18.14423
G1 X168.045 Y93.254 E18.15886
G1 X168.621 Y93.213 E18.17326
G1 X169.166 Y93.2 E18.18686
G1 X169.777 Y93.216 E18.20211
G1 X170.362 Y93.261 E18.21674
G1 X170.925 Y93.332 E18.2309
G1 X171.508 Y93.435 E18.24567
G1 X172.084 Y93.566 E18.2604
G1 X172.651 Y93.727 E18.27511
G1 X173.235 Y93.924 E18.29048
G1 X173.805 Y94.15 E18.30578
G1 X174.369 Y94.409 E18.32126
G1 X174.906 Y94.691 E18.33639
G1 X175.429 Y95 E18.35154
G1 X175.951 Y95.347 E18.36718
G1 X176.449 Y95.716 E18.38264
G1 X176.919 Y96.104 E18.39784
G1 X177.377 Y96.525 E18.41336
G1 X177.819 Y96.978 E18.42915
G1 X178.223 Y97.436 E18.44438
G1 X178.608 Y97.923 E18.45987
G1 X178.965 Y98.426 E18.47525
G1 X179.3 Y98.954 E18.49085
G1 X179.594 Y99.478 E18.50584
G1 X179.864 Y100.021 E18.52097
G1 X180.103 Y100.571 E18.53593
G1 X180.313 Y101.128 E18.55078
G1 X180.492 Y101.687 E18.56542
G1 X180.64 Y102.248 E18.57989
G1 X180.763 Y102.817 E18.59441
G1 X180.856 Y103.394 E18.60899
G1 X180.922 Y103.981 E18.62373
G1 X180.958 Y104.557 E18.63812
G1 X180.966 Y104.995 E18.64905
G1 X180.951 Y105.598 E18.6641
G1 X180.907 Y106.179 E18.67863
G1 X180.836 Y106.747 E18.69291
G1 X180.736 Y107.32 E18.70742
G1 X180.605 Y107.896 E18.72216
G1 X180.443 Y108.472 E18.73708
G1 X180.246 Y109.056 E18.75246
G1 X180.025 Y109.617 E18.7675
G1 X179.768 Y110.18 E18.78293
G1 X179.484 Y110.725 E18.79827
G1 X179.173 Y111.253 E18.81355
G1 X178.833 Y111.766 E18.8289
G1 X178.459 Y112.272 E18.8446
G1 X178.071 Y112.743 E18.85982
G1 X177.65 Y113.201 E18.87534
G1 X177.198 Y113.644 E18.89113
G1 X176.74 Y114.048 E18.90636
G1 X176.254 Y114.434 E18.92184
G1 X175.746 Y114.795 E18.93739
G1 X175.223 Y115.127 E18.95284
G1 X174.7 Y115.422 E18.96782
G1 X174.15 Y115.696 E18.98315
G1 X173.602 Y115.935 E18.99806
G1 X173.044 Y116.145 E19.01294
G1 X172.488 Y116.323 E19.0275
G1 X171.922 Y116.474 E19.04211
G1 X171.368 Y116.593 E19.05625
G1 X170.783 Y116.689 E19.07103
G1 X170.193 Y116.755 E19.08584
G1 X169.613 Y116.791 E19.10034
G1 X169.167 Y116.8 E19.11147
G1 X168.578 Y116.785 E19.12616
G1 X168.002 Y116.742 E19.14057
G1 X167.418 Y116.67 E19.15525
G1 X166.82 Y116.564 E19.1704
G1 X166.252 Y116.434 E19.18494
G1 X165.676 Y116.272 E19.19986
G1 X165.121 Y116.085 E19.21447
G1 X164.577 Y115.871 E19.22905
G1 X164.048 Y115.632 E19.24353
G1 X163.508 Y115.355 E19.25867
G1 X162.998 Y115.06 E19.27337
G1 X162.483 Y114.725 E19.2887
G1 X162.001 Y114.375 E19.30355
G1 X161.519 Y113.986 E19.319
G1 X161.063 Y113.578 E19.33427
G1 X160.602 Y113.116 E19.35055
G1 X160.163 Y112.632 E19.36685
G0 F3600 X159.963 Y112.632
G0 X159.963 Y112.132
G0 X76.276 Y107.208
G0 X76.036 Y107.142
G0 X75.097 Y106.678
G0 X75.406 Y106.287
G1 F1800 X75.705 Y106.522 E19.37634
G1 X76.011 Y106.678 E19.3849
G1 X76.355 Y106.774 E19.39381
G1 X76.667 Y106.801 E19.40162
G1 X77.024 Y106.765 E19.41058
G1 X77.351 Y106.666 E19.4191
G1 X77.658 Y106.503 E19.42777
G1 X77.962 Y106.249 E19.43765
G1 X78.181 Y105.973 E19.44644
G1 X78.348 Y105.642 E19.45569
G1 X78.438 Y105.323 E19.46396
G1 X78.466 Y104.985 E19.47242
G1 X78.433 Y104.655 E19.48069
G1 X78.326 Y104.303 E19.48987
G1 X78.161 Y103.995 E19.49858
G1 X77.925 Y103.713 E19.50776
G1 X77.627 Y103.478 E19.51722
G1 X77.32 Y103.322 E19.52581
G1 X76.977 Y103.226 E19.5347
G1 X76.666 Y103.199 E19.54248
G1 X76.336 Y103.229 E19.55075
G1 X75.982 Y103.334 E19.55996
G1 X75.674 Y103.497 E19.56865
G1 X75.37 Y103.751 E19.57854
G1 X75.151 Y104.027 E19.58732
G1 X74.984 Y104.358 E19.59657
G1 X74.894 Y104.677 E19.60484
G1 X74.866 Y105.016 E19.61333
G1 X74.906 Y105.373 E19.62229
G1 X75.007 Y105.697 E19.63075
G1 X75.171 Y106.005 E19.63946
G1 X75.406 Y106.287 E19.64861
G0 F3600 X75.563 Y106.41
G0 X75.254 Y106.802
G0 X75.278 Y107.191
;TYPE:SKIN
G1 F1800 X75.723 Y107.418 E19.66108
G1 X76.213 Y107.555 E19.67377
G1 X76.672 Y107.595 E19.68526
G1 X77.179 Y107.543 E19.69797
G1 X77.654 Y107.401 E19.71034
G1 X78.101 Y107.162 E19.72299
G1 X78.531 Y106.803 E19.73696
G1 X78.85 Y106.401 E19.74976
G1 X79.087 Y105.93 E19.76291
G1 X79.219 Y105.464 E19.775
G1 X79.26 Y104.978 E19.78716
G1 X79.211 Y104.498 E19.7992
G1 X79.059 Y103.999 E19.81221
G1 X78.819 Y103.55 E19.82491
G1 X78.478 Y103.144 E19.83814
G1 X78.055 Y102.809 E19.8516
G1 X77.608 Y102.582 E19.8641
G1 X77.119 Y102.445 E19.87677
G1 X76.665 Y102.405 E19.88814
G1 X76.186 Y102.45 E19.90014
G1 X75.682 Y102.599 E19.91325
G1 X75.232 Y102.837 E19.92595
G1 X74.801 Y103.197 E19.93996
G1 X74.482 Y103.599 E19.95276
G1 X74.245 Y104.07 E19.96591
G1 X74.113 Y104.536 E19.97799
G1 X74.072 Y105.028 E19.99031
G1 X74.129 Y105.536 E20.00306
G1 X74.275 Y106.003 E20.01527
G1 X74.512 Y106.448 E20.02784
G1 X74.853 Y106.856 E20.04111
G1 X75.278 Y107.191 E20.05461
G0 F3600 X72.529 Y110.448
G1 F1800 X72.138 Y110.128 E20.06721
G1 X71.765 Y109.773 E20.08005
G1 X71.44 Y109.414 E20.09213
G1 X71.111 Y108.994 E20.10544
G1 X70.843 Y108.593 E20.11747
G1 X70.602 Y108.164 E20.12975
G1 X70.376 Y107.689 E20.14287
