;FLAVOR:Marlin
;TIME:301
;Filament used: 0.0851757m
;Layer height: 0.1
;Generated with Cura_SteamEngine 3.5.1
M82 ;absolute extrusion mode
G21 ; set units to millimeters
G90 ; use absolute positioning
M82 ; absolute extrusion mode
M104 S200 ; set extruder temp
M140 S60 ; set bed temp
M190 S60 ; wait for bed temp
M109 S200 ; wait for extruder temp
G28 W ; home all without mesh bed level
G80 ; mesh bed leveling
G92 E0.0 ; reset extruder distance position
G1 Y-3.0 F1000.0 ; go outside print area
G1 X60.0 E9.0 F1000.0 ; intro line
G1 X100.0 E21.5 F1000.0 ; intro line
G92 E0.0 ; reset extruder distance position
G92 E0
G1 F2100 E-0.8
;LAYER_COUNT:30
;LAYER:0
M107
G0 F3600 X115.147 Y96.432 Z0.15
;TYPE:SKIRT
G1 F2100 E0
G1 F1800 X116.305 Y95.258 E0.04113
G1 X116.951 Y94.719 E0.06212
G1 X118.308 Y93.789 E0.10316
G1 X119.039 Y93.383 E0.12402
G1 X120.565 Y92.719 E0.16553
G1 X121.173 Y92.506 E0.1816
G1 X122.061 Y92.266 E0.20455
G1 X122.698 Y92.144 E0.22073
G1 X124.264 Y91.961 E0.26006
G1 X125.081 Y91.942 E0.28044
G1 X126.718 Y92.056 E0.32138
G1 X127.533 Y92.19 E0.34198
G1 X129.101 Y92.603 E0.38243
G1 X129.705 Y92.81 E0.39835
G1 X130.552 Y93.171 E0.42132
G1 X131.127 Y93.468 E0.43747
G1 X132.502 Y94.311 E0.4777
G1 X133.165 Y94.809 E0.49838
G1 X134.385 Y95.92 E0.53954
G1 X134.949 Y96.542 E0.56049
G1 X135.942 Y97.873 E0.60191
G1 X136.378 Y98.591 E0.62287
G1 X137.101 Y100.089 E0.66436
G1 X137.394 Y100.887 E0.68556
G1 X137.818 Y102.506 E0.72731
G1 X137.953 Y103.332 E0.74819
G1 X138.059 Y104.945 E0.78851
G1 X138.035 Y105.774 E0.8092
G1 X137.831 Y107.425 E0.8507
G1 X137.657 Y108.219 E0.87098
G1 X137.195 Y109.671 E0.90899
G1 X136.88 Y110.416 E0.92916
G1 X136.092 Y111.886 E0.97077
G1 X135.624 Y112.587 E0.99179
G1 X134.565 Y113.886 E1.0336
G1 X133.97 Y114.488 E1.05472
G1 X132.699 Y115.546 E1.09597
G1 X132.01 Y116.016 E1.11677
G1 X130.588 Y116.801 E1.15729
G1 X130.009 Y117.068 E1.1732
G1 X129.154 Y117.389 E1.19598
G1 X128.547 Y117.568 E1.21176
G1 X127.025 Y117.901 E1.25063
G1 X126.216 Y118.001 E1.27096
G1 X124.565 Y118.05 E1.31216
G1 X123.734 Y117.996 E1.33294
G1 X122.12 Y117.736 E1.37372
G1 X121.306 Y117.523 E1.39471
G1 X119.731 Y116.946 E1.43655
G1 X119.133 Y116.675 E1.45293
G1 X118.329 Y116.235 E1.47579
G1 X117.784 Y115.882 E1.49199
G1 X116.468 Y114.885 E1.53317
G1 X115.854 Y114.321 E1.55397
G1 X114.767 Y113.113 E1.59451
G1 X114.271 Y112.444 E1.61528
G1 X113.415 Y111.026 E1.6566
G1 X113.055 Y110.278 E1.67731
G1 X112.497 Y108.769 E1.71744
G1 X112.284 Y107.969 E1.73809
G1 X112.009 Y106.325 E1.77967
G1 X111.951 Y105.48 E1.8008
G1 X111.996 Y103.822 E1.84217
G1 X112.098 Y102.988 E1.86313
G1 X112.459 Y101.36 E1.90473
G1 X112.715 Y100.57 E1.92544
G1 X113.342 Y99.117 E1.96492
G1 X113.729 Y98.408 E1.98507
G1 X114.627 Y97.07 E2.02527
G1 X115.147 Y96.432 E2.0458
G0 F3600 X115.432 Y96.713
G1 F1800 X116.59 Y95.539 E2.08693
G1 X117.177 Y95.049 E2.10601
G1 X118.534 Y94.119 E2.14704
G1 X119.199 Y93.75 E2.16602
G1 X120.725 Y93.086 E2.20753
G1 X121.277 Y92.893 E2.22212
G1 X122.165 Y92.653 E2.24506
G1 X122.745 Y92.541 E2.2598
G1 X124.311 Y92.358 E2.29913
G1 X125.053 Y92.341 E2.31764
G1 X126.69 Y92.455 E2.35858
G1 X127.431 Y92.577 E2.37731
G1 X128.999 Y92.99 E2.41776
G1 X129.548 Y93.178 E2.43223
G1 X130.395 Y93.539 E2.4552
G1 X130.918 Y93.809 E2.46988
G1 X132.293 Y94.652 E2.51011
G1 X132.895 Y95.105 E2.52891
G1 X134.115 Y96.216 E2.57007
G1 X134.628 Y96.781 E2.58911
G1 X135.621 Y98.112 E2.63053
G1 X136.017 Y98.765 E2.64958
G1 X136.74 Y100.263 E2.69107
G1 X137.008 Y100.989 E2.71038
G1 X137.432 Y102.608 E2.75213
G1 X137.553 Y103.359 E2.7711
G1 X137.659 Y104.972 E2.81142
G1 X137.638 Y105.725 E2.83022
G1 X137.434 Y107.376 E2.87171
G1 X137.276 Y108.098 E2.89015
G1 X136.814 Y109.55 E2.92816
G1 X136.527 Y110.227 E2.9465
G1 X135.739 Y111.697 E2.98811
G1 X135.314 Y112.334 E3.00721
G1 X134.255 Y113.633 E3.04902
G1 X133.714 Y114.18 E3.06821
G1 X132.443 Y115.238 E3.10946
G1 X131.817 Y115.666 E3.12838
G1 X130.395 Y116.451 E3.16889
G1 X129.868 Y116.694 E3.18337
G1 X129.013 Y117.015 E3.20615
G1 X128.462 Y117.178 E3.22049
G1 X126.94 Y117.511 E3.25935
G1 X126.204 Y117.601 E3.27785
G1 X124.553 Y117.65 E3.31905
G1 X123.798 Y117.601 E3.33792
G1 X122.184 Y117.341 E3.3787
G1 X121.444 Y117.148 E3.39778
G1 X119.869 Y116.571 E3.43962
G1 X119.325 Y116.324 E3.45453
G1 X118.521 Y115.884 E3.47739
G1 X118.026 Y115.563 E3.49211
G1 X116.71 Y114.566 E3.53329
G1 X116.152 Y114.054 E3.55218
G1 X115.065 Y112.846 E3.59272
G1 X114.614 Y112.237 E3.61162
G1 X113.758 Y110.819 E3.65294
G1 X113.43 Y110.139 E3.67177
G1 X112.872 Y108.63 E3.71191
G1 X112.679 Y107.903 E3.73067
G1 X112.404 Y106.259 E3.77225
G1 X112.35 Y105.49 E3.79148
G1 X112.395 Y103.832 E3.83285
G1 X112.489 Y103.075 E3.85188
G1 X112.85 Y101.447 E3.89348
G1 X113.082 Y100.728 E3.91232
G1 X113.709 Y99.275 E3.9518
G1 X114.061 Y98.631 E3.97011
G1 X114.959 Y97.293 E4.01031
G1 X115.432 Y96.713 E4.02897
G0 F3600 X115.717 Y96.994
G1 F1800 X116.875 Y95.82 E4.07011
G1 X117.403 Y95.378 E4.08729
G1 X118.76 Y94.448 E4.12832
G1 X119.359 Y94.117 E4.14539
G1 X120.885 Y93.453 E4.18691
G1 X121.382 Y93.279 E4.20004
G1 X122.27 Y93.039 E4.22299
G1 X122.791 Y92.938 E4.23623
G1 X124.357 Y92.755 E4.27556
G1 X125.025 Y92.74 E4.29223
G1 X126.662 Y92.854 E4.33316
G1 X127.329 Y92.964 E4.35002
G1 X128.897 Y93.377 E4.39047
G1 X129.392 Y93.546 E4.40352
G1 X130.239 Y93.907 E4.42649
G1 X130.709 Y94.15 E4.43968
G1 X132.084 Y94.993 E4.47992
G1 X132.626 Y95.4 E4.49683
G1 X133.846 Y96.511 E4.53799
G1 X134.307 Y97.02 E4.55512
G1 X135.3 Y98.351 E4.59654
G1 X135.657 Y98.939 E4.6137
G1 X136.38 Y100.437 E4.65519
G1 X136.621 Y101.09 E4.67256
G1 X137.045 Y102.709 E4.7143
G1 X137.154 Y103.385 E4.73138
G1 X137.26 Y104.998 E4.77171
G1 X137.241 Y105.675 E4.7886
G1 X137.037 Y107.326 E4.8301
G1 X136.895 Y107.977 E4.84672
G1 X136.433 Y109.429 E4.88473
G1 X136.175 Y110.038 E4.90123
G1 X135.387 Y111.508 E4.94283
G1 X135.004 Y112.082 E4.96005
G1 X133.945 Y113.381 E5.00186
G1 X133.458 Y113.873 E5.01912
G1 X132.187 Y114.931 E5.06038
G1 X131.624 Y115.316 E5.07739
G1 X130.202 Y116.101 E5.11791
G1 X129.727 Y116.319 E5.13095
G1 X128.872 Y116.64 E5.15373
G1 X128.376 Y116.787 E5.16663
G1 X126.854 Y117.12 E5.2055
G1 X126.192 Y117.201 E5.22213
G1 X124.541 Y117.25 E5.26334
G1 X123.861 Y117.206 E5.28033
G1 X122.247 Y116.946 E5.32111
G1 X121.582 Y116.772 E5.33826
G1 X120.007 Y116.195 E5.3801
G1 X119.517 Y115.973 E5.39352
G1 X118.713 Y115.533 E5.41639
G1 X118.267 Y115.244 E5.42964
G1 X116.951 Y114.247 E5.47083
G1 X116.449 Y113.786 E5.48783
G1 X115.362 Y112.578 E5.52837
G1 X114.956 Y112.03 E5.54538
G1 X114.1 Y110.612 E5.5867
G1 X113.805 Y110.001 E5.60362
G1 X113.247 Y108.492 E5.64375
G1 X113.073 Y107.837 E5.66066
G1 X112.798 Y106.193 E5.70224
G1 X112.75 Y105.501 E5.71954
G1 X112.795 Y103.843 E5.76092
G1 X112.879 Y103.162 E5.77803
G1 X113.24 Y101.534 E5.81963
G1 X113.45 Y100.887 E5.8366
G1 X114.077 Y99.434 E5.87608
G1 X114.393 Y98.854 E5.89255
G1 X115.291 Y97.516 E5.93275
G1 X115.717 Y96.994 E5.94956
G0 F3600 X116.002 Y97.275
G1 F1800 X117.16 Y96.101 E5.99069
G1 X117.629 Y95.708 E6.00595
G1 X118.986 Y94.778 E6.04699
G1 X119.518 Y94.484 E6.06215
G1 X121.044 Y93.82 E6.10367
G1 X121.486 Y93.665 E6.11535
G1 X122.374 Y93.425 E6.1383
G1 X122.838 Y93.336 E6.15008
G1 X124.404 Y93.153 E6.18941
G1 X124.997 Y93.139 E6.20421
G1 X126.634 Y93.253 E6.24514
G1 X127.227 Y93.351 E6.26014
G1 X128.795 Y93.764 E6.30058
G1 X129.235 Y93.914 E6.31218
G1 X130.082 Y94.275 E6.33515
G1 X130.5 Y94.491 E6.34688
G1 X131.875 Y95.334 E6.38712
G1 X132.357 Y95.696 E6.40215
G1 X133.577 Y96.807 E6.44332
G1 X133.987 Y97.259 E6.45854
G1 X134.98 Y98.59 E6.49996
G1 X135.297 Y99.113 E6.51522
G1 X136.02 Y100.611 E6.55671
G1 X136.234 Y101.191 E6.57213
G1 X136.658 Y102.81 E6.61388
G1 X136.755 Y103.411 E6.62907
G1 X136.861 Y105.024 E6.66939
G1 X136.844 Y105.626 E6.68441
G1 X136.64 Y107.277 E6.72591
G1 X136.513 Y107.855 E6.74067
G1 X136.051 Y109.307 E6.77868
G1 X135.822 Y109.849 E6.79336
G1 X135.034 Y111.319 E6.83496
G1 X134.694 Y111.829 E6.85025
G1 X133.635 Y113.128 E6.89206
G1 X133.202 Y113.565 E6.90741
G1 X131.931 Y114.623 E6.94866
G1 X131.431 Y114.965 E6.96377
G1 X130.009 Y115.75 E7.00429
G1 X129.587 Y115.945 E7.01589
G1 X128.732 Y116.266 E7.03867
G1 X128.291 Y116.396 E7.05014
G1 X126.769 Y116.729 E7.089
G1 X126.18 Y116.802 E7.10381
G1 X124.529 Y116.851 E7.14501
G1 X123.925 Y116.811 E7.16011
G1 X122.311 Y116.551 E7.20089
G1 X121.719 Y116.397 E7.21615
G1 X120.144 Y115.82 E7.25799
G1 X119.709 Y115.622 E7.26991
G1 X118.905 Y115.182 E7.29277
G1 X118.509 Y114.926 E7.30454
G1 X117.193 Y113.929 E7.34572
G1 X116.746 Y113.518 E7.36087
G1 X115.659 Y112.31 E7.40141
G1 X115.298 Y111.824 E7.41651
G1 X114.442 Y110.406 E7.45783
G1 X114.181 Y109.862 E7.47288
G1 X113.623 Y108.353 E7.51301
G1 X113.468 Y107.771 E7.52803
G1 X113.193 Y106.127 E7.56961
G1 X113.15 Y105.512 E7.58499
G1 X113.195 Y103.854 E7.62637
G1 X113.27 Y103.248 E7.6416
G1 X113.631 Y101.62 E7.6832
G1 X113.817 Y101.045 E7.69827
G1 X114.444 Y99.592 E7.73775
G1 X114.725 Y99.077 E7.75238
G1 X115.623 Y97.739 E7.79258
G1 X116.002 Y97.275 E7.80752
G1 F2100 E7.00752
G0 F3600 X119.886 Y97.176
G0 X120.4 Y97.894
G0 X125.767 Y96.65
G0 X125.777 Y96.551
;TYPE:WALL-OUTER
G1 F2100 E7.80752
G1 F1800 X126.571 Y96.662 E7.82752
G1 X127.366 Y96.852 E7.84791
G1 X128.123 Y97.11 E7.86786
G1 X128.858 Y97.444 E7.888
G1 X129.57 Y97.851 E7.90846
G1 X130.217 Y98.307 E7.9282
G1 X130.831 Y98.836 E7.94842
G1 X131.393 Y99.42 E7.96864
G1 X131.892 Y100.051 E7.98871
G1 X132.338 Y100.739 E8.00916
G1 X132.705 Y101.445 E8.02901
G1 X133.005 Y102.186 E8.04895
G1 X133.241 Y102.978 E8.06957
G1 X133.394 Y103.758 E8.08939
G1 X133.474 Y104.565 E8.10962
G1 X133.477 Y105.375 E8.12983
G1 X133.404 Y106.167 E8.14967
G1 X133.251 Y106.975 E8.17018
G1 X133.027 Y107.747 E8.19023
G1 X132.732 Y108.495 E8.21029
G1 X132.364 Y109.213 E8.23042
G1 X131.933 Y109.89 E8.25044
G1 X131.433 Y110.533 E8.27076
G1 X130.88 Y111.116 E8.2908
G1 X130.27 Y111.649 E8.31101
G1 X129.61 Y112.122 E8.33126
G1 X128.917 Y112.526 E8.35127
G1 X128.18 Y112.866 E8.37152
G1 X127.417 Y113.133 E8.39168
G1 X126.639 Y113.325 E8.41167
G1 X125.839 Y113.443 E8.43185
G1 X125.031 Y113.485 E8.45203
G1 X124.223 Y113.449 E8.4722
G1 X123.429 Y113.338 E8.4922
G1 X122.634 Y113.148 E8.51259
G1 X121.877 Y112.89 E8.53254
G1 X121.142 Y112.556 E8.55268
G1 X120.43 Y112.149 E8.57314
G1 X119.783 Y111.693 E8.59289
G1 X119.169 Y111.164 E8.6131
G1 X118.607 Y110.58 E8.63332
G1 X118.108 Y109.949 E8.65339
G1 X117.662 Y109.261 E8.67384
G1 X117.295 Y108.555 E8.69369
G1 X116.994 Y107.81 E8.71373
G1 X116.759 Y107.022 E8.73424
G1 X116.606 Y106.242 E8.75407
G1 X116.526 Y105.435 E8.7743
G1 X116.523 Y104.625 E8.79451
G1 X116.596 Y103.833 E8.81435
G1 X116.749 Y103.025 E8.83486
G1 X116.973 Y102.253 E8.85491
G1 X117.268 Y101.505 E8.87497
G1 X117.636 Y100.787 E8.8951
G1 X118.069 Y100.106 E8.91523
G1 X118.567 Y99.467 E8.93544
G1 X119.12 Y98.884 E8.95548
G1 X119.73 Y98.351 E8.97569
G1 X120.39 Y97.878 E8.99594
G1 X121.083 Y97.474 E9.01595
G1 X121.82 Y97.134 E9.0362
G1 X122.583 Y96.867 E9.05637
G1 X123.361 Y96.675 E9.07635
G1 X124.161 Y96.557 E9.09653
G1 X124.969 Y96.515 E9.11671
G1 X125.777 Y96.551 E9.13689
G0 F3600 X125.975 Y96.578
G0 X125.962 Y96.677
G0 X129.439 Y98.662
G0 X129.795 Y98.939
G0 X131.205 Y100.275
G0 X131.126 Y100.335
G1 F1800 X130.613 Y99.731 E9.15665
G1 X130.042 Y99.181 E9.17643
G1 X129.417 Y98.694 E9.19619
G1 X128.745 Y98.272 E9.21599
G1 X128.033 Y97.923 E9.23577
G1 X127.29 Y97.649 E9.25552
G1 X126.522 Y97.453 E9.27529
G1 X125.738 Y97.336 E9.29507
G1 X124.946 Y97.301 E9.31484
G1 X124.154 Y97.347 E9.33463
G1 X123.372 Y97.475 E9.3544
G1 X122.607 Y97.683 E9.37418
G1 X121.868 Y97.967 E9.39393
G1 X121.161 Y98.326 E9.41371
G1 X120.495 Y98.757 E9.43349
G1 X119.877 Y99.254 E9.45328
G1 X119.313 Y99.81 E9.47303
G1 X118.809 Y100.422 E9.49281
G1 X118.372 Y101.083 E9.51258
G1 X118.004 Y101.785 E9.53235
G1 X117.71 Y102.523 E9.55216
G1 X117.495 Y103.284 E9.57189
G1 X117.358 Y104.065 E9.59167
G1 X117.303 Y104.856 E9.61145
G1 X117.328 Y105.648 E9.63122
G1 X117.436 Y106.434 E9.65101
G1 X117.622 Y107.203 E9.67074
G1 X117.888 Y107.951 E9.69055
G1 X118.23 Y108.667 E9.71034
G1 X118.643 Y109.343 E9.7301
G1 X119.123 Y109.973 E9.74986
G1 X119.666 Y110.552 E9.76966
G1 X120.265 Y111.071 E9.78943
G1 X120.914 Y111.525 E9.80919
G1 X121.607 Y111.912 E9.82899
G1 X122.335 Y112.224 E9.84874
G1 X123.092 Y112.459 E9.86852
G1 X123.869 Y112.616 E9.88829
G1 X124.658 Y112.692 E9.90806
G1 X125.451 Y112.686 E9.92785
G1 X126.238 Y112.599 E9.9476
G1 X127.013 Y112.431 E9.96738
G1 X127.767 Y112.185 E9.98716
G1 X128.491 Y111.863 E10.00693
G1 X129.179 Y111.467 E10.02673
G1 X129.82 Y111.003 E10.04647
G1 X130.413 Y110.477 E10.06624
G1 X130.948 Y109.89 E10.08606
G1 X131.418 Y109.253 E10.1058
G1 X131.821 Y108.57 E10.12558
G1 X132.152 Y107.85 E10.14535
G1 X132.407 Y107.1 E10.16511
G1 X132.583 Y106.327 E10.18489
G1 X132.68 Y105.54 E10.20467
G1 X132.695 Y104.748 E10.22443
G1 X132.628 Y103.958 E10.24421
G1 X132.482 Y103.179 E10.26398
G1 X132.255 Y102.419 E10.28376
G1 X131.95 Y101.687 E10.30354
G1 X131.572 Y100.99 E10.32332
G1 X131.126 Y100.335 E10.34309
G0 F3600 X130.997 Y100.183
G0 X131.004 Y99.892
;TYPE:SKIN
G1 F1800 X132.405 Y101.292 E10.36779
G0 F3600 X132.095 Y101.548
G1 F1800 X132.83 Y102.282 E10.38075
G0 F3600 X132.482 Y102.501
G1 F1800 X133.061 Y103.079 E10.39095
G0 F3600 X132.866 Y103.167
G1 F1800 X132.949 Y103.533 E10.4008
G1 X133.078 Y104.794 E10.43405
G1 X133.036 Y105.883 E10.46264
G0 F3600 X133.179 Y106.309
G1 F1800 X132.824 Y105.954 E10.46891
G0 F3600 X132.963 Y106.376
G1 F1800 X132.92 Y106.616 E10.48084
G0 F3600 X132.701 Y106.679
G1 F1800 X133.036 Y107.014 E10.48675
G0 F3600 X132.81 Y107.072
G1 F1800 X132.752 Y107.297 E10.49801
G0 F3600 X132.846 Y107.673
G1 F1800 X132.525 Y107.352 E10.50367
G0 F3600 X132.454 Y107.564
G1 F1800 X132.766 Y107.876 E10.50917
G0 F3600 X132.533 Y107.926
G1 F1800 X132.455 Y108.13 E10.51982
G0 F3600 X132.52 Y108.478
G1 F1800 X132.216 Y108.174 E10.52518
G0 F3600 X132.275 Y108.517
G1 F1800 X132.183 Y108.707 E10.53166
G1 X131.656 Y109.594 E10.56333
G0 F3600 X131.535 Y109.756
G1 F1800 X131.413 Y109.917 E10.56865
G1 X130.468 Y110.952 E10.60561
G1 X129.354 Y111.817 E10.6428
G1 X128.816 Y112.128 E10.65919
G0 F3600 X128.631 Y112.226
G1 F1800 X128.436 Y112.314 E10.66542
G1 X127.419 Y112.712 E10.69723
G0 F3600 X127.207 Y112.782
G1 F1800 X126.978 Y112.836 E10.70656
G1 X126.748 Y112.889 E10.71593
G0 F3600 X126.519 Y112.942
G1 F1800 X126.276 Y112.982 E10.72481
G1 X126.025 Y113.014 E10.73394
G0 F3600 X125.956 Y113.228
G1 F1800 X125.594 Y112.866 E10.74033
G0 F3600 X125.512 Y113.067
G1 F1800 X125.238 Y113.075 E10.75367
G0 F3600 X124.766 Y112.886
G1 F1800 X125.16 Y113.281 E10.76063
G0 F3600 X124.671 Y113.075
G1 F1800 X124.367 Y113.053 E10.77547
G0 F3600 X124.062 Y113.031
G1 F1800 X123.723 Y112.975 E10.79179
G0 F3600 X123.634 Y113.169
G1 F1800 X123.131 Y112.666 E10.80066
G0 F3600 X122.913 Y113.014
G1 F1800 X122.324 Y112.425 E10.81105
G0 F3600 X122.089 Y112.755
G1 F1800 X121.296 Y111.962 E10.82504
G0 F3600 X121.043 Y112.275
G1 F1800 X117.72 Y108.952 E10.88365
G0 F3600 X118.024 Y108.69
G1 F1800 X117.243 Y107.909 E10.89743
G0 F3600 X117.586 Y107.687
G1 F1800 X116.978 Y107.079 E10.90815
G0 F3600 X116.896 Y106.714
G1 F1800 X117.432 Y107.25 E10.9176
G0 F3600 X117.342 Y106.877
G1 F1800 X116.827 Y106.362 E10.92669
G0 F3600 X116.78 Y106.032
G1 F1800 X117.251 Y106.503 E10.935
G0 F3600 X116.975 Y105.944
G1 F1800 X116.938 Y105.624 E10.94371
G1 X116.954 Y104.226 E10.98155
G1 X117.16 Y103.018 E11.01471
G1 X117.592 Y101.752 E11.05091
G1 X118.186 Y100.649 E11.08481
G0 F3600 X118.442 Y100.623
G1 F1800 X118.153 Y100.334 E11.08991
G0 F3600 X118.267 Y100.165
G1 F1800 X118.554 Y100.453 E11.09498
G0 F3600 X118.53 Y100.145
G1 F1800 X118.656 Y99.988 E11.10125
G1 X119.183 Y99.384 E11.12625
G0 F3600 X119.323 Y99.241
G1 F1800 X119.467 Y99.102 E11.1332
G1 X119.768 Y98.837 E11.14712
G0 F3600 X120.065 Y98.852
G1 F1800 X119.779 Y98.566 E11.15217
G0 F3600 X120.08 Y98.583
G1 F1800 X120.24 Y98.461 E11.16006
G1 X120.408 Y98.346 E11.16805
