;FLAVOR:Marlin
;TIME:7325
;Filament used: 3.6875m
;Layer height: 0.1
;Generated with Cura_SteamEngine 3.5.1
M82 ;absolute extrusion mode
G21 ; set units to millimeters
G90 ; use absolute positioning
M82 ; absolute extrusion mode
M104 S200 ; set extruder temp
M140 S60 ; set bed temp
M190 S60 ; wait for bed temp
M109 S200 ; wait for extruder temp
G28 W ; home all without mesh bed level
G80 ; mesh bed leveling
G92 E0.0 ; reset extruder distance position
G1 Y-3.0 F1000.0 ; go outside print area
G1 X60.0 E9.0 F1000.0 ; intro line
G1 X100.0 E21.5 F1000.0 ; intro line
G92 E0.0 ; reset extruder distance position
G92 E0
G1 F2100 E-0.8
;LAYER_COUNT:400
;LAYER:0
M107
G0 F3600 X66.475 Y96.063 Z0.15
;TYPE:SKIRT
G1 F2100 E0
G1 F1800 X66.925 Y95.761 E0.01352
G1 X68.255 Y95.024 E0.05145
G1 X68.793 Y94.788 E0.0661
G1 X70.087 Y94.356 E0.10013
G1 X70.555 Y94.238 E0.11217
G1 X71.533 Y94.069 E0.13693
G1 X72.076 Y94.022 E0.15053
G1 X142.603 Y93.968 E1.90983
G1 X148.13 Y93.812 E2.04776
G1 X153.596 Y93.347 E2.1846
G1 X159.002 Y92.576 E2.32082
G1 X164.407 Y91.493 E2.45833
G1 X167.045 Y90.846 E2.52608
G1 X169.34 Y90.235 E2.58532
G1 X169.586 Y90.179 E2.59162
G1 X170.775 Y89.961 E2.62177
G1 X171.17 Y89.914 E2.6317
G1 X172.926 Y89.814 E2.67557
G1 X173.394 Y89.822 E2.68725
G1 X175.154 Y89.98 E2.73133
G1 X175.552 Y90.041 E2.74137
G1 X176.754 Y90.304 E2.77206
G1 X177.07 Y90.39 E2.78023
G1 X178.267 Y90.784 E2.81167
G1 X178.57 Y90.901 E2.81977
G1 X179.611 Y91.365 E2.8482
G1 X179.896 Y91.51 E2.85618
G1 X180.986 Y92.133 E2.8875
G1 X181.263 Y92.311 E2.89571
G1 X182.261 Y93.027 E2.92635
G1 X182.514 Y93.229 E2.93442
G1 X183.413 Y94.023 E2.96434
G1 X183.652 Y94.257 E2.97269
G1 X184.525 Y95.208 E3.00489
G1 X184.803 Y95.556 E3.016
G1 X185.977 Y97.26 E3.06762
G1 X186.192 Y97.62 E3.07808
G1 X186.684 Y98.583 E3.10506
G1 X186.812 Y98.868 E3.11285
G1 X187.262 Y100.012 E3.14351
G1 X187.385 Y100.393 E3.1535
G1 X187.831 Y102.143 E3.19855
G1 X187.906 Y102.541 E3.20865
G1 X188.055 Y103.748 E3.23899
G1 X188.079 Y104.134 E3.24864
G1 X188.082 Y105.783 E3.28977
G1 X188.051 Y106.234 E3.30105
G1 X187.805 Y107.986 E3.34518
G1 X187.726 Y108.371 E3.35499
G1 X187.427 Y109.484 E3.38373
G1 X187.333 Y109.778 E3.39143
G1 X186.919 Y110.881 E3.42082
G1 X186.789 Y111.181 E3.42898
G1 X186.213 Y112.34 E3.46126
G1 X186.043 Y112.64 E3.46986
G1 X185.358 Y113.711 E3.50158
G1 X185.099 Y114.061 E3.51244
G1 X183.811 Y115.574 E3.56201
G1 X183.513 Y115.88 E3.57266
G1 X182.593 Y116.707 E3.60352
G1 X182.329 Y116.92 E3.61198
G1 X181.278 Y117.68 E3.64433
G1 X180.995 Y117.863 E3.65274
G1 X179.956 Y118.459 E3.68262
G1 X179.674 Y118.603 E3.69052
G1 X178.546 Y119.109 E3.72136
G1 X178.166 Y119.251 E3.73148
G1 X176.493 Y119.759 E3.77509
G1 X176.114 Y119.849 E3.78481
G1 X174.935 Y120.055 E3.81467
G1 X174.479 Y120.102 E3.8261
G1 X172.258 Y120.168 E3.88153
G1 X171.722 Y120.138 E3.89492
G1 X169.926 Y119.888 E3.94015
G1 X169.563 Y119.816 E3.94938
G1 X168.129 Y119.444 E3.98634
G1 X163.556 Y118.317 E4.10383
G1 X158.196 Y117.289 E4.23997
G1 X152.768 Y116.563 E4.37658
G1 X147.294 Y116.144 E4.51353
G1 X142.622 Y116.032 E4.6301
G1 X72.578 Y116.007 E6.37736
G1 X72.279 Y115.993 E6.38482
G1 X71.344 Y115.905 E6.40825
G1 X70.902 Y115.832 E6.41943
G1 X69.833 Y115.577 E6.44684
G1 X69.4 Y115.441 E6.45816
G1 X68.351 Y115.027 E6.48629
G1 X67.935 Y114.826 E6.49782
G1 X66.944 Y114.258 E6.52631
G1 X66.546 Y113.989 E6.5383
G1 X65.622 Y113.256 E6.56772
G1 X65.274 Y112.935 E6.57953
G1 X64.479 Y112.085 E6.60856
G1 X64.18 Y111.713 E6.62046
G1 X63.533 Y110.773 E6.64893
G1 X63.264 Y110.301 E6.66248
G1 X62.623 Y108.913 E6.70062
G1 X62.441 Y108.412 E6.71392
G1 X62.163 Y107.392 E6.74029
G1 X62.068 Y106.894 E6.75293
G1 X61.916 Y105.484 E6.78831
G1 X61.91 Y104.861 E6.80385
G1 X62.051 Y103.256 E6.84404
G1 X62.161 Y102.659 E6.85919
G1 X62.566 Y101.237 E6.89607
G1 X62.764 Y100.719 E6.9099
G1 X63.26 Y99.695 E6.93829
G1 X63.496 Y99.288 E6.95002
G1 X64.153 Y98.324 E6.97912
G1 X64.446 Y97.955 E6.99088
G1 X65.23 Y97.106 E7.0197
G1 X65.58 Y96.78 E7.03163
G1 X66.475 Y96.063 E7.06024
G1 F2100 E6.26024
G0 F3600 X67.981 Y98.085
G0 X68.696 Y99.152
G0 X71.645 Y103.08
G0 X71.7 Y103.163
;TYPE:WALL-INNER
G1 F2100 E7.06024
G1 F1800 X71.332 Y103.47 E7.0722
G1 X71.062 Y103.81 E7.08303
G1 X70.86 Y104.212 E7.09425
G1 X70.749 Y104.606 E7.10446
G1 X70.714 Y105.022 E7.11487
G1 X70.763 Y105.456 E7.12577
G1 X70.886 Y105.852 E7.13611
G1 X71.087 Y106.229 E7.14677
G1 X71.376 Y106.575 E7.15802
G1 X71.739 Y106.861 E7.16954
G1 X72.115 Y107.053 E7.18007
G1 X72.533 Y107.169 E7.1909
G1 X72.92 Y107.203 E7.20059
G1 X73.353 Y107.159 E7.21144
G1 X73.754 Y107.038 E7.22189
G1 X74.132 Y106.837 E7.23257
G1 X74.5 Y106.53 E7.24453
G1 X74.77 Y106.19 E7.25536
G1 X74.972 Y105.788 E7.26658
G1 X75.083 Y105.394 E7.27679
G1 X75.118 Y104.982 E7.2871
G1 X75.077 Y104.576 E7.29728
G1 X74.947 Y104.149 E7.30842
G1 X74.744 Y103.77 E7.31914
G1 X74.455 Y103.425 E7.33037
G1 X74.094 Y103.139 E7.34186
G1 X73.716 Y102.947 E7.35243
G1 X73.299 Y102.831 E7.36323
G1 X72.915 Y102.797 E7.37285
G1 X72.51 Y102.834 E7.38299
G1 X72.08 Y102.962 E7.39418
G1 X71.7 Y103.163 E7.40491
G0 F3600 X71.645 Y103.08
G0 X72.503 Y102.795
G0 X164.13 Y97.859
G0 X164.09 Y97.768
G1 F1800 X164.67 Y97.128 E7.42645
G1 X165.073 Y96.727 E7.44063
G1 X165.499 Y96.342 E7.45496
G1 X165.966 Y95.963 E7.46996
G1 X166.412 Y95.637 E7.48374
G1 X166.919 Y95.305 E7.49886
G1 X167.407 Y95.02 E7.51296
G1 X167.926 Y94.751 E7.52754
G1 X168.465 Y94.505 E7.54232
G1 X168.999 Y94.295 E7.55663
G1 X169.587 Y94.097 E7.57211
G1 X170.146 Y93.942 E7.58658
G1 X170.715 Y93.814 E7.60113
G1 X171.265 Y93.72 E7.61505
G1 X171.831 Y93.652 E7.62927
G1 X172.387 Y93.613 E7.64317
G1 X172.916 Y93.6 E7.65637
G1 X173.505 Y93.616 E7.67107
G1 X174.073 Y93.659 E7.68528
G1 X174.614 Y93.728 E7.69888
G1 X175.182 Y93.828 E7.71327
G1 X175.733 Y93.953 E7.72736
G1 X176.284 Y94.11 E7.74166
G1 X176.848 Y94.3 E7.7565
G1 X177.388 Y94.514 E7.77099
G1 X177.952 Y94.773 E7.78647
G1 X178.47 Y95.045 E7.80107
G1 X178.963 Y95.336 E7.81535
G1 X179.472 Y95.675 E7.8306
G1 X179.949 Y96.028 E7.84541
G1 X180.406 Y96.406 E7.8602
G1 X180.856 Y96.819 E7.87544
G1 X181.269 Y97.243 E7.8902
G1 X181.668 Y97.695 E7.90524
G1 X182.038 Y98.163 E7.92012
G1 X182.384 Y98.65 E7.93502
G1 X182.701 Y99.15 E7.94979
G1 X182.995 Y99.674 E7.96478
G1 X183.247 Y100.18 E7.97888
G1 X183.486 Y100.73 E7.99384
G1 X183.682 Y101.25 E8.0077
G1 X183.855 Y101.789 E8.02182
G1 X183.999 Y102.333 E8.03586
G1 X184.12 Y102.891 E8.0501
G1 X184.211 Y103.458 E8.06443
G1 X184.273 Y104.006 E8.07819
G1 X184.308 Y104.564 E8.09213
G1 X184.316 Y104.985 E8.10264
G1 X184.301 Y105.578 E8.11743
G1 X184.26 Y106.129 E8.13122
G1 X184.19 Y106.691 E8.14534
G1 X184.094 Y107.241 E8.15927
G1 X183.966 Y107.801 E8.1736
G1 X183.814 Y108.344 E8.18767
G1 X183.62 Y108.919 E8.20281
G1 X183.407 Y109.459 E8.21729
G1 X183.163 Y109.995 E8.23198
G1 X182.884 Y110.531 E8.24705
G1 X182.578 Y111.05 E8.26208
G1 X182.261 Y111.528 E8.27639
G1 X181.889 Y112.032 E8.29201
G1 X181.517 Y112.482 E8.30658
G1 X181.12 Y112.915 E8.32123
G1 X180.676 Y113.35 E8.33674
G1 X180.228 Y113.745 E8.35164
G1 X179.766 Y114.112 E8.36635
G1 X179.272 Y114.464 E8.38148
G1 X178.765 Y114.785 E8.39645
G1 X178.261 Y115.069 E8.41088
G1 X177.74 Y115.329 E8.42541
G1 X177.192 Y115.568 E8.44032
G1 X176.672 Y115.764 E8.45419
G1 X176.115 Y115.942 E8.46877
G1 X175.588 Y116.083 E8.48238
G1 X175.053 Y116.198 E8.49603
G1 X174.48 Y116.292 E8.51052
G1 X173.899 Y116.357 E8.5251
G1 X173.354 Y116.391 E8.53872
G1 X172.919 Y116.4 E8.54957
G1 X172.348 Y116.385 E8.56382
G1 X171.789 Y116.344 E8.5778
G1 X171.23 Y116.275 E8.59185
G1 X170.647 Y116.171 E8.60663
G1 X170.098 Y116.046 E8.62067
G1 X169.547 Y115.891 E8.63495
G1 X168.999 Y115.706 E8.64938
G1 X168.492 Y115.506 E8.66297
G1 X167.963 Y115.267 E8.67745
G1 X167.441 Y114.999 E8.69209
G1 X166.958 Y114.72 E8.70601
G1 X166.468 Y114.401 E8.72059
G1 X165.986 Y114.051 E8.73545
G1 X165.535 Y113.687 E8.74991
G1 X165.087 Y113.286 E8.76491
G1 X164.664 Y112.865 E8.77979
G1 X164.09 Y112.232 E8.80111
G1 X72.931 Y112.232 E11.07508
G1 X71.879 Y112.156 E11.10139
G1 X71.407 Y112.072 E11.11335
G1 X70.91 Y111.948 E11.12613
G1 X70.417 Y111.786 E11.13907
G1 X69.92 Y111.582 E11.15247
G1 X69.433 Y111.338 E11.16606
G1 X69.001 Y111.08 E11.17861
G1 X68.548 Y110.763 E11.1924
G1 X68.13 Y110.421 E11.20588
G1 X67.739 Y110.049 E11.21934
G1 X67.391 Y109.665 E11.23227
G1 X67.049 Y109.228 E11.24611
G1 X66.761 Y108.798 E11.25902
G1 X66.5 Y108.334 E11.2723
G1 X66.273 Y107.857 E11.28548
G1 X66.092 Y107.395 E11.29785
G1 X65.94 Y106.904 E11.31068
G1 X65.825 Y106.419 E11.32311
G1 X65.742 Y105.91 E11.33597
G1 X65.697 Y105.418 E11.3483
G1 X65.684 Y105.007 E11.35856
G1 X65.703 Y104.492 E11.37141
G1 X65.757 Y103.981 E11.38423
G1 X65.844 Y103.492 E11.39662
G1 X65.97 Y102.987 E11.4096
G1 X66.126 Y102.51 E11.42212
G1 X66.328 Y102.018 E11.43539
G1 X66.579 Y101.517 E11.44937
G1 X66.84 Y101.079 E11.46209
G1 X67.158 Y100.625 E11.47591
G1 X67.479 Y100.232 E11.48857
G1 X67.873 Y99.817 E11.50284
G1 X68.251 Y99.474 E11.51558
G1 X68.685 Y99.136 E11.5293
G1 X69.121 Y98.844 E11.54239
G1 X69.582 Y98.584 E11.55559
G1 X70.059 Y98.357 E11.56877
G1 X70.521 Y98.176 E11.58115
G1 X71.013 Y98.023 E11.594
G1 X71.489 Y97.911 E11.6062
G1 X72.008 Y97.826 E11.61932
G1 X72.498 Y97.781 E11.63159
G1 X72.934 Y97.768 E11.64247
G1 X164.09 Y97.768 E13.91637
G0 F3600 X163.913 Y97.368
;TYPE:WALL-OUTER
G1 F1800 X164.373 Y96.86 E13.93346
G1 X164.805 Y96.43 E13.94867
G1 X165.242 Y96.035 E13.96336
G1 X165.714 Y95.652 E13.97853
G1 X166.187 Y95.306 E13.99314
G1 X166.7 Y94.97 E14.00844
G1 X167.215 Y94.669 E14.02332
G1 X167.755 Y94.389 E14.03849
G1 X168.299 Y94.141 E14.05341
G1 X168.871 Y93.916 E14.06874
G1 X169.462 Y93.717 E14.0843
G1 X170.053 Y93.553 E14.0996
G1 X170.635 Y93.422 E14.11448
G1 X171.213 Y93.324 E14.1291
G1 X171.795 Y93.254 E14.14372
G1 X172.371 Y93.213 E14.15813
G1 X172.916 Y93.2 E14.17173
G1 X173.527 Y93.216 E14.18698
G1 X174.112 Y93.261 E14.20161
G1 X174.675 Y93.332 E14.21577
G1 X175.258 Y93.435 E14.23053
G1 X175.834 Y93.566 E14.24527
G1 X176.401 Y93.727 E14.25997
G1 X176.985 Y93.924 E14.27535
G1 X177.555 Y94.15 E14.29064
G1 X178.119 Y94.409 E14.30612
G1 X178.656 Y94.691 E14.32125
G1 X179.179 Y95 E14.33641
G1 X179.701 Y95.347 E14.35204
G1 X180.199 Y95.716 E14.36751
G1 X180.669 Y96.104 E14.38271
G1 X181.127 Y96.525 E14.39823
G1 X181.569 Y96.978 E14.41401
G1 X181.973 Y97.436 E14.42925
G1 X182.358 Y97.923 E14.44474
G1 X182.715 Y98.426 E14.46012
G1 X183.05 Y98.954 E14.47572
G1 X183.344 Y99.478 E14.49071
G1 X183.614 Y100.021 E14.50584
G1 X183.853 Y100.571 E14.52079
G1 X184.063 Y101.128 E14.53564
G1 X184.242 Y101.687 E14.55029
G1 X184.39 Y102.248 E14.56476
G1 X184.513 Y102.817 E14.57928
G1 X184.606 Y103.394 E14.59386
G1 X184.672 Y103.981 E14.60859
G1 X184.708 Y104.557 E14.62299
G1 X184.716 Y104.995 E14.63392
G1 X184.701 Y105.598 E14.64896
G1 X184.657 Y106.179 E14.6635
G1 X184.586 Y106.747 E14.67778
G1 X184.486 Y107.32 E14.69229
G1 X184.355 Y107.896 E14.70702
G1 X184.193 Y108.472 E14.72195
G1 X183.996 Y109.056 E14.73732
G1 X183.775 Y109.617 E14.75236
G1 X183.518 Y110.18 E14.7678
G1 X183.234 Y110.725 E14.78313
G1 X182.923 Y111.253 E14.79842
G1 X182.583 Y111.766 E14.81377
G1 X182.209 Y112.272 E14.82947
G1 X181.821 Y112.743 E14.84469
G1 X181.4 Y113.201 E14.86021
G1 X180.948 Y113.644 E14.876
G1 X180.49 Y114.048 E14.89123
G1 X180.004 Y114.434 E14.90671
G1 X179.496 Y114.795 E14.92226
G1 X178.973 Y115.127 E14.93771
G1 X178.45 Y115.422 E14.95269
G1 X177.9 Y115.696 E14.96802
G1 X177.352 Y115.935 E14.98293
G1 X176.794 Y116.145 E14.9978
G1 X176.238 Y116.323 E15.01237
G1 X175.672 Y116.474 E15.02698
G1 X175.118 Y116.593 E15.04111
G1 X174.533 Y116.689 E15.0559
G1 X173.943 Y116.755 E15.07071
G1 X173.363 Y116.791 E15.08521
G1 X172.917 Y116.8 E15.09633
G1 X172.328 Y116.785 E15.11103
G1 X171.752 Y116.742 E15.12544
G1 X171.168 Y116.67 E15.14012
G1 X170.57 Y116.564 E15.15527
G1 X170.002 Y116.434 E15.1698
G1 X169.426 Y116.272 E15.18473
G1 X168.871 Y116.085 E15.19934
G1 X168.327 Y115.871 E15.21392
G1 X167.798 Y115.632 E15.2284
G1 X167.258 Y115.355 E15.24354
G1 X166.748 Y115.06 E15.25824
G1 X166.233 Y114.725 E15.27356
G1 X165.751 Y114.375 E15.28842
G1 X165.269 Y113.986 E15.30387
G1 X164.811 Y113.576 E15.31921
G1 X164.382 Y113.149 E15.33431
G1 X163.913 Y112.632 E15.35172
G1 X72.916 Y112.632 E17.62165
G1 X71.828 Y112.553 E17.64886
G1 X71.327 Y112.464 E17.66155
G1 X70.798 Y112.332 E17.67515
G1 X70.279 Y112.162 E17.68878
G1 X69.762 Y111.95 E17.70272
G1 X69.238 Y111.687 E17.71734
G1 X68.779 Y111.413 E17.73068
G1 X68.305 Y111.081 E17.74511
G1 X67.87 Y110.725 E17.75913
G1 X67.45 Y110.326 E17.77358
G1 X67.087 Y109.926 E17.78706
G1 X66.723 Y109.459 E17.80183
G1 X66.421 Y109.008 E17.81537
G1 X66.145 Y108.519 E17.82937
G1 X65.907 Y108.019 E17.84319
G1 X65.712 Y107.521 E17.85653
G1 X65.555 Y107.015 E17.86974
G1 X65.431 Y106.491 E17.88318
G1 X65.346 Y105.967 E17.89642
G1 X65.297 Y105.435 E17.90975
G1 X65.284 Y105.007 E17.92043
G1 X65.303 Y104.464 E17.93398
G1 X65.36 Y103.926 E17.94748
G1 X65.452 Y103.411 E17.96053
G1 X65.585 Y102.879 E17.97421
G1 X65.752 Y102.368 E17.98762
G1 X65.965 Y101.849 E18.00161
G1 X66.229 Y101.322 E18.01631
G1 X66.501 Y100.866 E18.02956
G1 X66.84 Y100.382 E18.0443
G1 X67.18 Y99.965 E18.05772
G1 X67.59 Y99.534 E18.07256
G1 X67.99 Y99.171 E18.08603
G1 X68.456 Y98.807 E18.10078
G1 X68.908 Y98.505 E18.11434
G1 X69.397 Y98.229 E18.12835
G1 X69.897 Y97.991 E18.14217
G1 X70.395 Y97.796 E18.15551
G1 X70.9 Y97.639 E18.1687
G1 X71.424 Y97.516 E18.18212
G1 X71.949 Y97.43 E18.1954
G1 X72.481 Y97.381 E18.20872
G1 X72.922 Y97.368 E18.21973
G1 X163.913 Y97.368 E20.48951
G0 F3600 X164.047 Y97.22
G0 X164.417 Y97.556
G0 X164.106 Y97.804
G0 X72.92 Y107.243
G0 X72.183 Y107.106
G0 X71.347 Y106.678
G0 X71.656 Y106.287
G1 F1800 X71.955 Y106.522 E20.49899
G1 X72.261 Y106.678 E20.50756
G1 X72.605 Y106.774 E20.51647
G1 X72.917 Y106.801 E20.52428
G1 X73.274 Y106.765 E20.53323
G1 X73.601 Y106.666 E20.54176
G1 X73.908 Y106.503 E20.55043
G1 X74.212 Y106.249 E20.56031
G1 X74.431 Y105.973 E20.5691
G1 X74.598 Y105.642 E20.57835
G1 X74.688 Y105.323 E20.58661
G1 X74.716 Y104.985 E20.59507
G1 X74.683 Y104.655 E20.60335
G1 X74.576 Y104.303 E20.61252
G1 X74.411 Y103.995 E20.62124
G1 X74.175 Y103.713 E20.63041
G1 X73.877 Y103.478 E20.63988
G1 X73.57 Y103.322 E20.64847
G1 X73.227 Y103.226 E20.65736
G1 X72.916 Y103.199 E20.66514
G1 X72.586 Y103.229 E20.67341
G1 X72.232 Y103.334 E20.68262
G1 X71.924 Y103.497 E20.69131
G1 X71.62 Y103.751 E20.70119
G1 X71.401 Y104.027 E20.70998
G1 X71.234 Y104.358 E20.71923
G1 X71.144 Y104.677 E20.7275
G1 X71.116 Y105.016 E20.73598
G1 X71.156 Y105.373 E20.74495
G1 X71.257 Y105.697 E20.75341
G1 X71.421 Y106.005 E20.76212
G1 X71.656 Y106.287 E20.77127
G0 F3600 X71.813 Y106.41
G0 X71.504 Y106.802
G0 X71.528 Y107.191
;TYPE:SKIN
G1 F1800 X71.973 Y107.418 E20.78373
G1 X72.463 Y107.555 E20.79643
G1 X72.922 Y107.595 E20.80792
G1 X73.429 Y107.543 E20.82063
G1 X73.904 Y107.401 E20.833
G1 X74.351 Y107.162 E20.84564
G1 X74.781 Y106.803 E20.85962
G1 X75.1 Y106.401 E20.87242
G1 X75.337 Y105.93 E20.88557
G1 X75.469 Y105.464 E20.89765
G1 X75.51 Y104.978 E20.90982
G1 X75.461 Y104.498 E20.92186
G1 X75.309 Y103.999 E20.93487
G1 X75.069 Y103.55 E20.94757
G1 X74.728 Y103.144 E20.96079
G1 X74.305 Y102.809 E20.97425
G1 X73.858 Y102.582 E20.98676
G1 X73.369 Y102.445 E20.99943
G1 X72.915 Y102.405 E21.0108
G1 X72.436 Y102.45 E21.0228
G1 X71.932 Y102.599 E21.03591
G1 X71.482 Y102.837 E21.04861
G1 X71.051 Y103.197 E21.06262
G1 X70.732 Y103.599 E21.07542
G1 X70.495 Y104.07 E21.08857
G1 X70.363 Y104.536 E21.10065
G1 X70.322 Y105.028 E21.11297
G1 X70.379 Y105.536 E21.12572
G1 X70.525 Y106.003 E21.13792
G1 X70.762 Y106.448 E21.1505
G1 X71.103 Y106.856 E21.16377
G1 X71.528 Y107.191 E21.17726
G0 F3600 X68.779 Y110.448
G1 F1800 X68.388 Y110.128 E21.18987
G1 X68.015 Y109.773 E21.20271
G1 X67.69 Y109.414 E21.21479
G1 X67.361 Y108.994 E21.2281
G1 X67.093 Y108.593 E21.24013
G1 X66.852 Y108.164 E21.25241
G1 X66.626 Y107.689 E21.26553
G1 X66.463 Y107.273 E21.27667
G1 X66.317 Y106.802 E21.28897
