;FLAVOR:Marlin
;TIME:734
;Filament used: 0.206881m
;Layer height: 0.1
;Generated with Cura_SteamEngine 3.5.1
M82 ;absolute extrusion mode
G21 ; set units to millimeters
G90 ; use absolute positioning
M82 ; absolute extrusion mode
M104 S200 ; set extruder temp
M140 S60 ; set bed temp
M190 S60 ; wait for bed temp
M109 S200 ; wait for extruder temp
G28 W ; home all without mesh bed level
G80 ; mesh bed leveling
G92 E0.0 ; reset extruder distance position
G1 Y-3.0 F1000.0 ; go outside print area
G1 X60.0 E9.0 F1000.0 ; intro line
G1 X100.0 E21.5 F1000.0 ; intro line
G92 E0.0 ; reset extruder distance position
G92 E0
G1 F2100 E-0.8
;LAYER_COUNT:45
;LAYER:0
M107
G0 F3600 X114.436 Y96.78 Z0.15
;TYPE:SKIRT
G1 F2100 E0
G1 F1800 X115.111 Y95.978 E0.02615
G1 X115.475 Y95.594 E0.03935
G1 X116.24 Y94.88 E0.06545
G1 X116.676 Y94.523 E0.07951
G1 X117.75 Y93.752 E0.11249
G1 X118.398 Y93.366 E0.1313
G1 X119.961 Y92.609 E0.17462
G1 X120.725 Y92.323 E0.19497
G1 X122.281 Y91.9 E0.2352
G1 X123.108 Y91.758 E0.25613
G1 X124.893 Y91.625 E0.30078
G1 X125.742 Y91.644 E0.32196
G1 X127.432 Y91.846 E0.36442
G1 X128.131 Y91.988 E0.38221
G1 X129.28 Y92.32 E0.41205
G1 X129.762 Y92.49 E0.4248
G1 X130.603 Y92.843 E0.44755
G1 X131.046 Y93.059 E0.45984
G1 X131.998 Y93.591 E0.48705
G1 X132.436 Y93.871 E0.50001
G1 X133.303 Y94.5 E0.52673
G1 X133.687 Y94.813 E0.53909
G1 X134.337 Y95.407 E0.56106
G1 X134.67 Y95.745 E0.57289
G1 X135.414 Y96.589 E0.60096
G1 X135.771 Y97.054 E0.61558
G1 X136.442 Y98.058 E0.64571
G1 X136.787 Y98.676 E0.66336
G1 X137.505 Y100.249 E0.70649
G1 X137.788 Y101.081 E0.72842
G1 X138.204 Y102.872 E0.77428
G1 X138.307 Y103.562 E0.79169
G1 X138.378 Y104.585 E0.81727
G1 X138.384 Y105.099 E0.83009
G1 X138.333 Y106.17 E0.85683
G1 X138.24 Y106.886 E0.87485
G1 X137.848 Y108.71 E0.92138
G1 X137.684 Y109.28 E0.93618
G1 X137.548 Y109.613 E0.94515
G1 X136.706 Y111.457 E0.99572
G1 X136.381 Y112.045 E1.01248
G1 X135.942 Y112.713 E1.03242
G1 X135.656 Y113.101 E1.04444
G1 X134.953 Y113.951 E1.07196
G1 X134.583 Y114.346 E1.08546
G1 X133.792 Y115.093 E1.1126
G1 X133.394 Y115.427 E1.12556
G1 X132.567 Y116.041 E1.15125
G1 X131.995 Y116.401 E1.16811
G1 X130.442 Y117.219 E1.2119
G1 X129.685 Y117.532 E1.23233
G1 X128.183 Y117.994 E1.27153
G1 X127.575 Y118.134 E1.28709
G1 X126.567 Y118.293 E1.31255
G1 X126.032 Y118.344 E1.32596
G1 X124.895 Y118.383 E1.35434
G1 X124.346 Y118.368 E1.36804
G1 X123.278 Y118.271 E1.39479
G1 X122.609 Y118.158 E1.41171
G1 X120.897 Y117.73 E1.45573
G1 X120.178 Y117.482 E1.4747
G1 X118.978 Y116.949 E1.50746
G1 X118.6 Y116.759 E1.51801
G1 X118.223 Y116.546 E1.52881
G1 X117.767 Y116.25 E1.54237
G1 X116.327 Y115.183 E1.58708
G1 X115.854 Y114.778 E1.60262
G1 X115.351 Y114.281 E1.62025
G1 X114.948 Y113.822 E1.63549
G1 X113.841 Y112.373 E1.68098
G1 X113.472 Y111.805 E1.69787
G1 X113.023 Y110.98 E1.7213
G1 X112.813 Y110.537 E1.73353
G1 X112.409 Y109.545 E1.76025
G1 X112.191 Y108.848 E1.77847
G1 X111.778 Y107.007 E1.82554
G1 X111.681 Y106.339 E1.84237
G1 X111.623 Y105.475 E1.86397
G1 X111.617 Y105.004 E1.87572
G1 X111.66 Y103.927 E1.90261
G1 X111.729 Y103.307 E1.91817
G1 X111.995 Y101.86 E1.95487
G1 X112.198 Y101.121 E1.97399
G1 X112.779 Y99.56 E2.01554
G1 X113.141 Y98.813 E2.03625
G1 X114.04 Y97.331 E2.07949
G1 X114.436 Y96.78 E2.09641
G0 F3600 X114.742 Y97.037
G1 F1800 X115.417 Y96.235 E2.12256
G1 X115.748 Y95.887 E2.13454
G1 X116.513 Y95.173 E2.16064
G1 X116.909 Y94.848 E2.17342
G1 X117.983 Y94.077 E2.2064
G1 X118.572 Y93.726 E2.22351
G1 X120.135 Y92.969 E2.26683
G1 X120.83 Y92.709 E2.28534
G1 X122.386 Y92.286 E2.32556
G1 X123.138 Y92.157 E2.34459
G1 X124.923 Y92.024 E2.38924
G1 X125.695 Y92.041 E2.40851
G1 X127.385 Y92.243 E2.45096
G1 X128.02 Y92.372 E2.46713
G1 X129.169 Y92.704 E2.49696
G1 X129.607 Y92.859 E2.50855
G1 X130.448 Y93.212 E2.5313
G1 X130.851 Y93.408 E2.54248
G1 X131.803 Y93.94 E2.56969
G1 X132.201 Y94.194 E2.58147
G1 X133.068 Y94.823 E2.60818
G1 X133.417 Y95.108 E2.61942
G1 X134.067 Y95.702 E2.64139
G1 X134.37 Y96.01 E2.65217
G1 X135.114 Y96.854 E2.68023
G1 X135.439 Y97.276 E2.69352
G1 X136.11 Y98.28 E2.72364
G1 X136.423 Y98.842 E2.73969
G1 X137.141 Y100.415 E2.78282
G1 X137.398 Y101.171 E2.80274
G1 X137.814 Y102.962 E2.84861
G1 X137.908 Y103.59 E2.86445
G1 X137.979 Y104.613 E2.89003
G1 X137.984 Y105.08 E2.90168
G1 X137.933 Y106.151 E2.92842
G1 X137.849 Y106.801 E2.94477
G1 X137.457 Y108.625 E2.99131
G1 X137.299 Y109.168 E3.00542
G1 X137.185 Y109.446 E3.01291
G1 X136.343 Y111.29 E3.06348
G1 X136.047 Y111.826 E3.07876
G1 X135.608 Y112.494 E3.09869
G1 X135.347 Y112.846 E3.10963
G1 X134.644 Y113.696 E3.13714
G1 X134.308 Y114.055 E3.14941
G1 X133.517 Y114.802 E3.17655
G1 X133.155 Y115.106 E3.18834
G1 X132.328 Y115.72 E3.21403
G1 X131.808 Y116.047 E3.22936
G1 X130.255 Y116.865 E3.27314
G1 X129.567 Y117.149 E3.29171
G1 X128.065 Y117.611 E3.33091
G1 X127.512 Y117.739 E3.34507
G1 X126.504 Y117.898 E3.37052
G1 X126.018 Y117.945 E3.3827
G1 X124.881 Y117.984 E3.41108
G1 X124.382 Y117.97 E3.42353
G1 X123.314 Y117.873 E3.45029
G1 X122.706 Y117.77 E3.46567
G1 X120.994 Y117.342 E3.50969
G1 X120.34 Y117.117 E3.52694
G1 X119.14 Y116.584 E3.5597
G1 X118.796 Y116.411 E3.5693
G1 X118.419 Y116.198 E3.5801
G1 X118.006 Y115.929 E3.5924
G1 X116.566 Y114.862 E3.6371
G1 X116.136 Y114.493 E3.65124
G1 X115.633 Y113.996 E3.66888
G1 X115.265 Y113.579 E3.68275
G1 X114.158 Y112.13 E3.72824
G1 X113.824 Y111.614 E3.74357
G1 X113.375 Y110.789 E3.767
G1 X113.183 Y110.386 E3.77814
G1 X112.779 Y109.394 E3.80486
G1 X112.581 Y108.761 E3.8214
G1 X112.168 Y106.92 E3.86847
G1 X112.08 Y106.312 E3.88379
G1 X112.022 Y105.448 E3.90539
G1 X112.016 Y105.02 E3.91607
G1 X112.059 Y103.943 E3.94296
G1 X112.122 Y103.38 E3.95709
G1 X112.388 Y101.933 E3.99379
G1 X112.573 Y101.261 E4.01117
G1 X113.154 Y99.7 E4.05272
G1 X113.483 Y99.02 E4.07157
G1 X114.382 Y97.538 E4.11481
G1 X114.742 Y97.037 E4.1302
G0 F3600 X115.048 Y97.295
G1 F1800 X115.723 Y96.493 E4.15634
G1 X116.021 Y96.179 E4.16714
G1 X116.786 Y95.465 E4.19325
G1 X117.143 Y95.173 E4.20475
G1 X118.217 Y94.402 E4.23773
G1 X118.747 Y94.086 E4.25312
G1 X120.31 Y93.329 E4.29644
G1 X120.935 Y93.095 E4.31309
G1 X122.491 Y92.672 E4.35332
G1 X123.168 Y92.556 E4.37045
G1 X124.953 Y92.423 E4.4151
G1 X125.647 Y92.438 E4.43242
G1 X127.337 Y92.64 E4.47487
G1 X127.909 Y92.756 E4.48943
G1 X129.058 Y93.088 E4.51927
G1 X129.452 Y93.228 E4.5297
G1 X130.293 Y93.581 E4.55245
G1 X130.656 Y93.757 E4.56251
G1 X131.608 Y94.289 E4.58972
G1 X131.966 Y94.518 E4.60032
G1 X132.833 Y95.147 E4.62704
G1 X133.148 Y95.404 E4.63718
G1 X133.798 Y95.998 E4.65914
G1 X134.07 Y96.274 E4.66881
G1 X134.814 Y97.118 E4.69688
G1 X135.106 Y97.499 E4.70885
G1 X135.777 Y98.503 E4.73897
G1 X136.059 Y99.008 E4.7534
G1 X136.777 Y100.581 E4.79653
G1 X137.009 Y101.262 E4.81448
G1 X137.425 Y103.053 E4.86035
G1 X137.509 Y103.618 E4.8746
G1 X137.58 Y104.641 E4.90018
G1 X137.585 Y105.061 E4.91065
G1 X137.534 Y106.132 E4.9374
G1 X137.458 Y106.717 E4.95212
G1 X137.066 Y108.541 E4.99865
G1 X136.821 Y109.28 E5.01808
G1 X135.979 Y111.124 E5.06864
G1 X135.712 Y111.606 E5.08239
G1 X135.273 Y112.274 E5.10233
G1 X135.039 Y112.591 E5.11216
G1 X134.336 Y113.441 E5.13967
G1 X134.034 Y113.764 E5.1507
G1 X133.243 Y114.511 E5.17784
G1 X132.917 Y114.784 E5.18845
G1 X132.09 Y115.398 E5.21414
G1 X131.622 Y115.693 E5.22794
G1 X130.069 Y116.511 E5.27173
G1 X129.449 Y116.767 E5.28846
G1 X127.947 Y117.229 E5.32766
G1 X127.45 Y117.344 E5.34039
G1 X126.442 Y117.503 E5.36584
G1 X126.004 Y117.545 E5.37682
G1 X124.867 Y117.584 E5.4052
G1 X124.418 Y117.571 E5.4164
G1 X123.35 Y117.474 E5.44315
G1 X122.803 Y117.382 E5.45699
G1 X121.091 Y116.954 E5.50101
G1 X120.503 Y116.751 E5.51653
G1 X119.303 Y116.218 E5.54928
G1 X118.993 Y116.062 E5.55794
G1 X118.616 Y115.849 E5.56874
G1 X118.244 Y115.607 E5.57981
G1 X116.804 Y114.54 E5.62452
G1 X116.417 Y114.209 E5.63722
G1 X115.914 Y113.712 E5.65486
G1 X115.583 Y113.337 E5.66734
G1 X114.476 Y111.888 E5.71282
G1 X114.175 Y111.423 E5.72664
G1 X113.726 Y110.598 E5.75007
G1 X113.554 Y110.235 E5.76009
G1 X113.15 Y109.243 E5.78681
G1 X112.971 Y108.673 E5.80171
G1 X112.558 Y106.832 E5.84878
G1 X112.479 Y106.285 E5.86256
G1 X112.421 Y105.421 E5.88417
G1 X112.416 Y105.036 E5.89377
G1 X112.459 Y103.959 E5.92066
G1 X112.515 Y103.452 E5.93338
G1 X112.781 Y102.005 E5.97008
G1 X112.948 Y101.4 E5.98574
G1 X113.529 Y99.839 E6.02729
G1 X113.825 Y99.228 E6.04422
G1 X114.724 Y97.746 E6.08746
G1 X115.048 Y97.295 E6.10131
G0 F3600 X115.354 Y97.552
G1 F1800 X116.029 Y96.75 E6.12746
G1 X116.294 Y96.472 E6.13704
G1 X117.059 Y95.758 E6.16315
G1 X117.376 Y95.497 E6.17339
G1 X118.45 Y94.726 E6.20637
G1 X118.921 Y94.446 E6.22004
G1 X120.484 Y93.689 E6.26336
G1 X121.04 Y93.481 E6.27817
G1 X122.596 Y93.058 E6.31839
G1 X123.197 Y92.955 E6.3336
G1 X124.982 Y92.822 E6.37825
G1 X125.6 Y92.836 E6.39367
G1 X127.29 Y93.038 E6.43613
G1 X127.798 Y93.141 E6.44906
G1 X128.947 Y93.473 E6.47889
G1 X129.297 Y93.596 E6.48815
G1 X130.138 Y93.949 E6.5109
G1 X130.461 Y94.107 E6.51987
G1 X131.413 Y94.639 E6.54707
G1 X131.731 Y94.842 E6.55648
G1 X132.598 Y95.471 E6.5832
G1 X132.878 Y95.699 E6.59221
G1 X133.528 Y96.293 E6.61418
G1 X133.769 Y96.539 E6.62277
G1 X134.513 Y97.383 E6.65083
G1 X134.774 Y97.721 E6.66149
G1 X135.445 Y98.725 E6.69161
G1 X135.695 Y99.174 E6.70443
G1 X136.413 Y100.747 E6.74756
G1 X136.619 Y101.352 E6.7635
G1 X137.035 Y103.143 E6.80937
G1 X137.11 Y103.645 E6.82203
G1 X137.181 Y104.668 E6.84761
G1 X137.185 Y105.042 E6.85694
G1 X137.134 Y106.113 E6.88369
G1 X137.067 Y106.633 E6.89677
G1 X136.675 Y108.457 E6.94331
G1 X136.457 Y109.114 E6.96057
G1 X135.615 Y110.958 E7.01114
G1 X135.378 Y111.386 E7.02334
G1 X134.939 Y112.054 E7.04328
G1 X134.731 Y112.336 E7.05203
G1 X134.028 Y113.186 E7.07954
G1 X133.759 Y113.474 E7.08937
G1 X132.968 Y114.221 E7.11651
G1 X132.679 Y114.463 E7.12591
G1 X131.852 Y115.077 E7.15161
G1 X131.435 Y115.339 E7.16389
G1 X129.882 Y116.157 E7.20768
G1 X129.332 Y116.385 E7.22253
G1 X127.83 Y116.847 E7.26173
G1 X127.388 Y116.949 E7.27305
G1 X126.38 Y117.108 E7.2985
G1 X125.991 Y117.145 E7.30825
G1 X124.854 Y117.184 E7.33663
G1 X124.455 Y117.173 E7.34658
G1 X123.387 Y117.076 E7.37334
G1 X122.9 Y116.993 E7.38566
G1 X121.188 Y116.565 E7.42968
G1 X120.665 Y116.385 E7.44348
G1 X119.465 Y115.852 E7.47623
G1 X119.19 Y115.714 E7.48391
G1 X118.813 Y115.501 E7.49471
G1 X118.482 Y115.286 E7.50455
G1 X117.042 Y114.219 E7.54926
G1 X116.698 Y113.924 E7.56056
G1 X116.195 Y113.427 E7.5782
G1 X115.901 Y113.094 E7.58928
G1 X114.794 Y111.645 E7.63477
G1 X114.526 Y111.232 E7.64705
G1 X114.077 Y110.407 E7.67048
G1 X113.924 Y110.084 E7.6794
G1 X113.52 Y109.092 E7.70612
G1 X113.362 Y108.585 E7.71936
G1 X112.949 Y106.744 E7.76643
G1 X112.878 Y106.258 E7.77868
G1 X112.82 Y105.394 E7.80028
G1 X112.816 Y105.052 E7.80881
G1 X112.859 Y103.975 E7.8357
G1 X112.909 Y103.524 E7.84702
G1 X113.175 Y102.077 E7.88372
G1 X113.323 Y101.54 E7.89762
G1 X113.904 Y99.979 E7.93917
G1 X114.167 Y99.435 E7.95424
G1 X115.066 Y97.953 E7.99748
G1 X115.354 Y97.552 E8.00979
G1 F2100 E7.20979
G0 F3600 X116.605 Y100.213
G0 X117.696 Y100.868
G0 X117.697 Y100.957
G0 X117.708 Y100.888
;TYPE:WALL-INNER
G1 F2100 E8.00979
G1 F1800 X117.709 Y100.889 E8.00983
G1 X117.803 Y101.226 E8.01856
G1 X117.813 Y101.264 E8.01954
G1 X118.358 Y103.22 E8.07019
G1 X116.803 Y104.744 E8.1245
G1 X116.786 Y104.761 E8.1251
G1 X116.603 Y104.94 E8.13148
G1 X116.611 Y104.583 E8.1355
G1 X116.612 Y104.56 E8.13598
G1 X116.649 Y104.094 E8.14764
G1 X116.717 Y103.602 E8.16003
G1 X116.804 Y103.159 E8.17129
G1 X116.934 Y102.657 E8.18422
G1 X117.082 Y102.198 E8.19625
G1 X117.265 Y101.726 E8.20888
G1 X117.429 Y101.363 E8.21882
G1 X117.445 Y101.327 E8.21977
G1 X117.679 Y100.885 E8.23189
G1 X117.698 Y100.849 E8.2329
G1 X117.708 Y100.888 E8.23343
G0 F3600 X117.697 Y100.957
G0 X120.585 Y98.005
G0 X120.681 Y98.03
G1 F1800 X120.678 Y98.043 E8.23377
G1 X120.138 Y100.138 E8.28774
G1 X118.014 Y100.684 E8.34244
G1 X117.974 Y100.694 E8.34347
G1 X117.758 Y100.75 E8.34904
G1 X117.919 Y100.482 E8.35232
G1 X117.942 Y100.449 E8.35311
G1 X118.193 Y100.079 E8.36427
G1 X118.456 Y99.733 E8.37511
G1 X118.735 Y99.405 E8.38585
G1 X119.091 Y99.03 E8.39875
G1 X119.445 Y98.701 E8.4108
G1 X119.773 Y98.425 E8.4215
G1 X120.045 Y98.217 E8.43004
G1 X120.405 Y97.969 E8.44094
G1 X120.415 Y97.962 E8.4412
G1 X120.75 Y97.758 E8.45098
G1 X120.681 Y98.03 E8.45286
G0 F3600 X120.862 Y97.7
G1 F1800 X120.85 Y97.698 E8.45316
G1 X120.861 Y97.692 E8.45332
G1 X121.233 Y97.493 E8.46385
G1 X121.355 Y97.436 E8.4672
G1 X121.656 Y97.295 E8.4755
G1 X122.068 Y97.129 E8.48658
G1 X122.538 Y96.969 E8.49896
G1 X123 Y96.842 E8.51091
G1 X123.492 Y96.738 E8.52346
G1 X123.971 Y96.664 E8.53555
G1 X124.365 Y96.625 E8.54542
G1 X124.414 Y96.621 E8.54665
G1 X124.915 Y96.601 E8.55916
G1 X124.943 Y96.6 E8.55986
G1 X124.923 Y96.62 E8.56024
G1 X124.674 Y96.875 E8.56867
G1 X124.639 Y96.91 E8.56985
G1 X123.22 Y98.358 E8.62042
G1 X121.283 Y97.819 E8.67057
G1 X121.153 Y97.783 E8.67354
G1 X120.863 Y97.701 E8.68001
G1 X120.862 Y97.7 E8.68005
G0 F3600 X120.94 Y97.707
G0 X125 Y97.074
G0 X129.042 Y97.696
G0 X129.112 Y97.708
G1 F1800 X129.111 Y97.709 E8.68008
G1 X128.787 Y97.799 E8.68847
G1 X128.734 Y97.814 E8.68984
G1 X126.78 Y98.358 E8.74044
G1 X125.254 Y96.801 E8.79482
G1 X125.234 Y96.781 E8.79553
G1 X125.06 Y96.603 E8.80174
G1 X125.407 Y96.61 E8.8056
G1 X125.434 Y96.612 E8.80615
G1 X125.875 Y96.644 E8.81718
G1 X126.398 Y96.717 E8.83036
G1 X126.849 Y96.806 E8.84182
G1 X127.354 Y96.937 E8.85484
G1 X127.825 Y97.09 E8.86719
G1 X128.27 Y97.263 E8.8791
G1 X128.639 Y97.43 E8.8892
G1 X128.69 Y97.453 E8.89053
G1 X129.115 Y97.679 E8.90205
G1 X129.151 Y97.698 E8.90307
G1 X129.112 Y97.708 E8.9036
G0 F3600 X129.042 Y97.696
G0 X131.995 Y100.585
G0 X131.97 Y100.681
G1 F1800 X131.957 Y100.678 E8.90393
G1 X129.862 Y100.138 E8.9579
G1 X129.316 Y98.014 E9.01261
G1 X129.306 Y97.974 E9.01364
G1 X129.25 Y97.758 E9.0192
G1 X129.518 Y97.919 E9.02249
G1 X129.551 Y97.942 E9.02328
G1 X129.921 Y98.193 E9.03443
G1 X130.267 Y98.456 E9.04527
G1 X130.595 Y98.735 E9.05601
G1 X130.963 Y99.084 E9.06867
G1 X131.286 Y99.429 E9.08046
G1 X131.575 Y99.773 E9.09166
G1 X131.783 Y100.045 E9.1002
G1 X132.031 Y100.405 E9.11111
G1 X132.038 Y100.415 E9.11137
G1 X132.242 Y100.75 E9.12115
G1 X131.97 Y100.681 E9.12302
G0 F3600 X132.3 Y100.862
G1 F1800 X132.302 Y100.85 E9.12333
G1 X132.308 Y100.861 E9.12349
G1 X132.523 Y101.266 E9.13493
G1 X132.566 Y101.358 E9.13746
G1 X132.703 Y101.651 E9.14553
G1 X132.883 Y102.103 E9.15767
G1 X133.029 Y102.534 E9.16902
G1 X133.157 Y102.996 E9.18098
G1 X133.26 Y103.474 E9.19317
G1 X133.334 Y103.953 E9.20526
G1 X133.375 Y104.366 E9.21562
G1 X133.38 Y104.424 E9.21707
G1 X133.399 Y104.914 E9.2293
G1 X133.4 Y104.943 E9.23002
G1 X133.379 Y104.923 E9.23042
G1 X133.131 Y104.68 E9.23856
G1 X133.11 Y104.66 E9.23928
G1 X133.089 Y104.639 E9.24002
G1 X131.642 Y103.22 E9.29058
G1 X132.183 Y101.278 E9.34086
G1 X132.21 Y101.18 E9.34317
G1 X132.299 Y100.863 E9.35052
G1 X132.3 Y100.862 E9.35055
G0 F3600 X132.293 Y100.94
G0 X132.926 Y105
G0 X132.303 Y109.042
G0 X132.293 Y109.112
G1 F1800 X132.292 Y109.111 E9.35059
G1 X132.204 Y108.796 E9.35875
G1 X132.186 Y108.73 E9.36045
G1 X131.642 Y106.78 E9.41095
G1 X133.2 Y105.254 E9.46535
G1 X133.221 Y105.233 E9.4661
G1 X133.397 Y105.06 E9.47225
G1 X133.39 Y105.404 E9.47605
G1 X133.388 Y105.432 E9.47661
G1 X133.352 Y105.893 E9.48815
G1 X133.287 Y106.373 E9.50023
G1 X133.192 Y106.858 E9.51256
G1 X133.071 Y107.326 E9.52462
G1 X132.913 Y107.816 E9.53746
G1 X132.745 Y108.251 E9.54909
G1 X132.568 Y108.639 E9.55973
G1 X132.54 Y108.701 E9.56133
G1 X132.32 Y109.115 E9.57243
G1 X132.302 Y109.149 E9.57339
G1 X132.293 Y109.112 E9.5739
G0 F3600 X132.022 Y109.307
G1 F1800 X132.241 Y109.25 E9.57954
G1 X132.077 Y109.523 E9.58293
G1 X131.945 Y109.717 E9.58878
G1 X131.81 Y109.917 E9.5948
G1 X131.542 Y110.27 E9.60586
G1 X131.246 Y110.616 E9.61722
G1 X130.935 Y110.944 E9.62849
G1 X130.562 Y111.294 E9.64125
G1 X130.234 Y111.57 E9.65194
G1 X129.973 Y111.77 E9.66015
G1 X129.578 Y112.042 E9.67211
G1 X129.559 Y112.055 E9.67269
